(Generated by maxnc.ulp)
G64
G17 G20 G40 G49
G54 G80 G90 G94
(Settings from /dapper/home/jepler/eagle/ulp/singlesided.gpar)
(roughing depth)    #1=0.0065
(outline depth)     #2=0.0055
(prehole depth)     #3=0.009
(hole depth)        #4=0.074
(dimension depth)   #5=0.060

(safety height)     #6=0.020
(toolchange height) #7=1.250

(roughing feed)     #11=15
(outline feed)      #12=20
(drill feed)        #13=8
(dimension feed)    #14=8
(mill-drill feed)   #15=4
(End Settings)
(AXIS,hide)

(measure reference tool)
g30 (above switch)
g49
g38.2 z0 f15 (measure)
g91 g0z.2 (off the switch)
#1000=#5063 (save reference length)
g90 (done)
(AXIS,show)
#30=1
S1000 M3
G04 P3
(Begin block of reorderable sections)
(Begin section -0.603929 2.590512)
G00 X-0.603929 Y2.590512
G01 F#12 Z[0-#2]
G04 P.05
G01 F#12 X-0.667512 Y2.590512
G01 X-0.667512 Y2.586543
G01 X-0.686543 Y2.567512
G01 X-0.713453 Y2.567512
G01 X-0.732484 Y2.586543
G01 X-0.732484 Y2.613453
G01 X-0.713453 Y2.632484
G01 X-0.686543 Y2.632484
G01 X-0.667512 Y2.613453
G01 X-0.667512 Y2.609484
G01 X-0.596067 Y2.609484
G01 X-0.590512 Y2.603929
G01 X-0.576567 Y2.589984
G01 X-0.568791 Y2.589984
G01 X-0.560012 Y2.581205
G01 X-0.560012 Y2.231205
G01 X-0.488291 Y2.159484
G01 X-0.460713 Y2.159484
G01 X-0.440512 Y2.139283
G01 X-0.440512 Y2.110713
G01 X-0.460713 Y2.090512
G01 X-0.489283 Y2.090512
G01 X-0.509484 Y2.110713
G01 X-0.509484 Y2.138291
G01 X-0.581205 Y2.210012
G01 X-0.589984 Y2.218791
G01 X-0.589984 Y2.576567
G01 X-0.603929 Y2.590512
G04 P.05
G00 Z#6
(End section)
(Begin section -0.732484 2.486543)
G00 X-0.732484 Y2.486543
G01 F#12 Z[0-#2]
G04 P.05
G01 F#12 X-0.732484 Y2.513453
G01 X-0.713453 Y2.532484
G01 X-0.686543 Y2.532484
G01 X-0.667512 Y2.513453
G01 X-0.667512 Y2.486543
G01 X-0.686543 Y2.467512
G01 X-0.713453 Y2.467512
G01 X-0.732484 Y2.486543
G04 P.05
G00 Z#6
(End section)
(Begin section -0.732484 2.386543)
G00 X-0.732484 Y2.386543
G01 F#12 Z[0-#2]
G04 P.05
G01 F#12 X-0.732484 Y2.413453
G01 X-0.713453 Y2.432484
G01 X-0.686543 Y2.432484
G01 X-0.667512 Y2.413453
G01 X-0.667512 Y2.386543
G01 X-0.686543 Y2.367512
G01 X-0.713453 Y2.367512
G01 X-0.732484 Y2.386543
G04 P.05
G00 Z#6
(End section)
(Begin section -0.732484 2.286543)
G00 X-0.732484 Y2.286543
G01 F#12 Z[0-#2]
G04 P.05
G01 F#12 X-0.732484 Y2.313453
G01 X-0.713453 Y2.332484
G01 X-0.686543 Y2.332484
G01 X-0.667512 Y2.313453
G01 X-0.667512 Y2.286543
G01 X-0.686543 Y2.267512
G01 X-0.713453 Y2.267512
G01 X-0.732484 Y2.286543
G04 P.05
G00 Z#6
(End section)
(Begin section -0.732484 2.186543)
G00 X-0.732484 Y2.186543
G01 F#12 Z[0-#2]
G04 P.05
G01 F#12 X-0.732484 Y2.213453
G01 X-0.713453 Y2.232484
G01 X-0.686543 Y2.232484
G01 X-0.667512 Y2.213453
G01 X-0.667512 Y2.186543
G01 X-0.686543 Y2.167512
G01 X-0.713453 Y2.167512
G01 X-0.732484 Y2.186543
G04 P.05
G00 Z#6
(End section)
(Begin section -0.732484 1.986543)
G00 X-0.732484 Y1.986543
G01 F#12 Z[0-#2]
G04 P.05
G01 F#12 X-0.732484 Y2.013453
G01 X-0.713453 Y2.032484
G01 X-0.686543 Y2.032484
G01 X-0.667512 Y2.013453
G01 X-0.667512 Y2.009484
G01 X-0.611705 Y2.009484
G01 X-0.606205 Y2.014984
G01 X-0.593791 Y2.014984
G01 X-0.505287 Y1.926476
G01 X-0.489283 Y1.942484
G01 X-0.460713 Y1.942484
G01 X-0.440512 Y1.922283
G01 X-0.440512 Y1.893713
G01 X-0.460713 Y1.873512
G01 X-0.489283 Y1.873512
G01 X-0.508783 Y1.893012
G01 X-0.514205 Y1.893012
G01 X-0.611705 Y1.990512
G01 X-0.667512 Y1.990512
G01 X-0.667512 Y1.986543
G01 X-0.686543 Y1.967512
G01 X-0.713453 Y1.967512
G01 X-0.732484 Y1.986543
G04 P.05
G00 Z#6
(End section)
(Begin section -0.732484 1.886543)
G00 X-0.732484 Y1.886543
G01 F#12 Z[0-#2]
G04 P.05
G01 F#12 X-0.732484 Y1.913453
G01 X-0.713453 Y1.932484
G01 X-0.686543 Y1.932484
G01 X-0.667512 Y1.913453
G01 X-0.667512 Y1.886543
G01 X-0.686543 Y1.867512
G01 X-0.713453 Y1.867512
G01 X-0.732484 Y1.886543
G04 P.05
G00 Z#6
(End section)
(Begin section -0.732484 1.786543)
G00 X-0.732484 Y1.786543
G01 F#12 Z[0-#2]
G04 P.05
G01 F#12 X-0.732484 Y1.813453
G01 X-0.713453 Y1.832484
G01 X-0.686543 Y1.832484
G01 X-0.667512 Y1.813453
G01 X-0.667512 Y1.786543
G01 X-0.686543 Y1.767512
G01 X-0.713453 Y1.767512
G01 X-0.732484 Y1.786543
G04 P.05
G00 Z#6
(End section)
(Begin section -0.732484 1.686543)
G00 X-0.732484 Y1.686543
G01 F#12 Z[0-#2]
G04 P.05
G01 F#12 X-0.732484 Y1.713453
G01 X-0.713453 Y1.732484
G01 X-0.686543 Y1.732484
G01 X-0.667512 Y1.713453
G01 X-0.667512 Y1.686543
G01 X-0.686543 Y1.667512
G01 X-0.713453 Y1.667512
G01 X-0.732484 Y1.686543
G04 P.05
G00 Z#6
(End section)
(Begin section -0.732484 1.586543)
G00 X-0.732484 Y1.586543
G01 F#12 Z[0-#2]
G04 P.05
G01 F#12 X-0.732484 Y1.613453
G01 X-0.713453 Y1.632484
G01 X-0.686543 Y1.632484
G01 X-0.667512 Y1.613453
G01 X-0.667512 Y1.586543
G01 X-0.686543 Y1.567512
G01 X-0.713453 Y1.567512
G01 X-0.732484 Y1.586543
G04 P.05
G00 Z#6
(End section)
(Begin section -0.732484 1.486543)
G00 X-0.732484 Y1.486543
G01 F#12 Z[0-#2]
G04 P.05
G01 F#12 X-0.732484 Y1.513453
G01 X-0.713453 Y1.532484
G01 X-0.686543 Y1.532484
G01 X-0.669043 Y1.514984
G01 X-0.631205 Y1.514984
G01 X-0.549205 Y1.596984
G01 X-0.536791 Y1.596984
G01 X-0.508783 Y1.596984
G01 X-0.489283 Y1.616484
G01 X-0.460713 Y1.616484
G01 X-0.440512 Y1.596283
G01 X-0.440512 Y1.567713
G01 X-0.460713 Y1.547512
G01 X-0.489283 Y1.547512
G01 X-0.508783 Y1.567012
G01 X-0.536791 Y1.567012
G01 X-0.610012 Y1.493791
G01 X-0.618791 Y1.485012
G01 X-0.669043 Y1.485012
G01 X-0.686543 Y1.467512
G01 X-0.713453 Y1.467512
G01 X-0.732484 Y1.486543
G04 P.05
G00 Z#6
(End section)
(Begin section -0.732484 1.386543)
G00 X-0.732484 Y1.386543
G01 F#12 Z[0-#2]
G04 P.05
G01 F#12 X-0.732484 Y1.413453
G01 X-0.729673 Y1.416260
G01 X-0.753929 Y1.440512
G01 X-0.759484 Y1.446067
G01 X-0.759484 Y1.521067
G01 X-0.759484 Y1.528929
G01 X-0.734484 Y1.553929
G01 X-0.728929 Y1.559484
G01 X-0.661705 Y1.559484
G01 X-0.516205 Y1.704984
G01 X-0.508783 Y1.704984
G01 X-0.489283 Y1.724484
G01 X-0.460713 Y1.724484
G01 X-0.440512 Y1.704283
G01 X-0.440512 Y1.675713
G01 X-0.460713 Y1.655512
G01 X-0.489283 Y1.655512
G01 X-0.506287 Y1.672520
G01 X-0.643791 Y1.535012
G01 X-0.656205 Y1.535012
G01 X-0.661705 Y1.540512
G01 X-0.721067 Y1.540512
G01 X-0.740512 Y1.521067
G01 X-0.740512 Y1.453929
G01 X-0.716260 Y1.429673
G01 X-0.713453 Y1.432484
G01 X-0.686543 Y1.432484
G01 X-0.667512 Y1.413453
G01 X-0.667512 Y1.386543
G01 X-0.686543 Y1.367512
G01 X-0.713453 Y1.367512
G01 X-0.732484 Y1.386543
G04 P.05
G00 Z#6
(End section)
(Begin section -0.732484 1.286543)
G00 X-0.732484 Y1.286543
G01 F#12 Z[0-#2]
G04 P.05
G01 F#12 X-0.732484 Y1.313453
G01 X-0.713453 Y1.332484
G01 X-0.686543 Y1.332484
G01 X-0.667512 Y1.313453
G01 X-0.667512 Y1.286543
G01 X-0.686543 Y1.267512
G01 X-0.713453 Y1.267512
G01 X-0.732484 Y1.286543
G04 P.05
G00 Z#6
(End section)
(Begin section -0.732484 1.186543)
G00 X-0.732484 Y1.186543
G01 F#12 Z[0-#2]
G04 P.05
G01 F#12 X-0.732484 Y1.213453
G01 X-0.713453 Y1.232484
G01 X-0.686543 Y1.232484
G01 X-0.667512 Y1.213453
G01 X-0.667512 Y1.186543
G01 X-0.686543 Y1.167512
G01 X-0.713453 Y1.167512
G01 X-0.732484 Y1.186543
G04 P.05
G00 Z#6
(End section)
(Begin section -0.732484 1.086543)
G00 X-0.732484 Y1.086543
G01 F#12 Z[0-#2]
G04 P.05
G01 F#12 X-0.732484 Y1.113453
G01 X-0.713453 Y1.132484
G01 X-0.686543 Y1.132484
G01 X-0.667512 Y1.113453
G01 X-0.667512 Y1.086543
G01 X-0.686543 Y1.067512
G01 X-0.713453 Y1.067512
G01 X-0.732484 Y1.086543
G04 P.05
G00 Z#6
(End section)
(Begin section -0.732484 0.986543)
G00 X-0.732484 Y0.986543
G01 F#12 Z[0-#2]
G04 P.05
G01 F#12 X-0.732484 Y1.013453
G01 X-0.713453 Y1.032484
G01 X-0.686543 Y1.032484
G01 X-0.667512 Y1.013453
G01 X-0.667512 Y0.986543
G01 X-0.686543 Y0.967512
G01 X-0.713453 Y0.967512
G01 X-0.732484 Y0.986543
G04 P.05
G00 Z#6
(End section)
(Begin section -0.732484 0.886543)
G00 X-0.732484 Y0.886543
G01 F#12 Z[0-#2]
G04 P.05
G01 F#12 X-0.732484 Y0.913453
G01 X-0.713453 Y0.932484
G01 X-0.686543 Y0.932484
G01 X-0.667512 Y0.913453
G01 X-0.667512 Y0.886543
G01 X-0.686543 Y0.867512
G01 X-0.713453 Y0.867512
G01 X-0.732484 Y0.886543
G04 P.05
G00 Z#6
(End section)
(Begin section -0.732484 0.386543)
G00 X-0.732484 Y0.386543
G01 F#12 Z[0-#2]
G04 P.05
G01 F#12 X-0.732484 Y0.413453
G01 X-0.713453 Y0.432484
G01 X-0.686543 Y0.432484
G01 X-0.669043 Y0.414984
G01 X-0.668791 Y0.414984
G01 X-0.368791 Y0.114984
G01 X-0.270657 Y0.114984
G01 X-0.267925 Y0.121587
G01 X-0.257209 Y0.132303
G01 X-0.243201 Y0.138106
G01 X-0.156795 Y0.138106
G01 X-0.142787 Y0.132303
G01 X-0.132071 Y0.121587
G01 X-0.126268 Y0.107579
G01 X-0.126268 Y0.092417
G01 X-0.132071 Y0.078409
G01 X-0.142787 Y0.067693
G01 X-0.156795 Y0.061890
G01 X-0.243201 Y0.061890
G01 X-0.257209 Y0.067693
G01 X-0.267925 Y0.078409
G01 X-0.270657 Y0.085012
G01 X-0.381205 Y0.085012
G01 X-0.389984 Y0.093791
G01 X-0.675126 Y0.378933
G01 X-0.686543 Y0.367512
G01 X-0.713453 Y0.367512
G01 X-0.732484 Y0.386543
G04 P.05
G00 Z#6
(End section)
(Begin section -0.732484 0.286543)
G00 X-0.732484 Y0.286543
G01 F#12 Z[0-#2]
G04 P.05
G01 F#12 X-0.732484 Y0.313453
G01 X-0.713453 Y0.332484
G01 X-0.686543 Y0.332484
G01 X-0.667512 Y0.313453
G01 X-0.667512 Y0.286543
G01 X-0.686543 Y0.267512
G01 X-0.713453 Y0.267512
G01 X-0.732484 Y0.286543
G04 P.05
G00 Z#6
(End section)
(Begin section -0.156795 0.261890)
G00 X-0.156795 Y0.261890
G01 F#12 Z[0-#2]
G04 P.05
G01 F#12 X-0.243201 Y0.261890
G01 X-0.257209 Y0.267693
G01 X-0.267925 Y0.278409
G01 X-0.270657 Y0.285012
G01 X-0.371874 Y0.285012
G01 X-0.387370 Y0.269512
G01 X-0.412626 Y0.269512
G01 X-0.428122 Y0.285012
G01 X-0.506205 Y0.285012
G01 X-0.514984 Y0.293791
G01 X-0.688705 Y0.467512
G01 X-0.713453 Y0.467512
G01 X-0.732484 Y0.486543
G01 X-0.732484 Y0.513453
G01 X-0.713453 Y0.532484
G01 X-0.686543 Y0.532484
G01 X-0.667512 Y0.513453
G01 X-0.667512 Y0.488705
G01 X-0.493791 Y0.314984
G01 X-0.428122 Y0.314984
G01 X-0.412626 Y0.330484
G01 X-0.387370 Y0.330484
G01 X-0.371874 Y0.314984
G01 X-0.270657 Y0.314984
G01 X-0.267925 Y0.321587
G01 X-0.257209 Y0.332303
G01 X-0.243201 Y0.338106
G01 X-0.156795 Y0.338106
G01 X-0.142787 Y0.332303
G01 X-0.132071 Y0.321587
G01 X-0.126268 Y0.307579
G01 X-0.126268 Y0.292417
G01 X-0.132071 Y0.278409
G01 X-0.142787 Y0.267693
G01 X-0.156795 Y0.261890
G04 P.05
G00 Z#6
(End section)
(Begin section -0.156795 0.461890)
G00 X-0.156795 Y0.461890
G01 F#12 Z[0-#2]
G04 P.05
G01 F#12 X-0.243201 Y0.461890
G01 X-0.257209 Y0.467693
G01 X-0.267925 Y0.478409
G01 X-0.270657 Y0.485012
G01 X-0.371870 Y0.485012
G01 X-0.387370 Y0.469512
G01 X-0.412626 Y0.469512
G01 X-0.428126 Y0.485012
G01 X-0.593791 Y0.485012
G01 X-0.606205 Y0.485012
G01 X-0.688705 Y0.567512
G01 X-0.713453 Y0.567512
G01 X-0.732484 Y0.586543
G01 X-0.732484 Y0.613453
G01 X-0.713453 Y0.632484
G01 X-0.686543 Y0.632484
G01 X-0.667512 Y0.613453
G01 X-0.667512 Y0.588705
G01 X-0.593791 Y0.514984
G01 X-0.428126 Y0.514984
G01 X-0.412626 Y0.530484
G01 X-0.387370 Y0.530484
G01 X-0.371870 Y0.514984
G01 X-0.270657 Y0.514984
G01 X-0.267925 Y0.521587
G01 X-0.257209 Y0.532303
G01 X-0.243201 Y0.538106
G01 X-0.156795 Y0.538106
G01 X-0.142787 Y0.532303
G01 X-0.132071 Y0.521587
G01 X-0.126268 Y0.507579
G01 X-0.126268 Y0.492417
G01 X-0.132071 Y0.478409
G01 X-0.142787 Y0.467693
G01 X-0.156795 Y0.461890
G04 P.05
G00 Z#6
(End section)
(Begin section -0.156795 0.661890)
G00 X-0.156795 Y0.661890
G01 F#12 Z[0-#2]
G04 P.05
G01 F#12 X-0.243201 Y0.661890
G01 X-0.257209 Y0.667693
G01 X-0.267925 Y0.678409
G01 X-0.270657 Y0.685012
G01 X-0.371870 Y0.685012
G01 X-0.387370 Y0.669512
G01 X-0.412626 Y0.669512
G01 X-0.428126 Y0.685012
G01 X-0.669043 Y0.685012
G01 X-0.686543 Y0.667512
G01 X-0.713453 Y0.667512
G01 X-0.732484 Y0.686543
G01 X-0.732484 Y0.713453
G01 X-0.713453 Y0.732484
G01 X-0.686543 Y0.732484
G01 X-0.669043 Y0.714984
G01 X-0.428126 Y0.714984
G01 X-0.412626 Y0.730484
G01 X-0.407925 Y0.730484
G01 X-0.403929 Y0.734484
G01 X-0.396067 Y0.734484
G01 X-0.392071 Y0.730484
G01 X-0.387370 Y0.730484
G01 X-0.371870 Y0.714984
G01 X-0.270657 Y0.714984
G01 X-0.267925 Y0.721587
G01 X-0.257209 Y0.732303
G01 X-0.243201 Y0.738106
G01 X-0.156795 Y0.738106
G01 X-0.142787 Y0.732303
G01 X-0.132071 Y0.721587
G01 X-0.126268 Y0.707579
G01 X-0.126268 Y0.692417
G01 X-0.132071 Y0.678409
G01 X-0.142787 Y0.667693
G01 X-0.156795 Y0.661890
G04 P.05
G00 Z#6
(End section)
(Begin section -0.156795 0.861890)
G00 X-0.156795 Y0.861890
G01 F#12 Z[0-#2]
G04 P.05
G01 F#12 X-0.243201 Y0.861890
G01 X-0.257209 Y0.867693
G01 X-0.267925 Y0.878409
G01 X-0.270657 Y0.885012
G01 X-0.371870 Y0.885012
G01 X-0.387370 Y0.869512
G01 X-0.409295 Y0.869512
G01 X-0.493791 Y0.785012
G01 X-0.506205 Y0.785012
G01 X-0.669047 Y0.785012
G01 X-0.686543 Y0.767512
G01 X-0.713453 Y0.767512
G01 X-0.732484 Y0.786543
G01 X-0.732484 Y0.813453
G01 X-0.713453 Y0.832484
G01 X-0.686543 Y0.832484
G01 X-0.669047 Y0.814984
G01 X-0.506205 Y0.814984
G01 X-0.430484 Y0.890701
G01 X-0.430484 Y0.912626
G01 X-0.412626 Y0.930484
G01 X-0.387370 Y0.930484
G01 X-0.371870 Y0.914984
G01 X-0.270657 Y0.914984
G01 X-0.267925 Y0.921587
G01 X-0.257209 Y0.932303
G01 X-0.243201 Y0.938106
G01 X-0.156795 Y0.938106
G01 X-0.142787 Y0.932303
G01 X-0.132071 Y0.921587
G01 X-0.126268 Y0.907579
G01 X-0.126268 Y0.892417
G01 X-0.132071 Y0.878409
G01 X-0.142787 Y0.867693
G01 X-0.156795 Y0.861890
G04 P.05
G00 Z#6
(End section)
(Begin section -0.509484 1.458713)
G00 X-0.509484 Y1.458713
G01 F#12 Z[0-#2]
G04 P.05
G01 F#12 X-0.509484 Y1.487283
G01 X-0.489283 Y1.507484
G01 X-0.460713 Y1.507484
G01 X-0.440512 Y1.487283
G01 X-0.440512 Y1.458713
G01 X-0.460713 Y1.438512
G01 X-0.489283 Y1.438512
G01 X-0.509484 Y1.458713
G04 P.05
G00 Z#6
(End section)
(Begin section -0.509484 1.784713)
G00 X-0.509484 Y1.784713
G01 F#12 Z[0-#2]
G04 P.05
G01 F#12 X-0.509484 Y1.813283
G01 X-0.509476 Y1.813287
G01 X-0.636705 Y1.940512
G01 X-0.721067 Y1.940512
G01 X-0.728929 Y1.940512
G01 X-0.753929 Y1.965512
G01 X-0.759484 Y1.971067
G01 X-0.759484 Y2.046067
G01 X-0.759484 Y2.053929
G01 X-0.729673 Y2.083736
G01 X-0.732484 Y2.086543
G01 X-0.732484 Y2.113453
G01 X-0.713453 Y2.132484
G01 X-0.686543 Y2.132484
G01 X-0.667512 Y2.113453
G01 X-0.667512 Y2.086543
G01 X-0.686543 Y2.067512
G01 X-0.713453 Y2.067512
G01 X-0.716260 Y2.070323
G01 X-0.740512 Y2.046067
G01 X-0.740512 Y1.978929
G01 X-0.721067 Y1.959484
G01 X-0.636705 Y1.959484
G01 X-0.631205 Y1.964984
G01 X-0.618791 Y1.964984
G01 X-0.487295 Y1.833484
G01 X-0.460713 Y1.833484
G01 X-0.440512 Y1.813283
G01 X-0.440512 Y1.784713
G01 X-0.460713 Y1.764512
G01 X-0.489283 Y1.764512
G01 X-0.509484 Y1.784713
G04 P.05
G00 Z#6
(End section)
(Begin section -0.509484 2.001713)
G00 X-0.509484 Y2.001713
G01 F#12 Z[0-#2]
G04 P.05
G01 F#12 X-0.509484 Y2.029291
G01 X-0.631205 Y2.151012
G01 X-0.639984 Y2.159791
G01 X-0.639984 Y2.526567
G01 X-0.653929 Y2.540512
G01 X-0.728929 Y2.540512
G01 X-0.734484 Y2.546067
G01 X-0.759484 Y2.571067
G01 X-0.759484 Y2.578929
G01 X-0.759484 Y2.653929
G01 X-0.753929 Y2.659484
G01 X-0.728791 Y2.684622
G01 X-0.732484 Y2.693535
G01 X-0.732484 Y2.706461
G01 X-0.727539 Y2.718402
G01 X-0.718402 Y2.727539
G01 X-0.706461 Y2.732484
G01 X-0.693535 Y2.732484
G01 X-0.681594 Y2.727539
G01 X-0.672457 Y2.718402
G01 X-0.667512 Y2.706461
G01 X-0.667512 Y2.693535
G01 X-0.672457 Y2.681594
G01 X-0.681594 Y2.672457
G01 X-0.693535 Y2.667512
G01 X-0.706461 Y2.667512
G01 X-0.715374 Y2.671205
G01 X-0.740512 Y2.646067
G01 X-0.740512 Y2.578929
G01 X-0.721067 Y2.559484
G01 X-0.653929 Y2.559484
G01 X-0.646067 Y2.559484
G01 X-0.626567 Y2.539984
G01 X-0.618791 Y2.539984
G01 X-0.610012 Y2.531205
G01 X-0.610012 Y2.172205
G01 X-0.488291 Y2.050484
G01 X-0.460713 Y2.050484
G01 X-0.440512 Y2.030283
G01 X-0.440512 Y2.001713
G01 X-0.460713 Y1.981512
G01 X-0.489283 Y1.981512
G01 X-0.509484 Y2.001713
G04 P.05
G00 Z#6
(End section)
(Begin section -0.509484 2.219713)
G00 X-0.509484 Y2.219713
G01 F#12 Z[0-#2]
G04 P.05
G01 F#12 X-0.509484 Y2.248283
G01 X-0.489283 Y2.268484
G01 X-0.460713 Y2.268484
G01 X-0.440512 Y2.248283
G01 X-0.440512 Y2.219713
G01 X-0.460713 Y2.199512
G01 X-0.489283 Y2.199512
G01 X-0.509484 Y2.219713
G04 P.05
G00 Z#6
(End section)
(Begin section -0.509484 2.327713)
G00 X-0.509484 Y2.327713
G01 F#12 Z[0-#2]
G04 P.05
G01 F#12 X-0.509484 Y2.356283
G01 X-0.489283 Y2.376484
G01 X-0.460713 Y2.376484
G01 X-0.440512 Y2.356283
G01 X-0.440512 Y2.327713
G01 X-0.460713 Y2.307512
G01 X-0.489283 Y2.307512
G01 X-0.509484 Y2.327713
G04 P.05
G00 Z#6
(End section)
(Begin section -0.509484 2.436713)
G00 X-0.509484 Y2.436713
G01 F#12 Z[0-#2]
G04 P.05
G01 F#12 X-0.509484 Y2.465283
G01 X-0.489283 Y2.485484
G01 X-0.460713 Y2.485484
G01 X-0.440512 Y2.465283
G01 X-0.440512 Y2.436713
G01 X-0.460713 Y2.416512
G01 X-0.489283 Y2.416512
G01 X-0.509484 Y2.436713
G04 P.05
G00 Z#6
(End section)
(Begin section -0.509484 2.545713)
G00 X-0.509484 Y2.545713
G01 F#12 Z[0-#2]
G04 P.05
G01 F#12 X-0.509484 Y2.574283
G01 X-0.489283 Y2.594484
G01 X-0.460713 Y2.594484
G01 X-0.440512 Y2.574283
G01 X-0.440512 Y2.545713
G01 X-0.460713 Y2.525512
G01 X-0.489283 Y2.525512
G01 X-0.509484 Y2.545713
G04 P.05
G00 Z#6
(End section)
(Begin section -0.509484 2.653713)
G00 X-0.509484 Y2.653713
G01 F#12 Z[0-#2]
G04 P.05
G01 F#12 X-0.509484 Y2.682283
G01 X-0.489283 Y2.702484
G01 X-0.460713 Y2.702484
G01 X-0.440512 Y2.682283
G01 X-0.440512 Y2.653713
G01 X-0.460713 Y2.633512
G01 X-0.489283 Y2.633512
G01 X-0.509484 Y2.653713
G04 P.05
G00 Z#6
(End section)
(Begin section -0.509484 2.762713)
G00 X-0.509484 Y2.762713
G01 F#12 Z[0-#2]
G04 P.05
G01 F#12 X-0.509484 Y2.791283
G01 X-0.489283 Y2.811484
G01 X-0.460713 Y2.811484
G01 X-0.440512 Y2.791283
G01 X-0.440512 Y2.762713
G01 X-0.460713 Y2.742512
G01 X-0.489283 Y2.742512
G01 X-0.509484 Y2.762713
G04 P.05
G00 Z#6
(End section)
(Begin section -0.409484 1.512713)
G00 X-0.409484 Y1.512713
G01 F#12 Z[0-#2]
G04 P.05
G01 F#12 X-0.409484 Y1.541283
G01 X-0.389283 Y1.561484
G01 X-0.360713 Y1.561484
G01 X-0.340512 Y1.541283
G01 X-0.340512 Y1.512713
G01 X-0.360713 Y1.492512
G01 X-0.389283 Y1.492512
G01 X-0.409484 Y1.512713
G04 P.05
G00 Z#6
(End section)
(Begin section -0.409484 1.621713)
G00 X-0.409484 Y1.621713
G01 F#12 Z[0-#2]
G04 P.05
G01 F#12 X-0.409484 Y1.650283
G01 X-0.389283 Y1.670484
G01 X-0.360713 Y1.670484
G01 X-0.340512 Y1.650283
G01 X-0.340512 Y1.621713
G01 X-0.360713 Y1.601512
G01 X-0.389283 Y1.601512
G01 X-0.409484 Y1.621713
G04 P.05
G00 Z#6
(End section)
(Begin section -0.409484 1.730713)
G00 X-0.409484 Y1.730713
G01 F#12 Z[0-#2]
G04 P.05
G01 F#12 X-0.409484 Y1.759283
G01 X-0.389283 Y1.779484
G01 X-0.360713 Y1.779484
G01 X-0.340512 Y1.759283
G01 X-0.340512 Y1.730713
G01 X-0.360713 Y1.710512
G01 X-0.389283 Y1.710512
G01 X-0.409484 Y1.730713
G04 P.05
G00 Z#6
(End section)
(Begin section -0.409484 1.838713)
G00 X-0.409484 Y1.838713
G01 F#12 Z[0-#2]
G04 P.05
G01 F#12 X-0.409484 Y1.867283
G01 X-0.389283 Y1.887484
G01 X-0.360713 Y1.887484
G01 X-0.340512 Y1.867283
G01 X-0.340512 Y1.838713
G01 X-0.360713 Y1.818512
G01 X-0.389283 Y1.818512
G01 X-0.409484 Y1.838713
G04 P.05
G00 Z#6
(End section)
(Begin section -0.409484 2.164713)
G00 X-0.409484 Y2.164713
G01 F#12 Z[0-#2]
G04 P.05
G01 F#12 X-0.409484 Y2.193283
G01 X-0.389933 Y2.212835
G01 X-0.389933 Y2.254161
G01 X-0.409484 Y2.273713
G01 X-0.409484 Y2.302283
G01 X-0.389933 Y2.321835
G01 X-0.389933 Y2.363161
G01 X-0.409484 Y2.382713
G01 X-0.409484 Y2.411283
G01 X-0.389933 Y2.430835
G01 X-0.389933 Y2.471161
G01 X-0.409484 Y2.490713
G01 X-0.409484 Y2.519283
G01 X-0.389933 Y2.538835
G01 X-0.389933 Y2.580161
G01 X-0.409484 Y2.599713
G01 X-0.409484 Y2.628283
G01 X-0.389933 Y2.647835
G01 X-0.389933 Y2.689161
G01 X-0.409484 Y2.708713
G01 X-0.409484 Y2.737283
G01 X-0.389933 Y2.756835
G01 X-0.389933 Y2.818811
G01 X-0.456185 Y2.885063
G01 X-0.693811 Y2.885063
G01 X-0.785063 Y2.793811
G01 X-0.785063 Y2.731000
G01 X-0.767512 Y2.713453
G01 X-0.767512 Y2.686543
G01 X-0.785063 Y2.668996
G01 X-0.785063 Y2.631000
G01 X-0.767512 Y2.613453
G01 X-0.767512 Y2.586543
G01 X-0.785063 Y2.568996
G01 X-0.785063 Y2.531000
G01 X-0.767512 Y2.513453
G01 X-0.767512 Y2.486543
G01 X-0.785063 Y2.468996
G01 X-0.785063 Y2.431004
G01 X-0.767512 Y2.413453
G01 X-0.767512 Y2.386543
G01 X-0.785063 Y2.368992
G01 X-0.785063 Y2.331004
G01 X-0.767512 Y2.313453
G01 X-0.767512 Y2.286543
G01 X-0.785063 Y2.268992
G01 X-0.785063 Y2.231004
G01 X-0.767512 Y2.213453
G01 X-0.767512 Y2.186543
G01 X-0.785063 Y2.168992
G01 X-0.785063 Y2.131004
G01 X-0.767512 Y2.113453
G01 X-0.767512 Y2.086543
G01 X-0.785063 Y2.068992
G01 X-0.785063 Y2.031004
G01 X-0.767512 Y2.013453
G01 X-0.767512 Y1.986543
G01 X-0.785063 Y1.968992
G01 X-0.785063 Y1.931004
G01 X-0.767512 Y1.913453
G01 X-0.767512 Y1.886543
G01 X-0.785063 Y1.868992
G01 X-0.785063 Y1.831004
G01 X-0.767512 Y1.813453
G01 X-0.767512 Y1.786543
G01 X-0.785063 Y1.768992
G01 X-0.785063 Y1.731004
G01 X-0.767512 Y1.713453
G01 X-0.767512 Y1.686543
G01 X-0.785063 Y1.668996
G01 X-0.785063 Y1.631000
G01 X-0.767512 Y1.613453
G01 X-0.767512 Y1.586543
G01 X-0.785063 Y1.568996
G01 X-0.785063 Y1.531004
G01 X-0.767512 Y1.513453
G01 X-0.767512 Y1.486543
G01 X-0.785063 Y1.468992
G01 X-0.785063 Y1.431004
G01 X-0.767512 Y1.413453
G01 X-0.767512 Y1.386543
G01 X-0.785063 Y1.368992
G01 X-0.785063 Y1.331004
G01 X-0.767512 Y1.313453
G01 X-0.767512 Y1.286543
G01 X-0.785063 Y1.268992
G01 X-0.785063 Y1.231004
G01 X-0.767512 Y1.213453
G01 X-0.767512 Y1.186543
G01 X-0.785063 Y1.168992
G01 X-0.785063 Y1.131004
G01 X-0.767512 Y1.113453
G01 X-0.767512 Y1.086543
G01 X-0.785063 Y1.068992
G01 X-0.785063 Y1.031004
G01 X-0.767512 Y1.013453
G01 X-0.767512 Y0.986543
G01 X-0.785063 Y0.968992
G01 X-0.785063 Y0.931004
G01 X-0.767512 Y0.913453
G01 X-0.767512 Y0.886543
G01 X-0.785063 Y0.868992
G01 X-0.785063 Y0.831000
G01 X-0.767512 Y0.813453
G01 X-0.767512 Y0.786543
G01 X-0.785063 Y0.768996
G01 X-0.785063 Y0.731000
G01 X-0.767512 Y0.713453
G01 X-0.767512 Y0.686543
G01 X-0.785063 Y0.668996
G01 X-0.785063 Y0.631000
G01 X-0.767512 Y0.613453
G01 X-0.767512 Y0.586543
G01 X-0.785063 Y0.568996
G01 X-0.785063 Y0.531000
G01 X-0.767512 Y0.513453
G01 X-0.767512 Y0.486543
G01 X-0.785063 Y0.468996
G01 X-0.785063 Y0.431000
G01 X-0.767512 Y0.413453
G01 X-0.767512 Y0.386543
G01 X-0.785063 Y0.368996
G01 X-0.785063 Y0.331000
G01 X-0.767512 Y0.313453
G01 X-0.767512 Y0.286543
G01 X-0.786543 Y0.267512
G01 X-0.813453 Y0.267512
G01 X-0.832484 Y0.286543
G01 X-0.832484 Y0.313453
G01 X-0.814933 Y0.331000
G01 X-0.814933 Y0.368996
G01 X-0.832484 Y0.386543
G01 X-0.832484 Y0.413453
G01 X-0.814933 Y0.431000
G01 X-0.814933 Y0.468996
G01 X-0.832484 Y0.486543
G01 X-0.832484 Y0.513453
G01 X-0.814933 Y0.531000
G01 X-0.814933 Y0.568996
G01 X-0.832484 Y0.586543
G01 X-0.832484 Y0.613453
G01 X-0.814933 Y0.631000
G01 X-0.814933 Y0.668996
G01 X-0.832484 Y0.686543
G01 X-0.832484 Y0.713453
G01 X-0.814933 Y0.731000
G01 X-0.814933 Y0.768996
G01 X-0.832484 Y0.786543
G01 X-0.832484 Y0.813453
G01 X-0.814933 Y0.831000
G01 X-0.814933 Y0.868992
G01 X-0.832484 Y0.886543
G01 X-0.832484 Y0.913453
G01 X-0.814933 Y0.931004
G01 X-0.814933 Y0.968992
G01 X-0.832484 Y0.986543
G01 X-0.832484 Y1.013453
G01 X-0.814933 Y1.031004
G01 X-0.814933 Y1.068992
G01 X-0.832484 Y1.086543
G01 X-0.832484 Y1.113453
G01 X-0.814933 Y1.131004
G01 X-0.814933 Y1.168992
G01 X-0.832484 Y1.186543
G01 X-0.832484 Y1.213453
G01 X-0.814933 Y1.231004
G01 X-0.814933 Y1.268992
G01 X-0.832484 Y1.286543
G01 X-0.832484 Y1.313453
G01 X-0.814933 Y1.331004
G01 X-0.814933 Y1.368992
G01 X-0.832484 Y1.386543
G01 X-0.832484 Y1.413453
G01 X-0.814933 Y1.431004
G01 X-0.814933 Y1.468992
G01 X-0.832484 Y1.486543
G01 X-0.832484 Y1.513453
G01 X-0.814933 Y1.531004
G01 X-0.814933 Y1.568996
G01 X-0.832484 Y1.586543
G01 X-0.832484 Y1.613453
G01 X-0.814933 Y1.631000
G01 X-0.814933 Y1.668996
G01 X-0.832484 Y1.686543
G01 X-0.832484 Y1.713453
G01 X-0.814933 Y1.731004
G01 X-0.814933 Y1.768992
G01 X-0.832484 Y1.786543
G01 X-0.832484 Y1.813453
G01 X-0.814933 Y1.831004
G01 X-0.814933 Y1.868992
G01 X-0.832484 Y1.886543
G01 X-0.832484 Y1.913453
G01 X-0.814933 Y1.931004
G01 X-0.814933 Y1.968992
G01 X-0.832484 Y1.986543
G01 X-0.832484 Y2.013453
G01 X-0.814933 Y2.031004
G01 X-0.814933 Y2.068992
G01 X-0.832484 Y2.086543
G01 X-0.832484 Y2.113453
G01 X-0.814933 Y2.131004
G01 X-0.814933 Y2.168992
G01 X-0.832484 Y2.186543
G01 X-0.832484 Y2.213453
G01 X-0.814933 Y2.231004
G01 X-0.814933 Y2.268992
G01 X-0.832484 Y2.286543
G01 X-0.832484 Y2.313453
G01 X-0.814933 Y2.331004
G01 X-0.814933 Y2.368992
G01 X-0.832484 Y2.386543
G01 X-0.832484 Y2.413453
G01 X-0.814933 Y2.431004
G01 X-0.814933 Y2.468996
G01 X-0.832484 Y2.486543
G01 X-0.832484 Y2.513453
G01 X-0.814933 Y2.531000
G01 X-0.814933 Y2.568996
G01 X-0.832484 Y2.586543
G01 X-0.832484 Y2.613453
G01 X-0.814933 Y2.631000
G01 X-0.814933 Y2.668996
G01 X-0.832484 Y2.686543
G01 X-0.832484 Y2.713453
G01 X-0.814933 Y2.731000
G01 X-0.814933 Y2.793811
G01 X-0.814933 Y2.806185
G01 X-0.714933 Y2.906185
G01 X-0.706185 Y2.914933
G01 X-0.456185 Y2.914933
G01 X-0.443811 Y2.914933
G01 X-0.368811 Y2.839933
G01 X-0.360063 Y2.831185
G01 X-0.360063 Y2.756835
G01 X-0.340512 Y2.737283
G01 X-0.340512 Y2.708713
G01 X-0.360063 Y2.689161
G01 X-0.360063 Y2.647835
G01 X-0.340512 Y2.628283
G01 X-0.340512 Y2.599713
G01 X-0.360063 Y2.580161
G01 X-0.360063 Y2.538835
G01 X-0.340512 Y2.519283
G01 X-0.340512 Y2.490713
G01 X-0.360063 Y2.471161
G01 X-0.360063 Y2.430835
G01 X-0.340512 Y2.411283
G01 X-0.340512 Y2.382713
G01 X-0.360063 Y2.363161
G01 X-0.360063 Y2.321835
G01 X-0.340512 Y2.302283
G01 X-0.340512 Y2.273713
G01 X-0.360063 Y2.254161
G01 X-0.360063 Y2.212835
G01 X-0.340512 Y2.193283
G01 X-0.340512 Y2.164713
G01 X-0.360063 Y2.145161
G01 X-0.360063 Y2.104831
G01 X-0.340512 Y2.085283
G01 X-0.340512 Y2.056713
G01 X-0.360063 Y2.037161
G01 X-0.360063 Y1.995835
G01 X-0.341165 Y1.976933
G01 X-0.330811 Y1.976933
G01 X-0.060063 Y1.706185
G01 X-0.060063 Y1.693811
G01 X-0.060063 Y0.993811
G01 X-0.060063 Y0.806185
G01 X-0.060063 Y0.793811
G01 X-0.060063 Y0.593811
G01 X-0.060063 Y0.406252
G01 X-0.060012 Y0.406205
G01 X-0.060012 Y-0.006205
G01 X-0.068791 Y-0.014984
G01 X-0.081205 Y-0.014984
G01 X-0.129339 Y-0.014984
G01 X-0.132071 Y-0.021587
G01 X-0.142787 Y-0.032303
G01 X-0.156795 Y-0.038106
G01 X-0.243201 Y-0.038106
G01 X-0.257209 Y-0.032303
G01 X-0.267925 Y-0.021587
G01 X-0.273728 Y-0.007579
G01 X-0.273728 Y0.007579
G01 X-0.267925 Y0.021587
G01 X-0.257209 Y0.032303
G01 X-0.243201 Y0.038106
G01 X-0.156795 Y0.038106
G01 X-0.142787 Y0.032303
G01 X-0.132071 Y0.021587
G01 X-0.129339 Y0.014984
G01 X-0.089984 Y0.014984
G01 X-0.089984 Y0.385063
G01 X-0.129315 Y0.385063
G01 X-0.132071 Y0.378409
G01 X-0.142787 Y0.367693
G01 X-0.156795 Y0.361890
G01 X-0.243201 Y0.361890
G01 X-0.257209 Y0.367693
G01 X-0.267925 Y0.378409
G01 X-0.270681 Y0.385063
G01 X-0.371819 Y0.385063
G01 X-0.387370 Y0.369512
G01 X-0.412626 Y0.369512
G01 X-0.430484 Y0.387370
G01 X-0.430484 Y0.412626
G01 X-0.412626 Y0.430484
G01 X-0.387370 Y0.430484
G01 X-0.371819 Y0.414933
G01 X-0.270681 Y0.414933
G01 X-0.267925 Y0.421587
G01 X-0.257209 Y0.432303
G01 X-0.243201 Y0.438106
G01 X-0.156795 Y0.438106
G01 X-0.142787 Y0.432303
G01 X-0.132071 Y0.421587
G01 X-0.129315 Y0.414933
G01 X-0.089933 Y0.414933
G01 X-0.089933 Y0.585063
G01 X-0.129315 Y0.585063
G01 X-0.132071 Y0.578409
G01 X-0.142787 Y0.567693
G01 X-0.156795 Y0.561890
G01 X-0.243201 Y0.561890
G01 X-0.257209 Y0.567693
G01 X-0.267925 Y0.578409
G01 X-0.270681 Y0.585063
G01 X-0.371819 Y0.585063
G01 X-0.387370 Y0.569512
G01 X-0.412626 Y0.569512
G01 X-0.430484 Y0.587370
G01 X-0.430484 Y0.612626
G01 X-0.412626 Y0.630484
G01 X-0.387370 Y0.630484
G01 X-0.371819 Y0.614933
G01 X-0.270681 Y0.614933
G01 X-0.267925 Y0.621587
G01 X-0.257209 Y0.632303
G01 X-0.243201 Y0.638106
G01 X-0.156795 Y0.638106
G01 X-0.142787 Y0.632303
G01 X-0.132071 Y0.621587
G01 X-0.129315 Y0.614933
G01 X-0.089933 Y0.614933
G01 X-0.089933 Y0.785063
G01 X-0.129315 Y0.785063
G01 X-0.132071 Y0.778409
G01 X-0.142787 Y0.767693
G01 X-0.156795 Y0.761890
G01 X-0.243201 Y0.761890
G01 X-0.257209 Y0.767693
G01 X-0.267925 Y0.778409
G01 X-0.270681 Y0.785063
G01 X-0.371819 Y0.785063
G01 X-0.387370 Y0.769512
G01 X-0.412626 Y0.769512
G01 X-0.430484 Y0.787370
G01 X-0.430484 Y0.812626
G01 X-0.412626 Y0.830484
G01 X-0.387370 Y0.830484
G01 X-0.371819 Y0.814933
G01 X-0.270681 Y0.814933
G01 X-0.267925 Y0.821587
G01 X-0.257209 Y0.832303
G01 X-0.243201 Y0.838106
G01 X-0.156795 Y0.838106
G01 X-0.142787 Y0.832303
G01 X-0.132071 Y0.821587
G01 X-0.129315 Y0.814933
G01 X-0.089933 Y0.814933
G01 X-0.089933 Y0.985063
G01 X-0.129315 Y0.985063
G01 X-0.132071 Y0.978409
G01 X-0.142787 Y0.967693
G01 X-0.156795 Y0.961890
G01 X-0.243201 Y0.961890
G01 X-0.257209 Y0.967693
G01 X-0.267925 Y0.978409
G01 X-0.270681 Y0.985063
G01 X-0.371819 Y0.985063
G01 X-0.387370 Y0.969512
G01 X-0.412626 Y0.969512
G01 X-0.430484 Y0.987370
G01 X-0.430484 Y1.012626
G01 X-0.412626 Y1.030484
G01 X-0.387370 Y1.030484
G01 X-0.371819 Y1.014933
G01 X-0.270681 Y1.014933
G01 X-0.267925 Y1.021587
G01 X-0.257209 Y1.032303
G01 X-0.243201 Y1.038106
G01 X-0.156795 Y1.038106
G01 X-0.142787 Y1.032303
G01 X-0.132071 Y1.021587
G01 X-0.129315 Y1.014933
G01 X-0.089933 Y1.014933
G01 X-0.089933 Y1.693811
G01 X-0.342173 Y1.946055
G01 X-0.360713 Y1.927512
G01 X-0.389283 Y1.927512
G01 X-0.409484 Y1.947713
G01 X-0.409484 Y1.976283
G01 X-0.389933 Y1.995835
G01 X-0.389933 Y2.037161
G01 X-0.409484 Y2.056713
G01 X-0.409484 Y2.085283
G01 X-0.389933 Y2.104831
G01 X-0.389933 Y2.145161
G01 X-0.409484 Y2.164713
G04 P.05
G00 Z#6
(End section)
(Begin section -0.527484 1.185504)
G00 X-0.527484 Y1.185504
G01 F#12 Z[0-#2]
G04 P.05
G01 F#12 X-0.527484 Y1.212492
G01 X-0.520500 Y1.238559
G01 X-0.507008 Y1.261925
G01 X-0.487925 Y1.281008
G01 X-0.464559 Y1.294500
G01 X-0.438492 Y1.301484
G01 X-0.411504 Y1.301484
G01 X-0.385437 Y1.294500
G01 X-0.362071 Y1.281008
G01 X-0.342988 Y1.261925
G01 X-0.329496 Y1.238559
G01 X-0.322512 Y1.212492
G01 X-0.322512 Y1.185504
G01 X-0.329496 Y1.159437
G01 X-0.342988 Y1.136071
G01 X-0.362071 Y1.116988
G01 X-0.385437 Y1.103496
G01 X-0.411504 Y1.096512
G01 X-0.438492 Y1.096512
G01 X-0.464559 Y1.103496
G01 X-0.487925 Y1.116988
G01 X-0.507008 Y1.136071
G01 X-0.520500 Y1.159437
G01 X-0.527484 Y1.185504
G04 P.05
G00 Z#6
(End section)
(Begin section -0.527484 3.037504)
G00 X-0.527484 Y3.037504
G01 F#12 Z[0-#2]
G04 P.05
G01 F#12 X-0.527484 Y3.064492
G01 X-0.520500 Y3.090559
G01 X-0.507008 Y3.113925
G01 X-0.487925 Y3.133008
G01 X-0.464559 Y3.146500
G01 X-0.438492 Y3.153484
G01 X-0.411504 Y3.153484
G01 X-0.385437 Y3.146500
G01 X-0.362071 Y3.133008
G01 X-0.342988 Y3.113925
G01 X-0.329496 Y3.090559
G01 X-0.322512 Y3.064492
G01 X-0.322512 Y3.037504
G01 X-0.329496 Y3.011437
G01 X-0.342988 Y2.988071
G01 X-0.362071 Y2.968988
G01 X-0.385437 Y2.955496
G01 X-0.411504 Y2.948512
G01 X-0.438492 Y2.948512
G01 X-0.464559 Y2.955496
G01 X-0.487925 Y2.968988
G01 X-0.507008 Y2.988071
G01 X-0.520500 Y3.011437
G01 X-0.527484 Y3.037504
G04 P.05
G00 Z#6
(End section)
(Begin section -0.736028 1.519209)
G00 X-0.736028 Y1.519209
G01 F#12 Z[0-#2]
G04 P.05
G01 F#12 X-0.736028 Y1.516248
G01 X-0.716248 Y1.536028
G01 X-0.719209 Y1.536028
G01 X-0.736028 Y1.519209
G04 P.05
G00 Z#6
(End section)
(Begin section -0.719209 1.963969)
G00 X-0.719209 Y1.963969
G01 F#12 Z[0-#2]
G04 P.05
G01 F#12 X-0.716248 Y1.963969
G01 X-0.736028 Y1.983748
G01 X-0.736028 Y1.980787
G01 X-0.719209 Y1.963969
G04 P.05
G00 Z#6
(End section)
(Begin section -0.736028 2.583748)
G00 X-0.736028 Y2.583748
G01 F#12 Z[0-#2]
G04 P.05
G01 F#12 X-0.736028 Y2.580787
G01 X-0.719209 Y2.563969
G01 X-0.716248 Y2.563969
G01 X-0.736028 Y2.583748
G04 P.05
G00 Z#6
(End section)
(Begin section -0.605787 2.586028)
G00 X-0.605787 Y2.586028
G01 F#12 Z[0-#2]
G04 P.05
G01 F#12 X-0.663028 Y2.586028
G01 X-0.663028 Y2.584685
G01 X-0.683748 Y2.563969
G01 X-0.655787 Y2.563969
G01 X-0.644209 Y2.563969
G01 X-0.624709 Y2.544469
G01 X-0.616933 Y2.544469
G01 X-0.605528 Y2.533063
G01 X-0.605528 Y2.174063
G01 X-0.486433 Y2.054969
G01 X-0.458858 Y2.054969
G01 X-0.436028 Y2.032138
G01 X-0.436028 Y1.999858
G01 X-0.458858 Y1.977028
G01 X-0.491138 Y1.977028
G01 X-0.513969 Y1.999858
G01 X-0.513969 Y2.027433
G01 X-0.633063 Y2.146528
G01 X-0.644469 Y2.157933
G01 X-0.644469 Y2.524709
G01 X-0.655787 Y2.536028
G01 X-0.683748 Y2.536028
G01 X-0.663028 Y2.515311
G01 X-0.663028 Y2.484685
G01 X-0.684685 Y2.463028
G01 X-0.715311 Y2.463028
G01 X-0.736969 Y2.484685
G01 X-0.736969 Y2.515311
G01 X-0.716248 Y2.536028
G01 X-0.730787 Y2.536028
G01 X-0.738969 Y2.544209
G01 X-0.763969 Y2.569209
G01 X-0.763969 Y2.580787
G01 X-0.763969 Y2.583748
G01 X-0.780579 Y2.567138
G01 X-0.780579 Y2.532858
G01 X-0.763028 Y2.515311
G01 X-0.763028 Y2.484685
G01 X-0.780579 Y2.467138
G01 X-0.780579 Y2.432862
G01 X-0.763028 Y2.415311
G01 X-0.763028 Y2.384685
G01 X-0.780579 Y2.367134
G01 X-0.780579 Y2.332862
G01 X-0.763028 Y2.315311
G01 X-0.763028 Y2.284685
G01 X-0.780579 Y2.267134
G01 X-0.780579 Y2.232862
G01 X-0.763028 Y2.215311
G01 X-0.763028 Y2.184685
G01 X-0.780579 Y2.167134
G01 X-0.780579 Y2.132862
G01 X-0.763028 Y2.115311
G01 X-0.763028 Y2.084685
G01 X-0.780579 Y2.067134
G01 X-0.780579 Y2.032862
G01 X-0.763969 Y2.016248
G01 X-0.763969 Y2.044209
G01 X-0.763969 Y2.055787
G01 X-0.736016 Y2.083736
G01 X-0.736969 Y2.084685
G01 X-0.736969 Y2.115311
G01 X-0.715311 Y2.136969
G01 X-0.684685 Y2.136969
G01 X-0.663028 Y2.115311
G01 X-0.663028 Y2.084685
G01 X-0.684685 Y2.063028
G01 X-0.715311 Y2.063028
G01 X-0.716260 Y2.063980
G01 X-0.736028 Y2.044209
G01 X-0.736028 Y2.016248
G01 X-0.715311 Y2.036969
G01 X-0.684685 Y2.036969
G01 X-0.663028 Y2.015311
G01 X-0.663028 Y2.013969
G01 X-0.613563 Y2.013969
G01 X-0.608063 Y2.019469
G01 X-0.591933 Y2.019469
G01 X-0.505287 Y1.932819
G01 X-0.491138 Y1.946969
G01 X-0.458858 Y1.946969
G01 X-0.436028 Y1.924138
G01 X-0.436028 Y1.891858
G01 X-0.458858 Y1.869028
G01 X-0.491138 Y1.869028
G01 X-0.510638 Y1.888528
G01 X-0.516063 Y1.888528
G01 X-0.613563 Y1.986028
G01 X-0.663028 Y1.986028
G01 X-0.663028 Y1.984685
G01 X-0.683748 Y1.963969
G01 X-0.638563 Y1.963969
G01 X-0.633063 Y1.969469
G01 X-0.616933 Y1.969469
G01 X-0.485437 Y1.837969
G01 X-0.458858 Y1.837969
G01 X-0.436028 Y1.815138
G01 X-0.436028 Y1.782858
G01 X-0.458858 Y1.760028
G01 X-0.491138 Y1.760028
G01 X-0.513969 Y1.782858
G01 X-0.513969 Y1.811437
G01 X-0.638563 Y1.936028
G01 X-0.683748 Y1.936028
G01 X-0.663028 Y1.915311
G01 X-0.663028 Y1.884685
G01 X-0.684685 Y1.863028
G01 X-0.715311 Y1.863028
G01 X-0.736969 Y1.884685
G01 X-0.736969 Y1.915311
G01 X-0.716248 Y1.936028
G01 X-0.719209 Y1.936028
G01 X-0.730787 Y1.936028
G01 X-0.755787 Y1.961028
G01 X-0.763969 Y1.969209
G01 X-0.763969 Y1.983748
G01 X-0.780579 Y1.967134
G01 X-0.780579 Y1.932862
G01 X-0.763028 Y1.915311
G01 X-0.763028 Y1.884685
G01 X-0.780579 Y1.867134
G01 X-0.780579 Y1.832862
G01 X-0.763028 Y1.815311
G01 X-0.763028 Y1.784685
G01 X-0.780579 Y1.767134
G01 X-0.780579 Y1.732862
G01 X-0.763028 Y1.715311
G01 X-0.763028 Y1.684685
G01 X-0.780579 Y1.667138
G01 X-0.780579 Y1.632858
G01 X-0.763028 Y1.615311
G01 X-0.763028 Y1.584685
G01 X-0.780579 Y1.567138
G01 X-0.780579 Y1.532862
G01 X-0.763969 Y1.516248
G01 X-0.763969 Y1.519209
G01 X-0.763969 Y1.530787
G01 X-0.738969 Y1.555787
G01 X-0.730787 Y1.563969
G01 X-0.716248 Y1.563969
G01 X-0.736969 Y1.584685
G01 X-0.736969 Y1.615311
G01 X-0.715311 Y1.636969
G01 X-0.684685 Y1.636969
G01 X-0.663028 Y1.615311
G01 X-0.663028 Y1.584685
G01 X-0.683748 Y1.563969
G01 X-0.663563 Y1.563969
G01 X-0.518063 Y1.709469
G01 X-0.510638 Y1.709469
G01 X-0.491138 Y1.728969
G01 X-0.458858 Y1.728969
G01 X-0.436028 Y1.706138
G01 X-0.436028 Y1.673858
G01 X-0.458858 Y1.651028
G01 X-0.491138 Y1.651028
G01 X-0.506287 Y1.666177
G01 X-0.641933 Y1.530528
G01 X-0.658063 Y1.530528
G01 X-0.663563 Y1.536028
G01 X-0.683748 Y1.536028
G01 X-0.667185 Y1.519469
G01 X-0.633063 Y1.519469
G01 X-0.551063 Y1.601469
G01 X-0.534933 Y1.601469
G01 X-0.510638 Y1.601469
G01 X-0.491138 Y1.620969
G01 X-0.458858 Y1.620969
G01 X-0.436028 Y1.598138
G01 X-0.436028 Y1.565858
G01 X-0.458858 Y1.543028
G01 X-0.491138 Y1.543028
G01 X-0.510638 Y1.562528
G01 X-0.534933 Y1.562528
G01 X-0.605528 Y1.491933
G01 X-0.616933 Y1.480528
G01 X-0.667185 Y1.480528
G01 X-0.684685 Y1.463028
G01 X-0.715311 Y1.463028
G01 X-0.736028 Y1.483748
G01 X-0.736028 Y1.455787
G01 X-0.716260 Y1.436016
G01 X-0.715311 Y1.436969
G01 X-0.684685 Y1.436969
G01 X-0.663028 Y1.415311
G01 X-0.663028 Y1.384685
G01 X-0.684685 Y1.363028
G01 X-0.715311 Y1.363028
G01 X-0.736969 Y1.384685
G01 X-0.736969 Y1.415311
G01 X-0.736016 Y1.416260
G01 X-0.755787 Y1.436028
G01 X-0.763969 Y1.444209
G01 X-0.763969 Y1.483748
G01 X-0.780579 Y1.467134
G01 X-0.780579 Y1.432862
G01 X-0.763028 Y1.415311
G01 X-0.763028 Y1.384685
G01 X-0.780579 Y1.367134
G01 X-0.780579 Y1.332862
G01 X-0.763028 Y1.315311
G01 X-0.763028 Y1.284685
G01 X-0.780579 Y1.267134
G01 X-0.780579 Y1.232862
G01 X-0.763028 Y1.215311
G01 X-0.763028 Y1.184685
G01 X-0.780579 Y1.167134
G01 X-0.780579 Y1.132862
G01 X-0.763028 Y1.115311
G01 X-0.763028 Y1.084685
G01 X-0.780579 Y1.067134
G01 X-0.780579 Y1.032862
G01 X-0.763028 Y1.015311
G01 X-0.763028 Y0.984685
G01 X-0.780579 Y0.967134
G01 X-0.780579 Y0.932862
G01 X-0.763028 Y0.915311
G01 X-0.763028 Y0.884685
G01 X-0.780579 Y0.867134
G01 X-0.780579 Y0.832858
G01 X-0.763028 Y0.815311
G01 X-0.763028 Y0.784685
G01 X-0.780579 Y0.767138
G01 X-0.780579 Y0.732858
G01 X-0.763028 Y0.715311
G01 X-0.763028 Y0.684685
G01 X-0.780579 Y0.667138
G01 X-0.780579 Y0.632858
G01 X-0.763028 Y0.615311
G01 X-0.763028 Y0.584685
G01 X-0.780579 Y0.567138
G01 X-0.780579 Y0.532858
G01 X-0.763028 Y0.515311
G01 X-0.763028 Y0.484685
G01 X-0.780579 Y0.467138
G01 X-0.780579 Y0.432858
G01 X-0.763028 Y0.415311
G01 X-0.763028 Y0.384685
G01 X-0.780579 Y0.367138
G01 X-0.780579 Y0.332858
G01 X-0.763028 Y0.315311
G01 X-0.763028 Y0.284685
G01 X-0.784685 Y0.263028
G01 X-0.815311 Y0.263028
G01 X-0.836969 Y0.284685
G01 X-0.836969 Y0.315311
G01 X-0.819417 Y0.332858
G01 X-0.819417 Y0.367138
G01 X-0.836969 Y0.384685
G01 X-0.836969 Y0.415311
G01 X-0.819417 Y0.432858
G01 X-0.819417 Y0.467138
G01 X-0.836969 Y0.484685
G01 X-0.836969 Y0.515311
G01 X-0.819417 Y0.532858
G01 X-0.819417 Y0.567138
G01 X-0.836969 Y0.584685
G01 X-0.836969 Y0.615311
G01 X-0.819417 Y0.632858
G01 X-0.819417 Y0.667138
G01 X-0.836969 Y0.684685
G01 X-0.836969 Y0.715311
G01 X-0.819417 Y0.732858
G01 X-0.819417 Y0.767138
G01 X-0.836969 Y0.784685
G01 X-0.836969 Y0.815311
G01 X-0.819417 Y0.832858
G01 X-0.819417 Y0.867134
G01 X-0.836969 Y0.884685
G01 X-0.836969 Y0.915311
G01 X-0.819417 Y0.932862
G01 X-0.819417 Y0.967134
G01 X-0.836969 Y0.984685
G01 X-0.836969 Y1.015311
G01 X-0.819417 Y1.032862
G01 X-0.819417 Y1.067134
G01 X-0.836969 Y1.084685
G01 X-0.836969 Y1.115311
G01 X-0.819417 Y1.132862
G01 X-0.819417 Y1.167134
G01 X-0.836969 Y1.184685
G01 X-0.836969 Y1.215311
G01 X-0.819417 Y1.232862
G01 X-0.819417 Y1.267134
G01 X-0.836969 Y1.284685
G01 X-0.836969 Y1.315311
G01 X-0.819417 Y1.332862
G01 X-0.819417 Y1.367134
G01 X-0.836969 Y1.384685
G01 X-0.836969 Y1.415311
G01 X-0.819417 Y1.432862
G01 X-0.819417 Y1.467134
G01 X-0.836969 Y1.484685
G01 X-0.836969 Y1.515311
G01 X-0.819417 Y1.532862
G01 X-0.819417 Y1.567138
G01 X-0.836969 Y1.584685
G01 X-0.836969 Y1.615311
G01 X-0.819417 Y1.632858
G01 X-0.819417 Y1.667138
G01 X-0.836969 Y1.684685
G01 X-0.836969 Y1.715311
G01 X-0.819417 Y1.732862
G01 X-0.819417 Y1.767134
G01 X-0.836969 Y1.784685
G01 X-0.836969 Y1.815311
G01 X-0.819417 Y1.832862
G01 X-0.819417 Y1.867134
G01 X-0.836969 Y1.884685
G01 X-0.836969 Y1.915311
G01 X-0.819417 Y1.932862
G01 X-0.819417 Y1.967134
G01 X-0.836969 Y1.984685
G01 X-0.836969 Y2.015311
G01 X-0.819417 Y2.032862
G01 X-0.819417 Y2.067134
G01 X-0.836969 Y2.084685
G01 X-0.836969 Y2.115311
G01 X-0.819417 Y2.132862
G01 X-0.819417 Y2.167134
G01 X-0.836969 Y2.184685
G01 X-0.836969 Y2.215311
G01 X-0.819417 Y2.232862
G01 X-0.819417 Y2.267134
G01 X-0.836969 Y2.284685
G01 X-0.836969 Y2.315311
G01 X-0.819417 Y2.332862
G01 X-0.819417 Y2.367134
G01 X-0.836969 Y2.384685
G01 X-0.836969 Y2.415311
G01 X-0.819417 Y2.432862
G01 X-0.819417 Y2.467138
G01 X-0.836969 Y2.484685
G01 X-0.836969 Y2.515311
G01 X-0.819417 Y2.532858
G01 X-0.819417 Y2.567138
G01 X-0.836969 Y2.584685
G01 X-0.836969 Y2.615311
G01 X-0.819417 Y2.632858
G01 X-0.819417 Y2.667138
G01 X-0.836969 Y2.684685
G01 X-0.836969 Y2.715311
G01 X-0.819417 Y2.732858
G01 X-0.819417 Y2.791953
G01 X-0.819417 Y2.808043
G01 X-0.719417 Y2.908043
G01 X-0.708043 Y2.919417
G01 X-0.458043 Y2.919417
G01 X-0.441953 Y2.919417
G01 X-0.366953 Y2.844417
G01 X-0.355579 Y2.833043
G01 X-0.355579 Y2.758689
G01 X-0.336028 Y2.739138
G01 X-0.336028 Y2.706858
G01 X-0.355579 Y2.687307
G01 X-0.355579 Y2.649689
G01 X-0.336028 Y2.630138
G01 X-0.336028 Y2.597858
G01 X-0.355579 Y2.578307
G01 X-0.355579 Y2.540689
G01 X-0.336028 Y2.521138
G01 X-0.336028 Y2.488858
G01 X-0.355579 Y2.469307
G01 X-0.355579 Y2.432689
G01 X-0.336028 Y2.413138
G01 X-0.336028 Y2.380858
G01 X-0.355579 Y2.361307
G01 X-0.355579 Y2.323689
G01 X-0.336028 Y2.304138
G01 X-0.336028 Y2.271858
G01 X-0.355579 Y2.252307
G01 X-0.355579 Y2.214689
G01 X-0.336028 Y2.195138
G01 X-0.336028 Y2.162858
G01 X-0.355579 Y2.143307
G01 X-0.355579 Y2.106685
G01 X-0.336028 Y2.087138
G01 X-0.336028 Y2.054858
G01 X-0.355579 Y2.035307
G01 X-0.355579 Y1.997689
G01 X-0.339311 Y1.981417
G01 X-0.328953 Y1.981417
G01 X-0.055579 Y1.708043
G01 X-0.055579 Y1.691953
G01 X-0.055579 Y0.991953
G01 X-0.055579 Y0.808043
G01 X-0.055579 Y0.791953
G01 X-0.055579 Y0.591953
G01 X-0.055579 Y0.408110
G01 X-0.055528 Y0.408063
G01 X-0.055528 Y-0.008063
G01 X-0.066933 Y-0.019469
G01 X-0.083063 Y-0.019469
G01 X-0.126339 Y-0.019469
G01 X-0.128268 Y-0.024126
G01 X-0.140248 Y-0.036106
G01 X-0.155902 Y-0.042591
G01 X-0.244094 Y-0.042591
G01 X-0.259748 Y-0.036106
G01 X-0.271728 Y-0.024126
G01 X-0.278213 Y-0.008472
G01 X-0.278213 Y0.008472
G01 X-0.271728 Y0.024126
G01 X-0.259748 Y0.036106
G01 X-0.244094 Y0.042591
G01 X-0.155902 Y0.042591
G01 X-0.140248 Y0.036106
G01 X-0.128268 Y0.024126
G01 X-0.126339 Y0.019469
G01 X-0.094469 Y0.019469
G01 X-0.094469 Y0.380579
G01 X-0.126319 Y0.380579
G01 X-0.128268 Y0.375870
G01 X-0.140248 Y0.363890
G01 X-0.155902 Y0.357406
G01 X-0.244094 Y0.357406
G01 X-0.259748 Y0.363890
G01 X-0.271728 Y0.375870
G01 X-0.273677 Y0.380579
G01 X-0.369961 Y0.380579
G01 X-0.385512 Y0.365028
G01 X-0.414484 Y0.365028
G01 X-0.434969 Y0.385512
G01 X-0.434969 Y0.414484
G01 X-0.414484 Y0.434969
G01 X-0.385512 Y0.434969
G01 X-0.369961 Y0.419417
G01 X-0.273677 Y0.419417
G01 X-0.271728 Y0.424126
G01 X-0.259748 Y0.436106
G01 X-0.244094 Y0.442591
G01 X-0.155902 Y0.442591
G01 X-0.140248 Y0.436106
G01 X-0.128268 Y0.424126
G01 X-0.126319 Y0.419417
G01 X-0.094417 Y0.419417
G01 X-0.094417 Y0.580579
G01 X-0.126319 Y0.580579
G01 X-0.128268 Y0.575870
G01 X-0.140248 Y0.563890
G01 X-0.155902 Y0.557406
G01 X-0.244094 Y0.557406
G01 X-0.259748 Y0.563890
G01 X-0.271728 Y0.575870
G01 X-0.273677 Y0.580579
G01 X-0.369961 Y0.580579
G01 X-0.385512 Y0.565028
G01 X-0.414484 Y0.565028
G01 X-0.434969 Y0.585512
G01 X-0.434969 Y0.614484
G01 X-0.414484 Y0.634969
G01 X-0.385512 Y0.634969
G01 X-0.369961 Y0.619417
G01 X-0.273677 Y0.619417
G01 X-0.271728 Y0.624126
G01 X-0.259748 Y0.636106
G01 X-0.244094 Y0.642591
G01 X-0.155902 Y0.642591
G01 X-0.140248 Y0.636106
G01 X-0.128268 Y0.624126
G01 X-0.126319 Y0.619417
G01 X-0.094417 Y0.619417
G01 X-0.094417 Y0.780579
G01 X-0.126319 Y0.780579
G01 X-0.128268 Y0.775870
G01 X-0.140248 Y0.763890
G01 X-0.155902 Y0.757406
G01 X-0.244094 Y0.757406
G01 X-0.259748 Y0.763890
G01 X-0.271728 Y0.775870
G01 X-0.273677 Y0.780579
G01 X-0.369961 Y0.780579
G01 X-0.385512 Y0.765028
G01 X-0.414484 Y0.765028
G01 X-0.434969 Y0.785512
G01 X-0.434969 Y0.814484
G01 X-0.414484 Y0.834969
G01 X-0.385512 Y0.834969
G01 X-0.369961 Y0.819417
G01 X-0.273677 Y0.819417
G01 X-0.271728 Y0.824126
G01 X-0.259748 Y0.836106
G01 X-0.244094 Y0.842591
G01 X-0.155902 Y0.842591
G01 X-0.140248 Y0.836106
G01 X-0.128268 Y0.824126
G01 X-0.126319 Y0.819417
G01 X-0.094417 Y0.819417
G01 X-0.094417 Y0.980579
G01 X-0.126319 Y0.980579
G01 X-0.128268 Y0.975870
G01 X-0.140248 Y0.963890
G01 X-0.155902 Y0.957406
G01 X-0.244094 Y0.957406
G01 X-0.259748 Y0.963890
G01 X-0.271728 Y0.975870
G01 X-0.273677 Y0.980579
G01 X-0.369961 Y0.980579
G01 X-0.385512 Y0.965028
G01 X-0.414484 Y0.965028
G01 X-0.434969 Y0.985512
G01 X-0.434969 Y1.014484
G01 X-0.414484 Y1.034969
G01 X-0.385512 Y1.034969
G01 X-0.369961 Y1.019417
G01 X-0.273677 Y1.019417
G01 X-0.271728 Y1.024126
G01 X-0.259748 Y1.036106
G01 X-0.244094 Y1.042591
G01 X-0.155902 Y1.042591
G01 X-0.140248 Y1.036106
G01 X-0.128268 Y1.024126
G01 X-0.126319 Y1.019417
G01 X-0.094417 Y1.019417
G01 X-0.094417 Y1.691953
G01 X-0.342177 Y1.939713
G01 X-0.358858 Y1.923028
G01 X-0.391138 Y1.923028
G01 X-0.413969 Y1.945858
G01 X-0.413969 Y1.978138
G01 X-0.394417 Y1.997689
G01 X-0.394417 Y2.035307
G01 X-0.413969 Y2.054858
G01 X-0.413969 Y2.087138
G01 X-0.394417 Y2.106685
G01 X-0.394417 Y2.143307
G01 X-0.413969 Y2.162858
G01 X-0.413969 Y2.195138
G01 X-0.394417 Y2.214689
G01 X-0.394417 Y2.252307
G01 X-0.413969 Y2.271858
G01 X-0.413969 Y2.304138
G01 X-0.394417 Y2.323689
G01 X-0.394417 Y2.361307
G01 X-0.413969 Y2.380858
G01 X-0.413969 Y2.413138
G01 X-0.394417 Y2.432689
G01 X-0.394417 Y2.469307
G01 X-0.413969 Y2.488858
G01 X-0.413969 Y2.521138
G01 X-0.394417 Y2.540689
G01 X-0.394417 Y2.578307
G01 X-0.413969 Y2.597858
G01 X-0.413969 Y2.630138
G01 X-0.394417 Y2.649689
G01 X-0.394417 Y2.687307
G01 X-0.413969 Y2.706858
G01 X-0.413969 Y2.739138
G01 X-0.394417 Y2.758689
G01 X-0.394417 Y2.816953
G01 X-0.458043 Y2.880579
G01 X-0.691953 Y2.880579
G01 X-0.780579 Y2.791953
G01 X-0.780579 Y2.732858
G01 X-0.763028 Y2.715311
G01 X-0.763028 Y2.684685
G01 X-0.780579 Y2.667138
G01 X-0.780579 Y2.632858
G01 X-0.763969 Y2.616248
G01 X-0.763969 Y2.655787
G01 X-0.755787 Y2.663969
G01 X-0.734079 Y2.685673
G01 X-0.736969 Y2.692642
G01 X-0.736969 Y2.707354
G01 X-0.731339 Y2.720941
G01 X-0.720941 Y2.731339
G01 X-0.707354 Y2.736969
G01 X-0.692642 Y2.736969
G01 X-0.679055 Y2.731339
G01 X-0.668657 Y2.720941
G01 X-0.663028 Y2.707354
G01 X-0.663028 Y2.692642
G01 X-0.668657 Y2.679055
G01 X-0.679055 Y2.668657
G01 X-0.692642 Y2.663028
G01 X-0.707354 Y2.663028
G01 X-0.714323 Y2.665917
G01 X-0.736028 Y2.644209
G01 X-0.736028 Y2.616248
G01 X-0.715311 Y2.636969
G01 X-0.684685 Y2.636969
G01 X-0.663028 Y2.615311
G01 X-0.663028 Y2.613969
G01 X-0.594209 Y2.613969
G01 X-0.586028 Y2.605787
G01 X-0.574709 Y2.594469
G01 X-0.566933 Y2.594469
G01 X-0.555528 Y2.583063
G01 X-0.555528 Y2.233063
G01 X-0.486433 Y2.163969
G01 X-0.458858 Y2.163969
G01 X-0.436028 Y2.141138
G01 X-0.436028 Y2.108858
G01 X-0.458858 Y2.086028
G01 X-0.491138 Y2.086028
G01 X-0.513969 Y2.108858
G01 X-0.513969 Y2.136433
G01 X-0.583063 Y2.205528
G01 X-0.594469 Y2.216933
G01 X-0.594469 Y2.574709
G01 X-0.605787 Y2.586028
G04 P.05
G00 Z#6
(End section)
(Begin section -0.736969 2.384685)
G00 X-0.736969 Y2.384685
G01 F#12 Z[0-#2]
G04 P.05
G01 F#12 X-0.736969 Y2.415311
G01 X-0.715311 Y2.436969
G01 X-0.684685 Y2.436969
G01 X-0.663028 Y2.415311
G01 X-0.663028 Y2.384685
G01 X-0.684685 Y2.363028
G01 X-0.715311 Y2.363028
G01 X-0.736969 Y2.384685
G04 P.05
G00 Z#6
(End section)
(Begin section -0.736969 2.284685)
G00 X-0.736969 Y2.284685
G01 F#12 Z[0-#2]
G04 P.05
G01 F#12 X-0.736969 Y2.315311
G01 X-0.715311 Y2.336969
G01 X-0.684685 Y2.336969
G01 X-0.663028 Y2.315311
G01 X-0.663028 Y2.284685
G01 X-0.684685 Y2.263028
G01 X-0.715311 Y2.263028
G01 X-0.736969 Y2.284685
G04 P.05
G00 Z#6
(End section)
(Begin section -0.736969 2.184685)
G00 X-0.736969 Y2.184685
G01 F#12 Z[0-#2]
G04 P.05
G01 F#12 X-0.736969 Y2.215311
G01 X-0.715311 Y2.236969
G01 X-0.684685 Y2.236969
G01 X-0.663028 Y2.215311
G01 X-0.663028 Y2.184685
G01 X-0.684685 Y2.163028
G01 X-0.715311 Y2.163028
G01 X-0.736969 Y2.184685
G04 P.05
G00 Z#6
(End section)
(Begin section -0.736969 1.784685)
G00 X-0.736969 Y1.784685
G01 F#12 Z[0-#2]
G04 P.05
G01 F#12 X-0.736969 Y1.815311
G01 X-0.715311 Y1.836969
G01 X-0.684685 Y1.836969
G01 X-0.663028 Y1.815311
G01 X-0.663028 Y1.784685
G01 X-0.684685 Y1.763028
G01 X-0.715311 Y1.763028
G01 X-0.736969 Y1.784685
G04 P.05
G00 Z#6
(End section)
(Begin section -0.736969 1.684685)
G00 X-0.736969 Y1.684685
G01 F#12 Z[0-#2]
G04 P.05
G01 F#12 X-0.736969 Y1.715311
G01 X-0.715311 Y1.736969
G01 X-0.684685 Y1.736969
G01 X-0.663028 Y1.715311
G01 X-0.663028 Y1.684685
G01 X-0.684685 Y1.663028
G01 X-0.715311 Y1.663028
G01 X-0.736969 Y1.684685
G04 P.05
G00 Z#6
(End section)
(Begin section -0.736969 1.284685)
G00 X-0.736969 Y1.284685
G01 F#12 Z[0-#2]
G04 P.05
G01 F#12 X-0.736969 Y1.315311
G01 X-0.715311 Y1.336969
G01 X-0.684685 Y1.336969
G01 X-0.663028 Y1.315311
G01 X-0.663028 Y1.284685
G01 X-0.684685 Y1.263028
G01 X-0.715311 Y1.263028
G01 X-0.736969 Y1.284685
G04 P.05
G00 Z#6
(End section)
(Begin section -0.736969 1.184685)
G00 X-0.736969 Y1.184685
G01 F#12 Z[0-#2]
G04 P.05
G01 F#12 X-0.736969 Y1.215311
G01 X-0.715311 Y1.236969
G01 X-0.684685 Y1.236969
G01 X-0.663028 Y1.215311
G01 X-0.663028 Y1.184685
G01 X-0.684685 Y1.163028
G01 X-0.715311 Y1.163028
G01 X-0.736969 Y1.184685
G04 P.05
G00 Z#6
(End section)
(Begin section -0.736969 1.084685)
G00 X-0.736969 Y1.084685
G01 F#12 Z[0-#2]
G04 P.05
G01 F#12 X-0.736969 Y1.115311
G01 X-0.715311 Y1.136969
G01 X-0.684685 Y1.136969
G01 X-0.663028 Y1.115311
G01 X-0.663028 Y1.084685
G01 X-0.684685 Y1.063028
G01 X-0.715311 Y1.063028
G01 X-0.736969 Y1.084685
G04 P.05
G00 Z#6
(End section)
(Begin section -0.736969 0.984685)
G00 X-0.736969 Y0.984685
G01 F#12 Z[0-#2]
G04 P.05
G01 F#12 X-0.736969 Y1.015311
G01 X-0.715311 Y1.036969
G01 X-0.684685 Y1.036969
G01 X-0.663028 Y1.015311
G01 X-0.663028 Y0.984685
G01 X-0.684685 Y0.963028
G01 X-0.715311 Y0.963028
G01 X-0.736969 Y0.984685
G04 P.05
G00 Z#6
(End section)
(Begin section -0.736969 0.884685)
G00 X-0.736969 Y0.884685
G01 F#12 Z[0-#2]
G04 P.05
G01 F#12 X-0.736969 Y0.915311
G01 X-0.715311 Y0.936969
G01 X-0.684685 Y0.936969
G01 X-0.663028 Y0.915311
G01 X-0.663028 Y0.884685
G01 X-0.684685 Y0.863028
G01 X-0.715311 Y0.863028
G01 X-0.736969 Y0.884685
G04 P.05
G00 Z#6
(End section)
(Begin section -0.736969 0.384685)
G00 X-0.736969 Y0.384685
G01 F#12 Z[0-#2]
G04 P.05
G01 F#12 X-0.736969 Y0.415311
G01 X-0.715311 Y0.436969
G01 X-0.684685 Y0.436969
G01 X-0.667185 Y0.419469
G01 X-0.666933 Y0.419469
G01 X-0.366933 Y0.119469
G01 X-0.273657 Y0.119469
G01 X-0.271728 Y0.124126
G01 X-0.259748 Y0.136106
G01 X-0.244094 Y0.142591
G01 X-0.155902 Y0.142591
G01 X-0.140248 Y0.136106
G01 X-0.128268 Y0.124126
G01 X-0.121783 Y0.108472
G01 X-0.121783 Y0.091524
G01 X-0.128268 Y0.075870
G01 X-0.140248 Y0.063890
G01 X-0.155902 Y0.057406
G01 X-0.244094 Y0.057406
G01 X-0.259748 Y0.063890
G01 X-0.271728 Y0.075870
G01 X-0.273657 Y0.080528
G01 X-0.383063 Y0.080528
G01 X-0.394469 Y0.091933
G01 X-0.675126 Y0.372591
G01 X-0.684685 Y0.363028
G01 X-0.715311 Y0.363028
G01 X-0.736969 Y0.384685
G04 P.05
G00 Z#6
(End section)
(Begin section -0.736969 0.284685)
G00 X-0.736969 Y0.284685
G01 F#12 Z[0-#2]
G04 P.05
G01 F#12 X-0.736969 Y0.315311
G01 X-0.715311 Y0.336969
G01 X-0.684685 Y0.336969
G01 X-0.663028 Y0.315311
G01 X-0.663028 Y0.284685
G01 X-0.684685 Y0.263028
G01 X-0.715311 Y0.263028
G01 X-0.736969 Y0.284685
G04 P.05
G00 Z#6
(End section)
(Begin section -0.155902 0.257406)
G00 X-0.155902 Y0.257406
G01 F#12 Z[0-#2]
G04 P.05
G01 F#12 X-0.244094 Y0.257406
G01 X-0.259748 Y0.263890
G01 X-0.271728 Y0.275870
G01 X-0.273657 Y0.280528
G01 X-0.370016 Y0.280528
G01 X-0.385512 Y0.265028
G01 X-0.414484 Y0.265028
G01 X-0.429980 Y0.280528
G01 X-0.508063 Y0.280528
G01 X-0.519469 Y0.291933
G01 X-0.690563 Y0.463028
G01 X-0.715311 Y0.463028
G01 X-0.736969 Y0.484685
G01 X-0.736969 Y0.515311
G01 X-0.715311 Y0.536969
G01 X-0.684685 Y0.536969
G01 X-0.663028 Y0.515311
G01 X-0.663028 Y0.490563
G01 X-0.491933 Y0.319469
G01 X-0.429980 Y0.319469
G01 X-0.414484 Y0.334969
G01 X-0.385512 Y0.334969
G01 X-0.370016 Y0.319469
G01 X-0.273657 Y0.319469
G01 X-0.271728 Y0.324126
G01 X-0.259748 Y0.336106
G01 X-0.244094 Y0.342591
G01 X-0.155902 Y0.342591
G01 X-0.140248 Y0.336106
G01 X-0.128268 Y0.324126
G01 X-0.121783 Y0.308472
G01 X-0.121783 Y0.291524
G01 X-0.128268 Y0.275870
G01 X-0.140248 Y0.263890
G01 X-0.155902 Y0.257406
G04 P.05
G00 Z#6
(End section)
(Begin section -0.155902 0.457406)
G00 X-0.155902 Y0.457406
G01 F#12 Z[0-#2]
G04 P.05
G01 F#12 X-0.244094 Y0.457406
G01 X-0.259748 Y0.463890
G01 X-0.271728 Y0.475870
G01 X-0.273657 Y0.480528
G01 X-0.370012 Y0.480528
G01 X-0.385512 Y0.465028
G01 X-0.414484 Y0.465028
G01 X-0.429984 Y0.480528
G01 X-0.591933 Y0.480528
G01 X-0.608063 Y0.480528
G01 X-0.690563 Y0.563028
G01 X-0.715311 Y0.563028
G01 X-0.736969 Y0.584685
G01 X-0.736969 Y0.615311
G01 X-0.715311 Y0.636969
G01 X-0.684685 Y0.636969
G01 X-0.663028 Y0.615311
G01 X-0.663028 Y0.590563
G01 X-0.591933 Y0.519469
G01 X-0.429984 Y0.519469
G01 X-0.414484 Y0.534969
G01 X-0.385512 Y0.534969
G01 X-0.370012 Y0.519469
G01 X-0.273657 Y0.519469
G01 X-0.271728 Y0.524126
G01 X-0.259748 Y0.536106
G01 X-0.244094 Y0.542591
G01 X-0.155902 Y0.542591
G01 X-0.140248 Y0.536106
G01 X-0.128268 Y0.524126
G01 X-0.121783 Y0.508472
G01 X-0.121783 Y0.491524
G01 X-0.128268 Y0.475870
G01 X-0.140248 Y0.463890
G01 X-0.155902 Y0.457406
G04 P.05
G00 Z#6
(End section)
(Begin section -0.155902 0.657406)
G00 X-0.155902 Y0.657406
G01 F#12 Z[0-#2]
G04 P.05
G01 F#12 X-0.244094 Y0.657406
G01 X-0.259748 Y0.663890
G01 X-0.271728 Y0.675870
G01 X-0.273657 Y0.680528
G01 X-0.370012 Y0.680528
G01 X-0.385512 Y0.665028
G01 X-0.414484 Y0.665028
G01 X-0.429984 Y0.680528
G01 X-0.667185 Y0.680528
G01 X-0.684685 Y0.663028
G01 X-0.715311 Y0.663028
G01 X-0.736969 Y0.684685
G01 X-0.736969 Y0.715311
G01 X-0.715311 Y0.736969
G01 X-0.684685 Y0.736969
G01 X-0.667185 Y0.719469
G01 X-0.429984 Y0.719469
G01 X-0.414484 Y0.734969
G01 X-0.409783 Y0.734969
G01 X-0.405787 Y0.738969
G01 X-0.394209 Y0.738969
G01 X-0.390213 Y0.734969
G01 X-0.385512 Y0.734969
G01 X-0.370012 Y0.719469
G01 X-0.273657 Y0.719469
G01 X-0.271728 Y0.724126
G01 X-0.259748 Y0.736106
G01 X-0.244094 Y0.742591
G01 X-0.155902 Y0.742591
G01 X-0.140248 Y0.736106
G01 X-0.128268 Y0.724126
G01 X-0.121783 Y0.708472
G01 X-0.121783 Y0.691524
G01 X-0.128268 Y0.675870
G01 X-0.140248 Y0.663890
G01 X-0.155902 Y0.657406
G04 P.05
G00 Z#6
(End section)
(Begin section -0.155902 0.857406)
G00 X-0.155902 Y0.857406
G01 F#12 Z[0-#2]
G04 P.05
G01 F#12 X-0.244094 Y0.857406
G01 X-0.259748 Y0.863890
G01 X-0.271728 Y0.875870
G01 X-0.273657 Y0.880528
G01 X-0.370012 Y0.880528
G01 X-0.385512 Y0.865028
G01 X-0.407437 Y0.865028
G01 X-0.491933 Y0.780528
G01 X-0.508063 Y0.780528
G01 X-0.667189 Y0.780528
G01 X-0.684685 Y0.763028
G01 X-0.715311 Y0.763028
G01 X-0.736969 Y0.784685
G01 X-0.736969 Y0.815311
G01 X-0.715311 Y0.836969
G01 X-0.684685 Y0.836969
G01 X-0.667189 Y0.819469
G01 X-0.508063 Y0.819469
G01 X-0.434969 Y0.892559
G01 X-0.434969 Y0.914484
G01 X-0.414484 Y0.934969
G01 X-0.385512 Y0.934969
G01 X-0.370012 Y0.919469
G01 X-0.273657 Y0.919469
G01 X-0.271728 Y0.924126
G01 X-0.259748 Y0.936106
G01 X-0.244094 Y0.942591
G01 X-0.155902 Y0.942591
G01 X-0.140248 Y0.936106
G01 X-0.128268 Y0.924126
G01 X-0.121783 Y0.908472
G01 X-0.121783 Y0.891524
G01 X-0.128268 Y0.875870
G01 X-0.140248 Y0.863890
G01 X-0.155902 Y0.857406
G04 P.05
G00 Z#6
(End section)
(Begin section -0.513969 1.456858)
G00 X-0.513969 Y1.456858
G01 F#12 Z[0-#2]
G04 P.05
G01 F#12 X-0.513969 Y1.489138
G01 X-0.491138 Y1.511969
G01 X-0.458858 Y1.511969
G01 X-0.436028 Y1.489138
G01 X-0.436028 Y1.456858
G01 X-0.458858 Y1.434028
G01 X-0.491138 Y1.434028
G01 X-0.513969 Y1.456858
G04 P.05
G00 Z#6
(End section)
(Begin section -0.513969 2.217858)
G00 X-0.513969 Y2.217858
G01 F#12 Z[0-#2]
G04 P.05
G01 F#12 X-0.513969 Y2.250138
G01 X-0.491138 Y2.272969
G01 X-0.458858 Y2.272969
G01 X-0.436028 Y2.250138
G01 X-0.436028 Y2.217858
G01 X-0.458858 Y2.195028
G01 X-0.491138 Y2.195028
G01 X-0.513969 Y2.217858
G04 P.05
G00 Z#6
(End section)
(Begin section -0.513969 2.325858)
G00 X-0.513969 Y2.325858
G01 F#12 Z[0-#2]
G04 P.05
G01 F#12 X-0.513969 Y2.358138
G01 X-0.491138 Y2.380969
G01 X-0.458858 Y2.380969
G01 X-0.436028 Y2.358138
G01 X-0.436028 Y2.325858
G01 X-0.458858 Y2.303028
G01 X-0.491138 Y2.303028
G01 X-0.513969 Y2.325858
G04 P.05
G00 Z#6
(End section)
(Begin section -0.513969 2.434858)
G00 X-0.513969 Y2.434858
G01 F#12 Z[0-#2]
G04 P.05
G01 F#12 X-0.513969 Y2.467138
G01 X-0.491138 Y2.489969
G01 X-0.458858 Y2.489969
G01 X-0.436028 Y2.467138
G01 X-0.436028 Y2.434858
G01 X-0.458858 Y2.412028
G01 X-0.491138 Y2.412028
G01 X-0.513969 Y2.434858
G04 P.05
G00 Z#6
(End section)
(Begin section -0.513969 2.543858)
G00 X-0.513969 Y2.543858
G01 F#12 Z[0-#2]
G04 P.05
G01 F#12 X-0.513969 Y2.576138
G01 X-0.491138 Y2.598969
G01 X-0.458858 Y2.598969
G01 X-0.436028 Y2.576138
G01 X-0.436028 Y2.543858
G01 X-0.458858 Y2.521028
G01 X-0.491138 Y2.521028
G01 X-0.513969 Y2.543858
G04 P.05
G00 Z#6
(End section)
(Begin section -0.513969 2.651858)
G00 X-0.513969 Y2.651858
G01 F#12 Z[0-#2]
G04 P.05
G01 F#12 X-0.513969 Y2.684138
G01 X-0.491138 Y2.706969
G01 X-0.458858 Y2.706969
G01 X-0.436028 Y2.684138
G01 X-0.436028 Y2.651858
G01 X-0.458858 Y2.629028
G01 X-0.491138 Y2.629028
G01 X-0.513969 Y2.651858
G04 P.05
G00 Z#6
(End section)
(Begin section -0.513969 2.760858)
G00 X-0.513969 Y2.760858
G01 F#12 Z[0-#2]
G04 P.05
G01 F#12 X-0.513969 Y2.793138
G01 X-0.491138 Y2.815969
G01 X-0.458858 Y2.815969
G01 X-0.436028 Y2.793138
G01 X-0.436028 Y2.760858
G01 X-0.458858 Y2.738028
G01 X-0.491138 Y2.738028
G01 X-0.513969 Y2.760858
G04 P.05
G00 Z#6
(End section)
(Begin section -0.413969 1.510858)
G00 X-0.413969 Y1.510858
G01 F#12 Z[0-#2]
G04 P.05
G01 F#12 X-0.413969 Y1.543138
G01 X-0.391138 Y1.565969
G01 X-0.358858 Y1.565969
G01 X-0.336028 Y1.543138
G01 X-0.336028 Y1.510858
G01 X-0.358858 Y1.488028
G01 X-0.391138 Y1.488028
G01 X-0.413969 Y1.510858
G04 P.05
G00 Z#6
(End section)
(Begin section -0.413969 1.619858)
G00 X-0.413969 Y1.619858
G01 F#12 Z[0-#2]
G04 P.05
G01 F#12 X-0.413969 Y1.652138
G01 X-0.391138 Y1.674969
G01 X-0.358858 Y1.674969
G01 X-0.336028 Y1.652138
G01 X-0.336028 Y1.619858
G01 X-0.358858 Y1.597028
G01 X-0.391138 Y1.597028
G01 X-0.413969 Y1.619858
G04 P.05
G00 Z#6
(End section)
(Begin section -0.413969 1.728858)
G00 X-0.413969 Y1.728858
G01 F#12 Z[0-#2]
G04 P.05
G01 F#12 X-0.413969 Y1.761138
G01 X-0.391138 Y1.783969
G01 X-0.358858 Y1.783969
G01 X-0.336028 Y1.761138
G01 X-0.336028 Y1.728858
G01 X-0.358858 Y1.706028
G01 X-0.391138 Y1.706028
G01 X-0.413969 Y1.728858
G04 P.05
G00 Z#6
(End section)
(Begin section -0.413969 1.836858)
G00 X-0.413969 Y1.836858
G01 F#12 Z[0-#2]
G04 P.05
G01 F#12 X-0.413969 Y1.869138
G01 X-0.391138 Y1.891969
G01 X-0.358858 Y1.891969
G01 X-0.336028 Y1.869138
G01 X-0.336028 Y1.836858
G01 X-0.358858 Y1.814028
G01 X-0.391138 Y1.814028
G01 X-0.413969 Y1.836858
G04 P.05
G00 Z#6
(End section)
(Begin section -0.531969 1.184913)
G00 X-0.531969 Y1.184913
G01 F#12 Z[0-#2]
G04 P.05
G01 F#12 X-0.531969 Y1.213083
G01 X-0.524677 Y1.240287
G01 X-0.510594 Y1.264681
G01 X-0.490681 Y1.284594
G01 X-0.466287 Y1.298677
G01 X-0.439083 Y1.305969
G01 X-0.410913 Y1.305969
G01 X-0.383709 Y1.298677
G01 X-0.359315 Y1.284594
G01 X-0.339402 Y1.264681
G01 X-0.325319 Y1.240287
G01 X-0.318028 Y1.213083
G01 X-0.318028 Y1.184913
G01 X-0.325319 Y1.157709
G01 X-0.339402 Y1.133315
G01 X-0.359315 Y1.113402
G01 X-0.383709 Y1.099319
G01 X-0.410913 Y1.092028
G01 X-0.439083 Y1.092028
G01 X-0.466287 Y1.099319
G01 X-0.490681 Y1.113402
G01 X-0.510594 Y1.133315
G01 X-0.524677 Y1.157709
G01 X-0.531969 Y1.184913
G04 P.05
G00 Z#6
(End section)
(Begin section -0.531969 3.036913)
G00 X-0.531969 Y3.036913
G01 F#12 Z[0-#2]
G04 P.05
G01 F#12 X-0.531969 Y3.065083
G01 X-0.524677 Y3.092287
G01 X-0.510594 Y3.116681
G01 X-0.490681 Y3.136594
G01 X-0.466287 Y3.150677
G01 X-0.439083 Y3.157969
G01 X-0.410913 Y3.157969
G01 X-0.383709 Y3.150677
G01 X-0.359315 Y3.136594
G01 X-0.339402 Y3.116681
G01 X-0.325319 Y3.092287
G01 X-0.318028 Y3.065083
G01 X-0.318028 Y3.036913
G01 X-0.325319 Y3.009709
G01 X-0.339402 Y2.985315
G01 X-0.359315 Y2.965402
G01 X-0.383709 Y2.951319
G01 X-0.410913 Y2.944028
G01 X-0.439083 Y2.944028
G01 X-0.466287 Y2.951319
G01 X-0.490681 Y2.965402
G01 X-0.510594 Y2.985315
G01 X-0.524677 Y3.009709
G01 X-0.531969 Y3.036913
G04 P.05
G00 Z#6
(End section)
(Begin section -0.607642 2.581547)
G00 X-0.607642 Y2.581547
G01 F#12 Z[0-#2]
G04 P.05
G01 F#12 X-0.659835 Y2.581547
G01 X-0.672933 Y2.568449
G01 X-0.657642 Y2.568449
G01 X-0.642354 Y2.568449
G01 X-0.622854 Y2.548949
G01 X-0.620232 Y2.548949
G01 X-0.611429 Y2.545303
G01 X-0.604693 Y2.538567
G01 X-0.601047 Y2.529764
G01 X-0.601047 Y2.175921
G01 X-0.484575 Y2.059449
G01 X-0.457000 Y2.059449
G01 X-0.431547 Y2.033996
G01 X-0.431547 Y1.998000
G01 X-0.457000 Y1.972547
G01 X-0.492996 Y1.972547
G01 X-0.518449 Y1.998000
G01 X-0.518449 Y2.025575
G01 X-0.638567 Y2.145693
G01 X-0.645303 Y2.152429
G01 X-0.648949 Y2.161232
G01 X-0.648949 Y2.522854
G01 X-0.657642 Y2.531547
G01 X-0.672933 Y2.531547
G01 X-0.658547 Y2.517165
G01 X-0.658547 Y2.482831
G01 X-0.682831 Y2.458547
G01 X-0.717165 Y2.458547
G01 X-0.741449 Y2.482831
G01 X-0.741449 Y2.517165
G01 X-0.727063 Y2.531547
G01 X-0.732642 Y2.531547
G01 X-0.743449 Y2.542354
G01 X-0.768449 Y2.567354
G01 X-0.768449 Y2.572933
G01 X-0.776098 Y2.565283
G01 X-0.776098 Y2.534713
G01 X-0.758547 Y2.517165
G01 X-0.758547 Y2.482831
G01 X-0.776098 Y2.465283
G01 X-0.776098 Y2.434717
G01 X-0.758547 Y2.417165
G01 X-0.758547 Y2.382831
G01 X-0.776098 Y2.365280
G01 X-0.776098 Y2.334717
G01 X-0.758547 Y2.317165
G01 X-0.758547 Y2.282831
G01 X-0.776098 Y2.265280
G01 X-0.776098 Y2.234717
G01 X-0.758547 Y2.217165
G01 X-0.758547 Y2.182831
G01 X-0.776098 Y2.165280
G01 X-0.776098 Y2.134717
G01 X-0.758547 Y2.117165
G01 X-0.758547 Y2.082831
G01 X-0.776098 Y2.065280
G01 X-0.776098 Y2.034717
G01 X-0.768449 Y2.027063
G01 X-0.768449 Y2.042354
G01 X-0.768449 Y2.057642
G01 X-0.741449 Y2.084642
G01 X-0.741449 Y2.117165
G01 X-0.717165 Y2.141449
G01 X-0.682831 Y2.141449
G01 X-0.658547 Y2.117165
G01 X-0.658547 Y2.082831
G01 X-0.682831 Y2.058547
G01 X-0.715354 Y2.058547
G01 X-0.731547 Y2.042354
G01 X-0.731547 Y2.027063
G01 X-0.717165 Y2.041449
G01 X-0.682831 Y2.041449
G01 X-0.659835 Y2.018449
G01 X-0.615421 Y2.018449
G01 X-0.613567 Y2.020303
G01 X-0.604764 Y2.023949
G01 X-0.595232 Y2.023949
G01 X-0.586429 Y2.020303
G01 X-0.505287 Y1.939157
G01 X-0.492996 Y1.951449
G01 X-0.457000 Y1.951449
G01 X-0.431547 Y1.925996
G01 X-0.431547 Y1.890000
G01 X-0.457000 Y1.864547
G01 X-0.492996 Y1.864547
G01 X-0.512496 Y1.884047
G01 X-0.512764 Y1.884047
G01 X-0.521567 Y1.887693
G01 X-0.615421 Y1.981547
G01 X-0.659835 Y1.981547
G01 X-0.672933 Y1.968449
G01 X-0.640421 Y1.968449
G01 X-0.638567 Y1.970303
G01 X-0.629764 Y1.973949
G01 X-0.620232 Y1.973949
G01 X-0.611429 Y1.970303
G01 X-0.483579 Y1.842449
G01 X-0.457000 Y1.842449
G01 X-0.431547 Y1.816996
G01 X-0.431547 Y1.781000
G01 X-0.457000 Y1.755547
G01 X-0.492996 Y1.755547
G01 X-0.518449 Y1.781000
G01 X-0.518449 Y1.809579
G01 X-0.640421 Y1.931547
G01 X-0.672933 Y1.931547
G01 X-0.658547 Y1.917165
G01 X-0.658547 Y1.882831
G01 X-0.682831 Y1.858547
G01 X-0.717165 Y1.858547
G01 X-0.741449 Y1.882831
G01 X-0.741449 Y1.917165
G01 X-0.727063 Y1.931547
G01 X-0.732642 Y1.931547
G01 X-0.757642 Y1.956547
G01 X-0.768449 Y1.967354
G01 X-0.768449 Y1.972933
G01 X-0.776098 Y1.965280
G01 X-0.776098 Y1.934717
G01 X-0.758547 Y1.917165
G01 X-0.758547 Y1.882831
G01 X-0.776098 Y1.865280
G01 X-0.776098 Y1.834717
G01 X-0.758547 Y1.817165
G01 X-0.758547 Y1.782831
G01 X-0.776098 Y1.765280
G01 X-0.776098 Y1.734717
G01 X-0.758547 Y1.717165
G01 X-0.758547 Y1.682831
G01 X-0.776098 Y1.665283
G01 X-0.776098 Y1.634713
G01 X-0.758547 Y1.617165
G01 X-0.758547 Y1.582831
G01 X-0.776098 Y1.565283
G01 X-0.776098 Y1.534713
G01 X-0.768449 Y1.527063
G01 X-0.768449 Y1.532642
G01 X-0.743449 Y1.557642
G01 X-0.732642 Y1.568449
G01 X-0.727063 Y1.568449
G01 X-0.741449 Y1.582831
G01 X-0.741449 Y1.617165
G01 X-0.717165 Y1.641449
G01 X-0.682831 Y1.641449
G01 X-0.658547 Y1.617165
G01 X-0.658547 Y1.582831
G01 X-0.672933 Y1.568449
G01 X-0.665421 Y1.568449
G01 X-0.523567 Y1.710303
G01 X-0.514764 Y1.713949
G01 X-0.512496 Y1.713949
G01 X-0.492996 Y1.733449
G01 X-0.457000 Y1.733449
G01 X-0.431547 Y1.707996
G01 X-0.431547 Y1.672000
G01 X-0.457000 Y1.646547
G01 X-0.492996 Y1.646547
G01 X-0.506287 Y1.659839
G01 X-0.636429 Y1.529693
G01 X-0.645232 Y1.526047
G01 X-0.654764 Y1.526047
G01 X-0.663567 Y1.529693
G01 X-0.665421 Y1.531547
G01 X-0.672933 Y1.531547
G01 X-0.665331 Y1.523949
G01 X-0.634921 Y1.523949
G01 X-0.556567 Y1.602303
G01 X-0.547764 Y1.605949
G01 X-0.538232 Y1.605949
G01 X-0.512496 Y1.605949
G01 X-0.492996 Y1.625449
G01 X-0.457000 Y1.625449
G01 X-0.431547 Y1.599996
G01 X-0.431547 Y1.564000
G01 X-0.457000 Y1.538547
G01 X-0.492996 Y1.538547
G01 X-0.512496 Y1.558047
G01 X-0.533075 Y1.558047
G01 X-0.604693 Y1.486429
G01 X-0.611429 Y1.479693
G01 X-0.620232 Y1.476047
G01 X-0.665331 Y1.476047
G01 X-0.682831 Y1.458547
G01 X-0.717165 Y1.458547
G01 X-0.731547 Y1.472933
G01 X-0.731547 Y1.457642
G01 X-0.715358 Y1.441449
G01 X-0.682831 Y1.441449
G01 X-0.658547 Y1.417165
G01 X-0.658547 Y1.382831
G01 X-0.682831 Y1.358547
G01 X-0.717165 Y1.358547
G01 X-0.741449 Y1.382831
G01 X-0.741449 Y1.415358
G01 X-0.757642 Y1.431547
G01 X-0.768449 Y1.442354
G01 X-0.768449 Y1.472933
G01 X-0.776098 Y1.465283
G01 X-0.776098 Y1.434717
G01 X-0.758547 Y1.417165
G01 X-0.758547 Y1.382831
G01 X-0.776098 Y1.365280
G01 X-0.776098 Y1.334717
G01 X-0.758547 Y1.317165
G01 X-0.758547 Y1.282831
G01 X-0.776098 Y1.265280
G01 X-0.776098 Y1.234717
G01 X-0.758547 Y1.217165
G01 X-0.758547 Y1.182831
G01 X-0.776098 Y1.165280
G01 X-0.776098 Y1.134717
G01 X-0.758547 Y1.117165
G01 X-0.758547 Y1.082831
G01 X-0.776098 Y1.065280
G01 X-0.776098 Y1.034717
G01 X-0.758547 Y1.017165
G01 X-0.758547 Y0.982831
G01 X-0.776098 Y0.965280
G01 X-0.776098 Y0.934717
G01 X-0.758547 Y0.917165
G01 X-0.758547 Y0.882831
G01 X-0.776098 Y0.865280
G01 X-0.776098 Y0.834713
G01 X-0.758547 Y0.817165
G01 X-0.758547 Y0.782831
G01 X-0.776098 Y0.765283
G01 X-0.776098 Y0.734713
G01 X-0.758547 Y0.717165
G01 X-0.758547 Y0.682831
G01 X-0.776098 Y0.665283
G01 X-0.776098 Y0.634713
G01 X-0.758547 Y0.617165
G01 X-0.758547 Y0.582831
G01 X-0.776098 Y0.565283
G01 X-0.776098 Y0.534713
G01 X-0.758547 Y0.517165
G01 X-0.758547 Y0.482831
G01 X-0.776098 Y0.465283
G01 X-0.776098 Y0.434713
G01 X-0.758547 Y0.417165
G01 X-0.758547 Y0.382831
G01 X-0.776098 Y0.365283
G01 X-0.776098 Y0.334713
G01 X-0.758547 Y0.317165
G01 X-0.758547 Y0.282831
G01 X-0.782831 Y0.258547
G01 X-0.817165 Y0.258547
G01 X-0.841449 Y0.282831
G01 X-0.841449 Y0.317165
G01 X-0.823898 Y0.334713
G01 X-0.823898 Y0.365283
G01 X-0.841449 Y0.382831
G01 X-0.841449 Y0.417165
G01 X-0.823898 Y0.434713
G01 X-0.823898 Y0.465283
G01 X-0.841449 Y0.482831
G01 X-0.841449 Y0.517165
G01 X-0.823898 Y0.534713
G01 X-0.823898 Y0.565283
G01 X-0.841449 Y0.582831
G01 X-0.841449 Y0.617165
G01 X-0.823898 Y0.634713
G01 X-0.823898 Y0.665283
G01 X-0.841449 Y0.682831
G01 X-0.841449 Y0.717165
G01 X-0.823898 Y0.734713
G01 X-0.823898 Y0.765283
G01 X-0.841449 Y0.782831
G01 X-0.841449 Y0.817165
G01 X-0.823898 Y0.834713
G01 X-0.823898 Y0.865280
G01 X-0.841449 Y0.882831
G01 X-0.841449 Y0.917165
G01 X-0.823898 Y0.934717
G01 X-0.823898 Y0.965280
G01 X-0.841449 Y0.982831
G01 X-0.841449 Y1.017165
G01 X-0.823898 Y1.034717
G01 X-0.823898 Y1.065280
G01 X-0.841449 Y1.082831
G01 X-0.841449 Y1.117165
G01 X-0.823898 Y1.134717
G01 X-0.823898 Y1.165280
G01 X-0.841449 Y1.182831
G01 X-0.841449 Y1.217165
G01 X-0.823898 Y1.234717
G01 X-0.823898 Y1.265280
G01 X-0.841449 Y1.282831
G01 X-0.841449 Y1.317165
G01 X-0.823898 Y1.334717
G01 X-0.823898 Y1.365280
G01 X-0.841449 Y1.382831
G01 X-0.841449 Y1.417165
G01 X-0.823898 Y1.434717
G01 X-0.823898 Y1.465283
G01 X-0.841449 Y1.482831
G01 X-0.841449 Y1.517165
G01 X-0.823898 Y1.534713
G01 X-0.823898 Y1.565283
G01 X-0.841449 Y1.582831
G01 X-0.841449 Y1.617165
G01 X-0.823898 Y1.634713
G01 X-0.823898 Y1.665283
G01 X-0.841449 Y1.682831
G01 X-0.841449 Y1.717165
G01 X-0.823898 Y1.734717
G01 X-0.823898 Y1.765280
G01 X-0.841449 Y1.782831
G01 X-0.841449 Y1.817165
G01 X-0.823898 Y1.834717
G01 X-0.823898 Y1.865280
G01 X-0.841449 Y1.882831
G01 X-0.841449 Y1.917165
G01 X-0.823898 Y1.934717
G01 X-0.823898 Y1.965280
G01 X-0.841449 Y1.982831
G01 X-0.841449 Y2.017165
G01 X-0.823898 Y2.034717
G01 X-0.823898 Y2.065280
G01 X-0.841449 Y2.082831
G01 X-0.841449 Y2.117165
G01 X-0.823898 Y2.134717
G01 X-0.823898 Y2.165280
G01 X-0.841449 Y2.182831
G01 X-0.841449 Y2.217165
G01 X-0.823898 Y2.234717
G01 X-0.823898 Y2.265280
G01 X-0.841449 Y2.282831
G01 X-0.841449 Y2.317165
G01 X-0.823898 Y2.334717
G01 X-0.823898 Y2.365280
G01 X-0.841449 Y2.382831
G01 X-0.841449 Y2.417165
G01 X-0.823898 Y2.434717
G01 X-0.823898 Y2.465283
G01 X-0.841449 Y2.482831
G01 X-0.841449 Y2.517165
G01 X-0.823898 Y2.534713
G01 X-0.823898 Y2.565283
G01 X-0.841449 Y2.582831
G01 X-0.841449 Y2.617165
G01 X-0.823898 Y2.634713
G01 X-0.823898 Y2.665283
G01 X-0.841449 Y2.682831
G01 X-0.841449 Y2.717165
G01 X-0.823898 Y2.734713
G01 X-0.823898 Y2.795244
G01 X-0.823898 Y2.804752
G01 X-0.820260 Y2.813535
G01 X-0.720260 Y2.913535
G01 X-0.713535 Y2.920260
G01 X-0.704752 Y2.923898
G01 X-0.454752 Y2.923898
G01 X-0.445244 Y2.923898
G01 X-0.436461 Y2.920260
G01 X-0.361461 Y2.845260
G01 X-0.354736 Y2.838535
G01 X-0.351098 Y2.829752
G01 X-0.351098 Y2.760547
G01 X-0.331547 Y2.740996
G01 X-0.331547 Y2.705000
G01 X-0.351098 Y2.685449
G01 X-0.351098 Y2.651547
G01 X-0.331547 Y2.631996
G01 X-0.331547 Y2.596000
G01 X-0.351098 Y2.576449
G01 X-0.351098 Y2.542547
G01 X-0.331547 Y2.522996
G01 X-0.331547 Y2.487000
G01 X-0.351098 Y2.467449
G01 X-0.351098 Y2.434547
G01 X-0.331547 Y2.414996
G01 X-0.331547 Y2.379000
G01 X-0.351098 Y2.359449
G01 X-0.351098 Y2.325547
G01 X-0.331547 Y2.305996
G01 X-0.331547 Y2.270000
G01 X-0.351098 Y2.250449
G01 X-0.351098 Y2.216543
G01 X-0.331547 Y2.196996
G01 X-0.331547 Y2.161000
G01 X-0.351098 Y2.141453
G01 X-0.351098 Y2.108543
G01 X-0.331547 Y2.088996
G01 X-0.331547 Y2.053000
G01 X-0.351098 Y2.033449
G01 X-0.351098 Y1.999547
G01 X-0.337453 Y1.985898
G01 X-0.332244 Y1.985898
G01 X-0.323461 Y1.982260
G01 X-0.054736 Y1.713535
G01 X-0.051098 Y1.704752
G01 X-0.051098 Y1.695244
G01 X-0.051098 Y0.995244
G01 X-0.051098 Y0.804752
G01 X-0.051098 Y0.795244
G01 X-0.051098 Y0.595244
G01 X-0.051098 Y0.404882
G01 X-0.051047 Y0.404764
G01 X-0.051047 Y-0.004764
G01 X-0.054693 Y-0.013567
G01 X-0.061429 Y-0.020303
G01 X-0.070232 Y-0.023949
G01 X-0.079764 Y-0.023949
G01 X-0.123346 Y-0.023949
G01 X-0.124469 Y-0.026665
G01 X-0.137709 Y-0.039906
G01 X-0.155012 Y-0.047071
G01 X-0.244984 Y-0.047071
G01 X-0.262287 Y-0.039906
G01 X-0.275528 Y-0.026665
G01 X-0.282693 Y-0.009362
G01 X-0.282693 Y0.009362
G01 X-0.275528 Y0.026665
G01 X-0.262287 Y0.039906
G01 X-0.244984 Y0.047071
G01 X-0.155012 Y0.047071
G01 X-0.137709 Y0.039906
G01 X-0.124469 Y0.026665
G01 X-0.123346 Y0.023949
G01 X-0.098949 Y0.023949
G01 X-0.098949 Y0.376098
G01 X-0.123323 Y0.376098
G01 X-0.124469 Y0.373331
G01 X-0.137709 Y0.360091
G01 X-0.155012 Y0.352925
G01 X-0.244984 Y0.352925
G01 X-0.262287 Y0.360091
G01 X-0.275528 Y0.373331
G01 X-0.276673 Y0.376098
G01 X-0.368106 Y0.376098
G01 X-0.383657 Y0.360547
G01 X-0.416339 Y0.360547
G01 X-0.439449 Y0.383657
G01 X-0.439449 Y0.416339
G01 X-0.416339 Y0.439449
G01 X-0.383657 Y0.439449
G01 X-0.368106 Y0.423898
G01 X-0.276673 Y0.423898
G01 X-0.275528 Y0.426665
G01 X-0.262287 Y0.439906
G01 X-0.244984 Y0.447071
G01 X-0.155012 Y0.447071
G01 X-0.137709 Y0.439906
G01 X-0.124469 Y0.426665
G01 X-0.123323 Y0.423898
G01 X-0.098898 Y0.423898
G01 X-0.098898 Y0.576098
G01 X-0.123323 Y0.576098
G01 X-0.124469 Y0.573331
G01 X-0.137709 Y0.560091
G01 X-0.155012 Y0.552925
G01 X-0.244984 Y0.552925
G01 X-0.262287 Y0.560091
G01 X-0.275528 Y0.573331
G01 X-0.276673 Y0.576098
G01 X-0.368106 Y0.576098
G01 X-0.383657 Y0.560547
G01 X-0.416339 Y0.560547
G01 X-0.439449 Y0.583657
G01 X-0.439449 Y0.616339
G01 X-0.416339 Y0.639449
G01 X-0.383657 Y0.639449
G01 X-0.368106 Y0.623898
G01 X-0.276673 Y0.623898
G01 X-0.275528 Y0.626665
G01 X-0.262287 Y0.639906
G01 X-0.244984 Y0.647071
G01 X-0.155012 Y0.647071
G01 X-0.137709 Y0.639906
G01 X-0.124469 Y0.626665
G01 X-0.123323 Y0.623898
G01 X-0.098898 Y0.623898
G01 X-0.098898 Y0.776098
G01 X-0.123323 Y0.776098
G01 X-0.124469 Y0.773331
G01 X-0.137709 Y0.760091
G01 X-0.155012 Y0.752925
G01 X-0.244984 Y0.752925
G01 X-0.262287 Y0.760091
G01 X-0.275528 Y0.773331
G01 X-0.276673 Y0.776098
G01 X-0.368106 Y0.776098
G01 X-0.383657 Y0.760547
G01 X-0.416339 Y0.760547
G01 X-0.439449 Y0.783657
G01 X-0.439449 Y0.816339
G01 X-0.416339 Y0.839449
G01 X-0.383657 Y0.839449
G01 X-0.368106 Y0.823898
G01 X-0.276673 Y0.823898
G01 X-0.275528 Y0.826665
G01 X-0.262287 Y0.839906
G01 X-0.244984 Y0.847071
G01 X-0.155012 Y0.847071
G01 X-0.137709 Y0.839906
G01 X-0.124469 Y0.826665
G01 X-0.123323 Y0.823898
G01 X-0.098898 Y0.823898
G01 X-0.098898 Y0.976098
G01 X-0.123323 Y0.976098
G01 X-0.124469 Y0.973331
G01 X-0.137709 Y0.960091
G01 X-0.155012 Y0.952925
G01 X-0.244984 Y0.952925
G01 X-0.262287 Y0.960091
G01 X-0.275528 Y0.973331
G01 X-0.276673 Y0.976098
G01 X-0.368106 Y0.976098
G01 X-0.383657 Y0.960547
G01 X-0.416339 Y0.960547
G01 X-0.439449 Y0.983657
G01 X-0.439449 Y1.016339
G01 X-0.416339 Y1.039449
G01 X-0.383657 Y1.039449
G01 X-0.368106 Y1.023898
G01 X-0.276673 Y1.023898
G01 X-0.275528 Y1.026665
G01 X-0.262287 Y1.039906
G01 X-0.244984 Y1.047071
G01 X-0.155012 Y1.047071
G01 X-0.137709 Y1.039906
G01 X-0.124469 Y1.026665
G01 X-0.123323 Y1.023898
G01 X-0.098898 Y1.023898
G01 X-0.098898 Y1.690098
G01 X-0.342173 Y1.933378
G01 X-0.357000 Y1.918547
G01 X-0.392996 Y1.918547
G01 X-0.418449 Y1.944000
G01 X-0.418449 Y1.979996
G01 X-0.398898 Y1.999547
G01 X-0.398898 Y2.033449
G01 X-0.418449 Y2.053000
G01 X-0.418449 Y2.088996
G01 X-0.398898 Y2.108543
G01 X-0.398898 Y2.141453
G01 X-0.418449 Y2.161000
G01 X-0.418449 Y2.196996
G01 X-0.398898 Y2.216543
G01 X-0.398898 Y2.250449
G01 X-0.418449 Y2.270000
G01 X-0.418449 Y2.305996
G01 X-0.398898 Y2.325547
G01 X-0.398898 Y2.359449
G01 X-0.418449 Y2.379000
G01 X-0.418449 Y2.414996
G01 X-0.398898 Y2.434547
G01 X-0.398898 Y2.467449
G01 X-0.418449 Y2.487000
G01 X-0.418449 Y2.522996
G01 X-0.398898 Y2.542547
G01 X-0.398898 Y2.576449
G01 X-0.418449 Y2.596000
G01 X-0.418449 Y2.631996
G01 X-0.398898 Y2.651547
G01 X-0.398898 Y2.685449
G01 X-0.418449 Y2.705000
G01 X-0.418449 Y2.740996
G01 X-0.398898 Y2.760547
G01 X-0.398898 Y2.815098
G01 X-0.459898 Y2.876098
G01 X-0.690098 Y2.876098
G01 X-0.776098 Y2.790098
G01 X-0.776098 Y2.734713
G01 X-0.758547 Y2.717165
G01 X-0.758547 Y2.682831
G01 X-0.776098 Y2.665283
G01 X-0.776098 Y2.634713
G01 X-0.768449 Y2.627063
G01 X-0.768449 Y2.657642
G01 X-0.757642 Y2.668449
G01 X-0.739362 Y2.686724
G01 X-0.741449 Y2.691752
G01 X-0.741449 Y2.708244
G01 X-0.735138 Y2.723480
G01 X-0.723480 Y2.735138
G01 X-0.708244 Y2.741449
G01 X-0.691752 Y2.741449
G01 X-0.676516 Y2.735138
G01 X-0.664858 Y2.723480
G01 X-0.658547 Y2.708244
G01 X-0.658547 Y2.691752
G01 X-0.664858 Y2.676516
G01 X-0.676516 Y2.664858
G01 X-0.691752 Y2.658547
G01 X-0.708244 Y2.658547
G01 X-0.713272 Y2.660634
G01 X-0.731547 Y2.642354
G01 X-0.731547 Y2.627063
G01 X-0.717165 Y2.641449
G01 X-0.682831 Y2.641449
G01 X-0.659835 Y2.618449
G01 X-0.592354 Y2.618449
G01 X-0.581547 Y2.607642
G01 X-0.572854 Y2.598949
G01 X-0.570232 Y2.598949
G01 X-0.561429 Y2.595303
G01 X-0.554693 Y2.588567
G01 X-0.551047 Y2.579764
G01 X-0.551047 Y2.234921
G01 X-0.484575 Y2.168449
G01 X-0.457000 Y2.168449
G01 X-0.431547 Y2.142996
G01 X-0.431547 Y2.107000
G01 X-0.457000 Y2.081547
G01 X-0.492996 Y2.081547
G01 X-0.518449 Y2.107000
G01 X-0.518449 Y2.134575
G01 X-0.588567 Y2.204693
G01 X-0.595303 Y2.211429
G01 X-0.598949 Y2.220232
G01 X-0.598949 Y2.572854
G01 X-0.607642 Y2.581547
G04 P.05
G00 Z#6
(End section)
(Begin section -0.536449 3.036323)
G00 X-0.536449 Y3.036323
G01 F#12 Z[0-#2]
G04 P.05
G01 F#12 X-0.536449 Y3.065673
G01 X-0.528854 Y3.094016
G01 X-0.514181 Y3.119433
G01 X-0.493433 Y3.140181
G01 X-0.468016 Y3.154854
G01 X-0.439673 Y3.162449
G01 X-0.410323 Y3.162449
G01 X-0.381980 Y3.154854
G01 X-0.356563 Y3.140181
G01 X-0.335815 Y3.119433
G01 X-0.321142 Y3.094016
G01 X-0.313547 Y3.065673
G01 X-0.313547 Y3.036323
G01 X-0.321142 Y3.007980
G01 X-0.335815 Y2.982563
G01 X-0.356563 Y2.961815
G01 X-0.381980 Y2.947142
G01 X-0.410323 Y2.939547
G01 X-0.439673 Y2.939547
G01 X-0.468016 Y2.947142
G01 X-0.493433 Y2.961815
G01 X-0.514181 Y2.982563
G01 X-0.528854 Y3.007980
G01 X-0.536449 Y3.036323
G04 P.05
G00 Z#6
(End section)
(Begin section -0.536449 1.184323)
G00 X-0.536449 Y1.184323
G01 F#12 Z[0-#2]
G04 P.05
G01 F#12 X-0.536449 Y1.213673
G01 X-0.528854 Y1.242016
G01 X-0.514181 Y1.267433
G01 X-0.493433 Y1.288181
G01 X-0.468016 Y1.302854
G01 X-0.439673 Y1.310449
G01 X-0.410323 Y1.310449
G01 X-0.381980 Y1.302854
G01 X-0.356563 Y1.288181
G01 X-0.335815 Y1.267433
G01 X-0.321142 Y1.242016
G01 X-0.313547 Y1.213673
G01 X-0.313547 Y1.184323
G01 X-0.321142 Y1.155980
G01 X-0.335815 Y1.130563
G01 X-0.356563 Y1.109815
G01 X-0.381980 Y1.095142
G01 X-0.410323 Y1.087547
G01 X-0.439673 Y1.087547
G01 X-0.468016 Y1.095142
G01 X-0.493433 Y1.109815
G01 X-0.514181 Y1.130563
G01 X-0.528854 Y1.155980
G01 X-0.536449 Y1.184323
G04 P.05
G00 Z#6
(End section)
(Begin section -0.418449 1.835000)
G00 X-0.418449 Y1.835000
G01 F#12 Z[0-#2]
G04 P.05
G01 F#12 X-0.418449 Y1.870996
G01 X-0.392996 Y1.896449
G01 X-0.357000 Y1.896449
G01 X-0.331547 Y1.870996
G01 X-0.331547 Y1.835000
G01 X-0.357000 Y1.809547
G01 X-0.392996 Y1.809547
G01 X-0.418449 Y1.835000
G04 P.05
G00 Z#6
(End section)
(Begin section -0.418449 1.727000)
G00 X-0.418449 Y1.727000
G01 F#12 Z[0-#2]
G04 P.05
G01 F#12 X-0.418449 Y1.762996
G01 X-0.392996 Y1.788449
G01 X-0.357000 Y1.788449
G01 X-0.331547 Y1.762996
G01 X-0.331547 Y1.727000
G01 X-0.357000 Y1.701547
G01 X-0.392996 Y1.701547
G01 X-0.418449 Y1.727000
G04 P.05
G00 Z#6
(End section)
(Begin section -0.418449 1.618000)
G00 X-0.418449 Y1.618000
G01 F#12 Z[0-#2]
G04 P.05
G01 F#12 X-0.418449 Y1.653996
G01 X-0.392996 Y1.679449
G01 X-0.357000 Y1.679449
G01 X-0.331547 Y1.653996
G01 X-0.331547 Y1.618000
G01 X-0.357000 Y1.592547
G01 X-0.392996 Y1.592547
G01 X-0.418449 Y1.618000
G04 P.05
G00 Z#6
(End section)
(Begin section -0.418449 1.509000)
G00 X-0.418449 Y1.509000
G01 F#12 Z[0-#2]
G04 P.05
G01 F#12 X-0.418449 Y1.544996
G01 X-0.392996 Y1.570449
G01 X-0.357000 Y1.570449
G01 X-0.331547 Y1.544996
G01 X-0.331547 Y1.509000
G01 X-0.357000 Y1.483547
G01 X-0.392996 Y1.483547
G01 X-0.418449 Y1.509000
G04 P.05
G00 Z#6
(End section)
(Begin section -0.518449 2.759000)
G00 X-0.518449 Y2.759000
G01 F#12 Z[0-#2]
G04 P.05
G01 F#12 X-0.518449 Y2.794996
G01 X-0.492996 Y2.820449
G01 X-0.457000 Y2.820449
G01 X-0.431547 Y2.794996
G01 X-0.431547 Y2.759000
G01 X-0.457000 Y2.733547
G01 X-0.492996 Y2.733547
G01 X-0.518449 Y2.759000
G04 P.05
G00 Z#6
(End section)
(Begin section -0.518449 2.650000)
G00 X-0.518449 Y2.650000
G01 F#12 Z[0-#2]
G04 P.05
G01 F#12 X-0.518449 Y2.685996
G01 X-0.492996 Y2.711449
G01 X-0.457000 Y2.711449
G01 X-0.431547 Y2.685996
G01 X-0.431547 Y2.650000
G01 X-0.457000 Y2.624547
G01 X-0.492996 Y2.624547
G01 X-0.518449 Y2.650000
G04 P.05
G00 Z#6
(End section)
(Begin section -0.518449 2.542000)
G00 X-0.518449 Y2.542000
G01 F#12 Z[0-#2]
G04 P.05
G01 F#12 X-0.518449 Y2.577996
G01 X-0.492996 Y2.603449
G01 X-0.457000 Y2.603449
G01 X-0.431547 Y2.577996
G01 X-0.431547 Y2.542000
G01 X-0.457000 Y2.516547
G01 X-0.492996 Y2.516547
G01 X-0.518449 Y2.542000
G04 P.05
G00 Z#6
(End section)
(Begin section -0.518449 2.433000)
G00 X-0.518449 Y2.433000
G01 F#12 Z[0-#2]
G04 P.05
G01 F#12 X-0.518449 Y2.468996
G01 X-0.492996 Y2.494449
G01 X-0.457000 Y2.494449
G01 X-0.431547 Y2.468996
G01 X-0.431547 Y2.433000
G01 X-0.457000 Y2.407547
G01 X-0.492996 Y2.407547
G01 X-0.518449 Y2.433000
G04 P.05
G00 Z#6
(End section)
(Begin section -0.518449 2.324000)
G00 X-0.518449 Y2.324000
G01 F#12 Z[0-#2]
G04 P.05
G01 F#12 X-0.518449 Y2.359996
G01 X-0.492996 Y2.385449
G01 X-0.457000 Y2.385449
G01 X-0.431547 Y2.359996
G01 X-0.431547 Y2.324000
G01 X-0.457000 Y2.298547
G01 X-0.492996 Y2.298547
G01 X-0.518449 Y2.324000
G04 P.05
G00 Z#6
(End section)
(Begin section -0.518449 2.216000)
G00 X-0.518449 Y2.216000
G01 F#12 Z[0-#2]
G04 P.05
G01 F#12 X-0.518449 Y2.251996
G01 X-0.492996 Y2.277449
G01 X-0.457000 Y2.277449
G01 X-0.431547 Y2.251996
G01 X-0.431547 Y2.216000
G01 X-0.457000 Y2.190547
G01 X-0.492996 Y2.190547
G01 X-0.518449 Y2.216000
G04 P.05
G00 Z#6
(End section)
(Begin section -0.518449 1.455000)
G00 X-0.518449 Y1.455000
G01 F#12 Z[0-#2]
G04 P.05
G01 F#12 X-0.518449 Y1.490996
G01 X-0.492996 Y1.516449
G01 X-0.457000 Y1.516449
G01 X-0.431547 Y1.490996
G01 X-0.431547 Y1.455000
G01 X-0.457000 Y1.429547
G01 X-0.492996 Y1.429547
G01 X-0.518449 Y1.455000
G04 P.05
G00 Z#6
(End section)
(Begin section -0.155012 0.052925)
G00 X-0.155012 Y0.052925
G01 F#12 Z[0-#2]
G04 P.05
G01 F#12 X-0.244984 Y0.052925
G01 X-0.262287 Y0.060091
G01 X-0.275528 Y0.073331
G01 X-0.276650 Y0.076047
G01 X-0.379764 Y0.076047
G01 X-0.388567 Y0.079693
G01 X-0.395303 Y0.086429
G01 X-0.675126 Y0.366256
G01 X-0.682831 Y0.358547
G01 X-0.717165 Y0.358547
G01 X-0.741449 Y0.382831
G01 X-0.741449 Y0.417165
G01 X-0.717165 Y0.441449
G01 X-0.682831 Y0.441449
G01 X-0.661866 Y0.420484
G01 X-0.661429 Y0.420303
G01 X-0.365075 Y0.123949
G01 X-0.276650 Y0.123949
G01 X-0.275528 Y0.126665
G01 X-0.262287 Y0.139906
G01 X-0.244984 Y0.147071
G01 X-0.155012 Y0.147071
G01 X-0.137709 Y0.139906
G01 X-0.124469 Y0.126665
G01 X-0.117303 Y0.109362
G01 X-0.117303 Y0.090634
G01 X-0.124469 Y0.073331
G01 X-0.137709 Y0.060091
G01 X-0.155012 Y0.052925
G04 P.05
G00 Z#6
(End section)
(Begin section -0.155012 0.852925)
G00 X-0.155012 Y0.852925
G01 F#12 Z[0-#2]
G04 P.05
G01 F#12 X-0.244984 Y0.852925
G01 X-0.262287 Y0.860091
G01 X-0.275528 Y0.873331
G01 X-0.276650 Y0.876047
G01 X-0.368157 Y0.876047
G01 X-0.383657 Y0.860547
G01 X-0.405579 Y0.860547
G01 X-0.486429 Y0.779693
G01 X-0.495232 Y0.776047
G01 X-0.504764 Y0.776047
G01 X-0.665335 Y0.776047
G01 X-0.682831 Y0.758547
G01 X-0.717165 Y0.758547
G01 X-0.741449 Y0.782831
G01 X-0.741449 Y0.817165
G01 X-0.717165 Y0.841449
G01 X-0.682831 Y0.841449
G01 X-0.665335 Y0.823949
G01 X-0.509921 Y0.823949
G01 X-0.439449 Y0.894417
G01 X-0.439449 Y0.916339
G01 X-0.416339 Y0.939449
G01 X-0.383657 Y0.939449
G01 X-0.368157 Y0.923949
G01 X-0.276650 Y0.923949
G01 X-0.275528 Y0.926665
G01 X-0.262287 Y0.939906
G01 X-0.244984 Y0.947071
G01 X-0.155012 Y0.947071
G01 X-0.137709 Y0.939906
G01 X-0.124469 Y0.926665
G01 X-0.117303 Y0.909362
G01 X-0.117303 Y0.890634
G01 X-0.124469 Y0.873331
G01 X-0.137709 Y0.860091
G01 X-0.155012 Y0.852925
G04 P.05
G00 Z#6
(End section)
(Begin section -0.155012 0.652925)
G00 X-0.155012 Y0.652925
G01 F#12 Z[0-#2]
G04 P.05
G01 F#12 X-0.244984 Y0.652925
G01 X-0.262287 Y0.660091
G01 X-0.275528 Y0.673331
G01 X-0.276650 Y0.676047
G01 X-0.368157 Y0.676047
G01 X-0.383657 Y0.660547
G01 X-0.416339 Y0.660547
G01 X-0.431839 Y0.676047
G01 X-0.665331 Y0.676047
G01 X-0.682831 Y0.658547
G01 X-0.717165 Y0.658547
G01 X-0.741449 Y0.682831
G01 X-0.741449 Y0.717165
G01 X-0.717165 Y0.741449
G01 X-0.682831 Y0.741449
G01 X-0.665331 Y0.723949
G01 X-0.431839 Y0.723949
G01 X-0.416339 Y0.739449
G01 X-0.411638 Y0.739449
G01 X-0.407642 Y0.743449
G01 X-0.392354 Y0.743449
G01 X-0.388358 Y0.739449
G01 X-0.383657 Y0.739449
G01 X-0.368157 Y0.723949
G01 X-0.276650 Y0.723949
G01 X-0.275528 Y0.726665
G01 X-0.262287 Y0.739906
G01 X-0.244984 Y0.747071
G01 X-0.155012 Y0.747071
G01 X-0.137709 Y0.739906
G01 X-0.124469 Y0.726665
G01 X-0.117303 Y0.709362
G01 X-0.117303 Y0.690634
G01 X-0.124469 Y0.673331
G01 X-0.137709 Y0.660091
G01 X-0.155012 Y0.652925
G04 P.05
G00 Z#6
(End section)
(Begin section -0.155012 0.452925)
G00 X-0.155012 Y0.452925
G01 F#12 Z[0-#2]
G04 P.05
G01 F#12 X-0.244984 Y0.452925
G01 X-0.262287 Y0.460091
G01 X-0.275528 Y0.473331
G01 X-0.276650 Y0.476047
G01 X-0.368157 Y0.476047
G01 X-0.383657 Y0.460547
G01 X-0.416339 Y0.460547
G01 X-0.431839 Y0.476047
G01 X-0.595232 Y0.476047
G01 X-0.604764 Y0.476047
G01 X-0.613567 Y0.479693
G01 X-0.692421 Y0.558547
G01 X-0.717165 Y0.558547
G01 X-0.741449 Y0.582831
G01 X-0.741449 Y0.617165
G01 X-0.717165 Y0.641449
G01 X-0.682831 Y0.641449
G01 X-0.658547 Y0.617165
G01 X-0.658547 Y0.592421
G01 X-0.590075 Y0.523949
G01 X-0.431839 Y0.523949
G01 X-0.416339 Y0.539449
G01 X-0.383657 Y0.539449
G01 X-0.368157 Y0.523949
G01 X-0.276650 Y0.523949
G01 X-0.275528 Y0.526665
G01 X-0.262287 Y0.539906
G01 X-0.244984 Y0.547071
G01 X-0.155012 Y0.547071
G01 X-0.137709 Y0.539906
G01 X-0.124469 Y0.526665
G01 X-0.117303 Y0.509362
G01 X-0.117303 Y0.490634
G01 X-0.124469 Y0.473331
G01 X-0.137709 Y0.460091
G01 X-0.155012 Y0.452925
G04 P.05
G00 Z#6
(End section)
(Begin section -0.155012 0.252925)
G00 X-0.155012 Y0.252925
G01 F#12 Z[0-#2]
G04 P.05
G01 F#12 X-0.244984 Y0.252925
G01 X-0.262287 Y0.260091
G01 X-0.275528 Y0.273331
G01 X-0.276650 Y0.276047
G01 X-0.368161 Y0.276047
G01 X-0.383657 Y0.260547
G01 X-0.416339 Y0.260547
G01 X-0.431835 Y0.276047
G01 X-0.504764 Y0.276047
G01 X-0.513567 Y0.279693
G01 X-0.520303 Y0.286429
G01 X-0.692421 Y0.458547
G01 X-0.717165 Y0.458547
G01 X-0.741449 Y0.482831
G01 X-0.741449 Y0.517165
G01 X-0.717165 Y0.541449
G01 X-0.682831 Y0.541449
G01 X-0.658547 Y0.517165
G01 X-0.658547 Y0.492421
G01 X-0.490075 Y0.323949
G01 X-0.431835 Y0.323949
G01 X-0.416339 Y0.339449
G01 X-0.383657 Y0.339449
G01 X-0.368161 Y0.323949
G01 X-0.276650 Y0.323949
G01 X-0.275528 Y0.326665
G01 X-0.262287 Y0.339906
G01 X-0.244984 Y0.347071
G01 X-0.155012 Y0.347071
G01 X-0.137709 Y0.339906
G01 X-0.124469 Y0.326665
G01 X-0.117303 Y0.309362
G01 X-0.117303 Y0.290634
G01 X-0.124469 Y0.273331
G01 X-0.137709 Y0.260091
G01 X-0.155012 Y0.252925
G04 P.05
G00 Z#6
(End section)
(Begin section -0.741449 0.282831)
G00 X-0.741449 Y0.282831
G01 F#12 Z[0-#2]
G04 P.05
G01 F#12 X-0.741449 Y0.317165
G01 X-0.717165 Y0.341449
G01 X-0.682831 Y0.341449
G01 X-0.658547 Y0.317165
G01 X-0.658547 Y0.282831
G01 X-0.682831 Y0.258547
G01 X-0.717165 Y0.258547
G01 X-0.741449 Y0.282831
G04 P.05
G00 Z#6
(End section)
(Begin section -0.741449 0.882831)
G00 X-0.741449 Y0.882831
G01 F#12 Z[0-#2]
G04 P.05
G01 F#12 X-0.741449 Y0.917165
G01 X-0.717165 Y0.941449
G01 X-0.682831 Y0.941449
G01 X-0.658547 Y0.917165
G01 X-0.658547 Y0.882831
G01 X-0.682831 Y0.858547
G01 X-0.717165 Y0.858547
G01 X-0.741449 Y0.882831
G04 P.05
G00 Z#6
(End section)
(Begin section -0.741449 0.982831)
G00 X-0.741449 Y0.982831
G01 F#12 Z[0-#2]
G04 P.05
G01 F#12 X-0.741449 Y1.017165
G01 X-0.717165 Y1.041449
G01 X-0.682831 Y1.041449
G01 X-0.658547 Y1.017165
G01 X-0.658547 Y0.982831
G01 X-0.682831 Y0.958547
G01 X-0.717165 Y0.958547
G01 X-0.741449 Y0.982831
G04 P.05
G00 Z#6
(End section)
(Begin section -0.741449 1.082831)
G00 X-0.741449 Y1.082831
G01 F#12 Z[0-#2]
G04 P.05
G01 F#12 X-0.741449 Y1.117165
G01 X-0.717165 Y1.141449
G01 X-0.682831 Y1.141449
G01 X-0.658547 Y1.117165
G01 X-0.658547 Y1.082831
G01 X-0.682831 Y1.058547
G01 X-0.717165 Y1.058547
G01 X-0.741449 Y1.082831
G04 P.05
G00 Z#6
(End section)
(Begin section -0.741449 1.182831)
G00 X-0.741449 Y1.182831
G01 F#12 Z[0-#2]
G04 P.05
G01 F#12 X-0.741449 Y1.217165
G01 X-0.717165 Y1.241449
G01 X-0.682831 Y1.241449
G01 X-0.658547 Y1.217165
G01 X-0.658547 Y1.182831
G01 X-0.682831 Y1.158547
G01 X-0.717165 Y1.158547
G01 X-0.741449 Y1.182831
G04 P.05
G00 Z#6
(End section)
(Begin section -0.741449 1.282831)
G00 X-0.741449 Y1.282831
G01 F#12 Z[0-#2]
G04 P.05
G01 F#12 X-0.741449 Y1.317165
G01 X-0.717165 Y1.341449
G01 X-0.682831 Y1.341449
G01 X-0.658547 Y1.317165
G01 X-0.658547 Y1.282831
G01 X-0.682831 Y1.258547
G01 X-0.717165 Y1.258547
G01 X-0.741449 Y1.282831
G04 P.05
G00 Z#6
(End section)
(Begin section -0.741449 1.682831)
G00 X-0.741449 Y1.682831
G01 F#12 Z[0-#2]
G04 P.05
G01 F#12 X-0.741449 Y1.717165
G01 X-0.717165 Y1.741449
G01 X-0.682831 Y1.741449
G01 X-0.658547 Y1.717165
G01 X-0.658547 Y1.682831
G01 X-0.682831 Y1.658547
G01 X-0.717165 Y1.658547
G01 X-0.741449 Y1.682831
G04 P.05
G00 Z#6
(End section)
(Begin section -0.741449 1.782831)
G00 X-0.741449 Y1.782831
G01 F#12 Z[0-#2]
G04 P.05
G01 F#12 X-0.741449 Y1.817165
G01 X-0.717165 Y1.841449
G01 X-0.682831 Y1.841449
G01 X-0.658547 Y1.817165
G01 X-0.658547 Y1.782831
G01 X-0.682831 Y1.758547
G01 X-0.717165 Y1.758547
G01 X-0.741449 Y1.782831
G04 P.05
G00 Z#6
(End section)
(Begin section -0.741449 2.182831)
G00 X-0.741449 Y2.182831
G01 F#12 Z[0-#2]
G04 P.05
G01 F#12 X-0.741449 Y2.217165
G01 X-0.717165 Y2.241449
G01 X-0.682831 Y2.241449
G01 X-0.658547 Y2.217165
G01 X-0.658547 Y2.182831
G01 X-0.682831 Y2.158547
G01 X-0.717165 Y2.158547
G01 X-0.741449 Y2.182831
G04 P.05
G00 Z#6
(End section)
(Begin section -0.741449 2.282831)
G00 X-0.741449 Y2.282831
G01 F#12 Z[0-#2]
G04 P.05
G01 F#12 X-0.741449 Y2.317165
G01 X-0.717165 Y2.341449
G01 X-0.682831 Y2.341449
G01 X-0.658547 Y2.317165
G01 X-0.658547 Y2.282831
G01 X-0.682831 Y2.258547
G01 X-0.717165 Y2.258547
G01 X-0.741449 Y2.282831
G04 P.05
G00 Z#6
(End section)
(Begin section -0.741449 2.382831)
G00 X-0.741449 Y2.382831
G01 F#12 Z[0-#2]
G04 P.05
G01 F#12 X-0.741449 Y2.417165
G01 X-0.717165 Y2.441449
G01 X-0.682831 Y2.441449
G01 X-0.658547 Y2.417165
G01 X-0.658547 Y2.382831
G01 X-0.682831 Y2.358547
G01 X-0.717165 Y2.358547
G01 X-0.741449 Y2.382831
G04 P.05
G00 Z#6
(End section)
(Begin section 0.000000 0.000000)
G82 F#13 R#6 Z[0-#2] P0.03 X0.000000 Y0.000000
(End section)
(Begin section -0.400000 0.300000)
G82 F#13 R#6 Z[0-#2] P0.03 X-0.400000 Y0.300000
(End section)
(Begin section -0.400000 0.400000)
G82 F#13 R#6 Z[0-#2] P0.03 X-0.400000 Y0.400000
(End section)
(Begin section -0.400000 0.500000)
G82 F#13 R#6 Z[0-#2] P0.03 X-0.400000 Y0.500000
(End section)
(Begin section -0.400000 0.600000)
G82 F#13 R#6 Z[0-#2] P0.03 X-0.400000 Y0.600000
(End section)
(Begin section -0.400000 0.700000)
G82 F#13 R#6 Z[0-#2] P0.03 X-0.400000 Y0.700000
(End section)
(Begin section -0.400000 0.800000)
G82 F#13 R#6 Z[0-#2] P0.03 X-0.400000 Y0.800000
(End section)
(Begin section -0.400000 0.900000)
G82 F#13 R#6 Z[0-#2] P0.03 X-0.400000 Y0.900000
(End section)
(Begin section -0.400000 1.000000)
G82 F#13 R#6 Z[0-#2] P0.03 X-0.400000 Y1.000000
(End section)
(Begin section -0.700000 2.700000)
G82 F#13 R#6 Z[0-#2] P0.03 X-0.700000 Y2.700000
(End section)
(Begin section -0.800000 2.700000)
G82 F#13 R#6 Z[0-#2] P0.03 X-0.800000 Y2.700000
(End section)
(Begin section -0.700000 2.600000)
G82 F#13 R#6 Z[0-#2] P0.03 X-0.700000 Y2.600000
(End section)
(Begin section -0.800000 2.600000)
G82 F#13 R#6 Z[0-#2] P0.03 X-0.800000 Y2.600000
(End section)
(Begin section -0.700000 2.500000)
G82 F#13 R#6 Z[0-#2] P0.03 X-0.700000 Y2.500000
(End section)
(Begin section -0.800000 2.500000)
G82 F#13 R#6 Z[0-#2] P0.03 X-0.800000 Y2.500000
(End section)
(Begin section -0.700000 2.400000)
G82 F#13 R#6 Z[0-#2] P0.03 X-0.700000 Y2.400000
(End section)
(Begin section -0.800000 2.400000)
G82 F#13 R#6 Z[0-#2] P0.03 X-0.800000 Y2.400000
(End section)
(Begin section -0.700000 2.300000)
G82 F#13 R#6 Z[0-#2] P0.03 X-0.700000 Y2.300000
(End section)
(Begin section -0.800000 2.300000)
G82 F#13 R#6 Z[0-#2] P0.03 X-0.800000 Y2.300000
(End section)
(Begin section -0.700000 2.200000)
G82 F#13 R#6 Z[0-#2] P0.03 X-0.700000 Y2.200000
(End section)
(Begin section -0.800000 2.200000)
G82 F#13 R#6 Z[0-#2] P0.03 X-0.800000 Y2.200000
(End section)
(Begin section -0.700000 2.100000)
G82 F#13 R#6 Z[0-#2] P0.03 X-0.700000 Y2.100000
(End section)
(Begin section -0.800000 2.100000)
G82 F#13 R#6 Z[0-#2] P0.03 X-0.800000 Y2.100000
(End section)
(Begin section -0.700000 2.000000)
G82 F#13 R#6 Z[0-#2] P0.03 X-0.700000 Y2.000000
(End section)
(Begin section -0.800000 2.000000)
G82 F#13 R#6 Z[0-#2] P0.03 X-0.800000 Y2.000000
(End section)
(Begin section -0.700000 1.900000)
G82 F#13 R#6 Z[0-#2] P0.03 X-0.700000 Y1.900000
(End section)
(Begin section -0.800000 1.900000)
G82 F#13 R#6 Z[0-#2] P0.03 X-0.800000 Y1.900000
(End section)
(Begin section -0.700000 1.800000)
G82 F#13 R#6 Z[0-#2] P0.03 X-0.700000 Y1.800000
(End section)
(Begin section -0.800000 1.800000)
G82 F#13 R#6 Z[0-#2] P0.03 X-0.800000 Y1.800000
(End section)
(Begin section -0.700000 1.700000)
G82 F#13 R#6 Z[0-#2] P0.03 X-0.700000 Y1.700000
(End section)
(Begin section -0.800000 1.700000)
G82 F#13 R#6 Z[0-#2] P0.03 X-0.800000 Y1.700000
(End section)
(Begin section -0.700000 1.600000)
G82 F#13 R#6 Z[0-#2] P0.03 X-0.700000 Y1.600000
(End section)
(Begin section -0.800000 1.600000)
G82 F#13 R#6 Z[0-#2] P0.03 X-0.800000 Y1.600000
(End section)
(Begin section -0.700000 1.500000)
G82 F#13 R#6 Z[0-#2] P0.03 X-0.700000 Y1.500000
(End section)
(Begin section -0.800000 1.500000)
G82 F#13 R#6 Z[0-#2] P0.03 X-0.800000 Y1.500000
(End section)
(Begin section -0.700000 1.400000)
G82 F#13 R#6 Z[0-#2] P0.03 X-0.700000 Y1.400000
(End section)
(Begin section -0.800000 1.400000)
G82 F#13 R#6 Z[0-#2] P0.03 X-0.800000 Y1.400000
(End section)
(Begin section -0.700000 1.300000)
G82 F#13 R#6 Z[0-#2] P0.03 X-0.700000 Y1.300000
(End section)
(Begin section -0.800000 1.300000)
G82 F#13 R#6 Z[0-#2] P0.03 X-0.800000 Y1.300000
(End section)
(Begin section -0.700000 1.200000)
G82 F#13 R#6 Z[0-#2] P0.03 X-0.700000 Y1.200000
(End section)
(Begin section -0.800000 1.200000)
G82 F#13 R#6 Z[0-#2] P0.03 X-0.800000 Y1.200000
(End section)
(Begin section -0.700000 1.100000)
G82 F#13 R#6 Z[0-#2] P0.03 X-0.700000 Y1.100000
(End section)
(Begin section -0.800000 1.100000)
G82 F#13 R#6 Z[0-#2] P0.03 X-0.800000 Y1.100000
(End section)
(Begin section -0.700000 1.000000)
G82 F#13 R#6 Z[0-#2] P0.03 X-0.700000 Y1.000000
(End section)
(Begin section -0.800000 1.000000)
G82 F#13 R#6 Z[0-#2] P0.03 X-0.800000 Y1.000000
(End section)
(Begin section -0.700000 0.900000)
G82 F#13 R#6 Z[0-#2] P0.03 X-0.700000 Y0.900000
(End section)
(Begin section -0.800000 0.900000)
G82 F#13 R#6 Z[0-#2] P0.03 X-0.800000 Y0.900000
(End section)
(Begin section -0.700000 0.800000)
G82 F#13 R#6 Z[0-#2] P0.03 X-0.700000 Y0.800000
(End section)
(Begin section -0.800000 0.800000)
G82 F#13 R#6 Z[0-#2] P0.03 X-0.800000 Y0.800000
(End section)
(Begin section -0.700000 0.700000)
G82 F#13 R#6 Z[0-#2] P0.03 X-0.700000 Y0.700000
(End section)
(Begin section -0.800000 0.700000)
G82 F#13 R#6 Z[0-#2] P0.03 X-0.800000 Y0.700000
(End section)
(Begin section -0.700000 0.600000)
G82 F#13 R#6 Z[0-#2] P0.03 X-0.700000 Y0.600000
(End section)
(Begin section -0.800000 0.600000)
G82 F#13 R#6 Z[0-#2] P0.03 X-0.800000 Y0.600000
(End section)
(Begin section -0.700000 0.500000)
G82 F#13 R#6 Z[0-#2] P0.03 X-0.700000 Y0.500000
(End section)
(Begin section -0.800000 0.500000)
G82 F#13 R#6 Z[0-#2] P0.03 X-0.800000 Y0.500000
(End section)
(Begin section -0.700000 0.400000)
G82 F#13 R#6 Z[0-#2] P0.03 X-0.700000 Y0.400000
(End section)
(Begin section -0.800000 0.400000)
G82 F#13 R#6 Z[0-#2] P0.03 X-0.800000 Y0.400000
(End section)
(Begin section -0.700000 0.300000)
G82 F#13 R#6 Z[0-#2] P0.03 X-0.700000 Y0.300000
(End section)
(Begin section -0.800000 0.300000)
G82 F#13 R#6 Z[0-#2] P0.03 X-0.800000 Y0.300000
(End section)
(Begin section -0.740000 -0.050000)
G82 F#13 R#6 Z[0-#2] P0.03 X-0.740000 Y-0.050000
(End section)
(Begin section -0.740000 3.050000)
G82 F#13 R#6 Z[0-#2] P0.03 X-0.740000 Y3.050000
(End section)
(Begin section -0.800000 -0.300000)
G82 F#13 R#6 Z[0-#2] P0.03 X-0.800000 Y-0.300000
(End section)
(Begin section -0.150000 -0.300000)
G82 F#13 R#6 Z[0-#2] P0.03 X-0.150000 Y-0.300000
(End section)
(Begin section -0.150000 3.300000)
G82 F#13 R#6 Z[0-#2] P0.03 X-0.150000 Y3.300000
(End section)
(Begin section -0.800000 3.300000)
G82 F#13 R#6 Z[0-#2] P0.03 X-0.800000 Y3.300000
(End section)
(Begin section -0.475000 1.473000)
G82 F#13 R#6 Z[0-#2] P0.03 X-0.475000 Y1.473000
(End section)
(Begin section -0.475000 1.582000)
G82 F#13 R#6 Z[0-#2] P0.03 X-0.475000 Y1.582000
(End section)
(Begin section -0.475000 1.690000)
G82 F#13 R#6 Z[0-#2] P0.03 X-0.475000 Y1.690000
(End section)
(Begin section -0.475000 1.799000)
G82 F#13 R#6 Z[0-#2] P0.03 X-0.475000 Y1.799000
(End section)
(Begin section -0.475000 1.908000)
G82 F#13 R#6 Z[0-#2] P0.03 X-0.475000 Y1.908000
(End section)
(Begin section -0.475000 2.016000)
G82 F#13 R#6 Z[0-#2] P0.03 X-0.475000 Y2.016000
(End section)
(Begin section -0.475000 2.125000)
G82 F#13 R#6 Z[0-#2] P0.03 X-0.475000 Y2.125000
(End section)
(Begin section -0.475000 2.234000)
G82 F#13 R#6 Z[0-#2] P0.03 X-0.475000 Y2.234000
(End section)
(Begin section -0.475000 2.342000)
G82 F#13 R#6 Z[0-#2] P0.03 X-0.475000 Y2.342000
(End section)
(Begin section -0.475000 2.451000)
G82 F#13 R#6 Z[0-#2] P0.03 X-0.475000 Y2.451000
(End section)
(Begin section -0.475000 2.560000)
G82 F#13 R#6 Z[0-#2] P0.03 X-0.475000 Y2.560000
(End section)
(Begin section -0.475000 2.668000)
G82 F#13 R#6 Z[0-#2] P0.03 X-0.475000 Y2.668000
(End section)
(Begin section -0.475000 2.777000)
G82 F#13 R#6 Z[0-#2] P0.03 X-0.475000 Y2.777000
(End section)
(Begin section -0.375000 1.527000)
G82 F#13 R#6 Z[0-#2] P0.03 X-0.375000 Y1.527000
(End section)
(Begin section -0.375000 1.636000)
G82 F#13 R#6 Z[0-#2] P0.03 X-0.375000 Y1.636000
(End section)
(Begin section -0.375000 1.745000)
G82 F#13 R#6 Z[0-#2] P0.03 X-0.375000 Y1.745000
(End section)
(Begin section -0.375000 1.853000)
G82 F#13 R#6 Z[0-#2] P0.03 X-0.375000 Y1.853000
(End section)
(Begin section -0.375000 1.962000)
G82 F#13 R#6 Z[0-#2] P0.03 X-0.375000 Y1.962000
(End section)
(Begin section -0.375000 2.071000)
G82 F#13 R#6 Z[0-#2] P0.03 X-0.375000 Y2.071000
(End section)
(Begin section -0.375000 2.179000)
G82 F#13 R#6 Z[0-#2] P0.03 X-0.375000 Y2.179000
(End section)
(Begin section -0.375000 2.288000)
G82 F#13 R#6 Z[0-#2] P0.03 X-0.375000 Y2.288000
(End section)
(Begin section -0.375000 2.397000)
G82 F#13 R#6 Z[0-#2] P0.03 X-0.375000 Y2.397000
(End section)
(Begin section -0.375000 2.505000)
G82 F#13 R#6 Z[0-#2] P0.03 X-0.375000 Y2.505000
(End section)
(Begin section -0.375000 2.614000)
G82 F#13 R#6 Z[0-#2] P0.03 X-0.375000 Y2.614000
(End section)
(Begin section -0.375000 2.723000)
G82 F#13 R#6 Z[0-#2] P0.03 X-0.375000 Y2.723000
(End section)
(Begin section -0.425000 1.199000)
G82 F#13 R#6 Z[0-#2] P0.03 X-0.425000 Y1.199000
(End section)
(Begin section -0.425000 3.051000)
G82 F#13 R#6 Z[0-#2] P0.03 X-0.425000 Y3.051000
(End section)
(Begin section -0.200000 0.300000)
G82 F#13 R#6 Z[0-#2] P0.03 X-0.200000 Y0.300000
(End section)
(Begin section -0.200000 0.400000)
G82 F#13 R#6 Z[0-#2] P0.03 X-0.200000 Y0.400000
(End section)
(Begin section -0.200000 0.500000)
G82 F#13 R#6 Z[0-#2] P0.03 X-0.200000 Y0.500000
(End section)
(Begin section -0.200000 0.600000)
G82 F#13 R#6 Z[0-#2] P0.03 X-0.200000 Y0.600000
(End section)
(Begin section -0.200000 0.700000)
G82 F#13 R#6 Z[0-#2] P0.03 X-0.200000 Y0.700000
(End section)
(Begin section -0.200000 0.800000)
G82 F#13 R#6 Z[0-#2] P0.03 X-0.200000 Y0.800000
(End section)
(Begin section -0.200000 0.900000)
G82 F#13 R#6 Z[0-#2] P0.03 X-0.200000 Y0.900000
(End section)
(Begin section -0.200000 1.000000)
G82 F#13 R#6 Z[0-#2] P0.03 X-0.200000 Y1.000000
(End section)
(Begin section -0.200000 0.000000)
G82 F#13 R#6 Z[0-#2] P0.03 X-0.200000 Y0.000000
(End section)
(Begin section -0.200000 0.100000)
G82 F#13 R#6 Z[0-#2] P0.03 X-0.200000 Y0.100000
(End section)
(End block of reorderable sections)
M5
G00 Z#7
(msg,Insert COARSE-MILL)
#30=[#30+1] T#30 M6
(AXIS,hide)
(measure next tool)
g30 (above switch)
g49
g38.2 z0 f15 (measure)
g91 g0 z.2 (off the switch)
g43.1 k[#5063-#1000] (new offset)
g90 (done)
(AXIS,show)
S1000 M3
G04 P3
(Begin block of reorderable sections)
(Begin section -0.116106 0.067744)
G00 X-0.116106 Y0.067744
G01 F#11 Z[0-#1]
G04 P.05
G01 F#11 X-0.132122 Y0.051728
G01 X-0.136303 Y0.049996
G01 X-0.132122 Y0.048268
G01 X-0.117669 Y0.033815
G01 X-0.108815 Y0.033815
G01 X-0.108815 Y0.085350
G01 X-0.116106 Y0.067744
G04 P.05
G00 Z#6
(End section)
(Begin section -0.117622 0.366232)
G00 X-0.117622 Y0.366232
G01 F#11 Z[0-#1]
G04 P.05
G01 F#11 X-0.132122 Y0.351728
G01 X-0.136303 Y0.349996
G01 X-0.132122 Y0.348268
G01 X-0.116106 Y0.332252
G01 X-0.108815 Y0.314642
G01 X-0.108815 Y0.366232
G01 X-0.117622 Y0.366232
G04 P.05
G00 Z#6
(End section)
(Begin section -0.611728 2.571681)
G00 X-0.611728 Y2.571681
G01 F#11 Z[0-#1]
G04 P.05
G01 F#11 X-0.631638 Y2.571681
G01 X-0.618768 Y2.558815
G01 X-0.618272 Y2.558815
G01 X-0.608815 Y2.554894
G01 X-0.608815 Y2.568768
G01 X-0.611728 Y2.571681
G04 P.05
G00 Z#6
(End section)
(Begin section -0.591181 2.180004)
G00 X-0.591181 Y2.180004
G01 F#11 Z[0-#1]
G04 P.05
G01 F#11 X-0.528315 Y2.117134
