(Generated by maxnc.ulp)
G64
G17 G20 G40 G49
G54 G80 G90 G94
(Settings from /home/jepler/eagle/ulp/singlesided.gpar)
(roughing depth)    #1=0.0065
(outline depth)     #2=0.0055
(prehole depth)     #3=0.009
(hole depth)        #4=0.074
(dimension depth)   #5=0.060

(safety height)     #6=0.020
(toolchange height) #7=1.250

(roughing feed)     #11=150
(outline feed)      #12=200
(drill feed)        #13=80
(dimension feed)    #14=80
(mill-drill feed)   #15=40
(End Settings)
#30=1
S1000 M3
(Begin block of reorderable sections)
(Begin section -3.090512 0.396071)
G00 X-3.090512 Y0.396071
G01 F#12 Z[0-#2]
G01 F#12 X-3.090512 Y0.332484
G01 X-3.086543 Y0.332484
G01 X-3.067512 Y0.313453
G01 X-3.067512 Y0.286543
G01 X-3.086543 Y0.267512
G01 X-3.113453 Y0.267512
G01 X-3.132484 Y0.286543
G01 X-3.132484 Y0.313453
G01 X-3.113453 Y0.332484
G01 X-3.109484 Y0.332484
G01 X-3.109484 Y0.403925
G01 X-3.103925 Y0.409484
G01 X-3.089984 Y0.423425
G01 X-3.089984 Y0.431205
G01 X-3.081205 Y0.439984
G01 X-2.731205 Y0.439984
G01 X-2.659484 Y0.511705
G01 X-2.659484 Y0.539283
G01 X-2.639283 Y0.559484
G01 X-2.610713 Y0.559484
G01 X-2.590512 Y0.539283
G01 X-2.590512 Y0.510713
G01 X-2.610713 Y0.490512
G01 X-2.638291 Y0.490512
G01 X-2.710012 Y0.418791
G01 X-2.718791 Y0.410012
G01 X-3.076571 Y0.410012
G01 X-3.090512 Y0.396071
G00 Z#6
(End section)
(Begin section -3.086028 0.394213)
G00 X-3.086028 Y0.394213
G01 F#12 Z[0-#2]
G01 F#12 X-3.086028 Y0.336969
G01 X-3.084685 Y0.336969
G01 X-3.063969 Y0.316248
G01 X-3.063969 Y0.344213
G01 X-3.063969 Y0.355783
G01 X-3.044469 Y0.375283
G01 X-3.044469 Y0.383063
G01 X-3.033063 Y0.394469
G01 X-2.674063 Y0.394469
G01 X-2.554969 Y0.513559
G01 X-2.554969 Y0.541138
G01 X-2.532138 Y0.563969
G01 X-2.499858 Y0.563969
G01 X-2.477028 Y0.541138
G01 X-2.477028 Y0.508858
G01 X-2.499858 Y0.486028
G01 X-2.527437 Y0.486028
G01 X-2.646528 Y0.366933
G01 X-2.657933 Y0.355528
G01 X-3.024713 Y0.355528
G01 X-3.036028 Y0.344213
G01 X-3.036028 Y0.316248
G01 X-3.015311 Y0.336969
G01 X-2.984685 Y0.336969
G01 X-2.963028 Y0.315311
G01 X-2.963028 Y0.284685
G01 X-2.984685 Y0.263028
G01 X-3.015311 Y0.263028
G01 X-3.036028 Y0.283748
G01 X-3.036028 Y0.269213
G01 X-3.044213 Y0.261028
G01 X-3.069213 Y0.236028
G01 X-3.080783 Y0.236028
G01 X-3.083748 Y0.236028
G01 X-3.067134 Y0.219417
G01 X-3.032862 Y0.219417
G01 X-3.015311 Y0.236969
G01 X-2.984685 Y0.236969
G01 X-2.967134 Y0.219417
G01 X-2.932862 Y0.219417
G01 X-2.915311 Y0.236969
G01 X-2.884685 Y0.236969
G01 X-2.867134 Y0.219417
G01 X-2.832862 Y0.219417
G01 X-2.815311 Y0.236969
G01 X-2.784685 Y0.236969
G01 X-2.767134 Y0.219417
G01 X-2.732862 Y0.219417
G01 X-2.715311 Y0.236969
G01 X-2.684685 Y0.236969
G01 X-2.667134 Y0.219417
G01 X-2.632862 Y0.219417
G01 X-2.615311 Y0.236969
G01 X-2.584685 Y0.236969
G01 X-2.567134 Y0.219417
G01 X-2.532862 Y0.219417
G01 X-2.516248 Y0.236028
G01 X-2.544213 Y0.236028
G01 X-2.555783 Y0.236028
G01 X-2.583736 Y0.263980
G01 X-2.584685 Y0.263028
G01 X-2.615311 Y0.263028
G01 X-2.636969 Y0.284685
G01 X-2.636969 Y0.315311
G01 X-2.615311 Y0.336969
G01 X-2.584685 Y0.336969
G01 X-2.563028 Y0.315311
G01 X-2.563028 Y0.284685
G01 X-2.563980 Y0.283736
G01 X-2.544213 Y0.263969
G01 X-2.516248 Y0.263969
G01 X-2.536969 Y0.284685
G01 X-2.536969 Y0.315311
G01 X-2.515311 Y0.336969
G01 X-2.513969 Y0.336969
G01 X-2.513969 Y0.386433
G01 X-2.519469 Y0.391933
G01 X-2.519469 Y0.408063
G01 X-2.432819 Y0.494713
G01 X-2.446969 Y0.508858
G01 X-2.446969 Y0.541138
G01 X-2.424138 Y0.563969
G01 X-2.391858 Y0.563969
G01 X-2.369028 Y0.541138
G01 X-2.369028 Y0.508858
G01 X-2.388528 Y0.489362
G01 X-2.388528 Y0.483933
G01 X-2.486028 Y0.386433
G01 X-2.486028 Y0.336969
G01 X-2.484685 Y0.336969
G01 X-2.463969 Y0.316248
G01 X-2.463969 Y0.361433
G01 X-2.469469 Y0.366933
G01 X-2.469469 Y0.383063
G01 X-2.337969 Y0.514563
G01 X-2.337969 Y0.541138
G01 X-2.315138 Y0.563969
G01 X-2.282858 Y0.563969
G01 X-2.260028 Y0.541138
G01 X-2.260028 Y0.508858
G01 X-2.282858 Y0.486028
G01 X-2.311433 Y0.486028
G01 X-2.436028 Y0.361433
G01 X-2.436028 Y0.316248
G01 X-2.415311 Y0.336969
G01 X-2.384685 Y0.336969
G01 X-2.363028 Y0.315311
G01 X-2.363028 Y0.284685
G01 X-2.384685 Y0.263028
G01 X-2.415311 Y0.263028
G01 X-2.436028 Y0.283748
G01 X-2.436028 Y0.280783
G01 X-2.436028 Y0.269213
G01 X-2.461028 Y0.244213
G01 X-2.469213 Y0.236028
G01 X-2.483748 Y0.236028
G01 X-2.467134 Y0.219417
G01 X-2.432862 Y0.219417
G01 X-2.415311 Y0.236969
G01 X-2.384685 Y0.236969
G01 X-2.367134 Y0.219417
G01 X-2.332862 Y0.219417
G01 X-2.315311 Y0.236969
G01 X-2.284685 Y0.236969
G01 X-2.267134 Y0.219417
G01 X-2.232862 Y0.219417
G01 X-2.215311 Y0.236969
G01 X-2.184685 Y0.236969
G01 X-2.167134 Y0.219417
G01 X-2.132858 Y0.219417
G01 X-2.115311 Y0.236969
G01 X-2.084685 Y0.236969
G01 X-2.067138 Y0.219417
G01 X-2.032858 Y0.219417
G01 X-2.016248 Y0.236028
G01 X-2.019213 Y0.236028
G01 X-2.030783 Y0.236028
G01 X-2.055783 Y0.261028
G01 X-2.063969 Y0.269213
G01 X-2.063969 Y0.283748
G01 X-2.084685 Y0.263028
G01 X-2.115311 Y0.263028
G01 X-2.136969 Y0.284685
G01 X-2.136969 Y0.315311
G01 X-2.115311 Y0.336969
G01 X-2.084685 Y0.336969
G01 X-2.063969 Y0.316248
G01 X-2.063969 Y0.336433
G01 X-2.209469 Y0.481933
G01 X-2.209469 Y0.489362
G01 X-2.228969 Y0.508858
G01 X-2.228969 Y0.541138
G01 X-2.206138 Y0.563969
G01 X-2.173858 Y0.563969
G01 X-2.151028 Y0.541138
G01 X-2.151028 Y0.508858
G01 X-2.166177 Y0.493713
G01 X-2.030528 Y0.358063
G01 X-2.030528 Y0.341933
G01 X-2.036028 Y0.336433
G01 X-2.036028 Y0.316248
G01 X-2.019469 Y0.332807
G01 X-2.019469 Y0.366933
G01 X-2.101469 Y0.448933
G01 X-2.101469 Y0.465063
G01 X-2.101469 Y0.489362
G01 X-2.120969 Y0.508858
G01 X-2.120969 Y0.541138
G01 X-2.098138 Y0.563969
G01 X-2.065858 Y0.563969
G01 X-2.043028 Y0.541138
G01 X-2.043028 Y0.508858
G01 X-2.062528 Y0.489362
G01 X-2.062528 Y0.465063
G01 X-1.991933 Y0.394469
G01 X-1.980528 Y0.383063
G01 X-1.980528 Y0.332807
G01 X-1.963028 Y0.315311
G01 X-1.963028 Y0.284685
G01 X-1.983748 Y0.263969
G01 X-1.955783 Y0.263969
G01 X-1.936016 Y0.283736
G01 X-1.936969 Y0.284685
G01 X-1.936969 Y0.315311
G01 X-1.915311 Y0.336969
G01 X-1.884685 Y0.336969
G01 X-1.863028 Y0.315311
G01 X-1.863028 Y0.284685
G01 X-1.884685 Y0.263028
G01 X-1.915311 Y0.263028
G01 X-1.916260 Y0.263980
G01 X-1.936028 Y0.244213
G01 X-1.944213 Y0.236028
G01 X-1.983748 Y0.236028
G01 X-1.967138 Y0.219417
G01 X-1.932858 Y0.219417
G01 X-1.915311 Y0.236969
G01 X-1.884685 Y0.236969
G01 X-1.867138 Y0.219417
G01 X-1.832858 Y0.219417
G01 X-1.815311 Y0.236969
G01 X-1.784685 Y0.236969
G01 X-1.767138 Y0.219417
G01 X-1.732862 Y0.219417
G01 X-1.715311 Y0.236969
G01 X-1.684685 Y0.236969
G01 X-1.667134 Y0.219417
G01 X-1.632862 Y0.219417
G01 X-1.615311 Y0.236969
G01 X-1.584685 Y0.236969
G01 X-1.567134 Y0.219417
G01 X-1.532862 Y0.219417
G01 X-1.515311 Y0.236969
G01 X-1.484685 Y0.236969
G01 X-1.467134 Y0.219417
G01 X-1.432862 Y0.219417
G01 X-1.415311 Y0.236969
G01 X-1.384685 Y0.236969
G01 X-1.367134 Y0.219417
G01 X-1.332862 Y0.219417
G01 X-1.315311 Y0.236969
G01 X-1.284685 Y0.236969
G01 X-1.267134 Y0.219417
G01 X-1.232862 Y0.219417
G01 X-1.215311 Y0.236969
G01 X-1.184685 Y0.236969
G01 X-1.167134 Y0.219417
G01 X-1.132862 Y0.219417
G01 X-1.115311 Y0.236969
G01 X-1.084685 Y0.236969
G01 X-1.067134 Y0.219417
G01 X-1.032862 Y0.219417
G01 X-1.015311 Y0.236969
G01 X-0.984685 Y0.236969
G01 X-0.967134 Y0.219417
G01 X-0.932862 Y0.219417
G01 X-0.915311 Y0.236969
G01 X-0.884685 Y0.236969
G01 X-0.867134 Y0.219417
G01 X-0.832862 Y0.219417
G01 X-0.815311 Y0.236969
G01 X-0.790559 Y0.236969
G01 X-0.519469 Y0.508063
G01 X-0.519469 Y0.658063
G01 X-0.508063 Y0.669469
G01 X-0.491933 Y0.669469
G01 X-0.480528 Y0.658063
G01 X-0.480528 Y0.491933
G01 X-0.491933 Y0.480528
G01 X-0.763028 Y0.209437
G01 X-0.763028 Y0.184685
G01 X-0.784685 Y0.163028
G01 X-0.815311 Y0.163028
G01 X-0.832862 Y0.180579
G01 X-0.867134 Y0.180579
G01 X-0.884685 Y0.163028
G01 X-0.915311 Y0.163028
G01 X-0.932862 Y0.180579
G01 X-0.967134 Y0.180579
G01 X-0.984685 Y0.163028
G01 X-1.015311 Y0.163028
G01 X-1.032862 Y0.180579
G01 X-1.067134 Y0.180579
G01 X-1.084685 Y0.163028
G01 X-1.115311 Y0.163028
G01 X-1.132862 Y0.180579
G01 X-1.167134 Y0.180579
G01 X-1.184685 Y0.163028
G01 X-1.215311 Y0.163028
G01 X-1.232862 Y0.180579
G01 X-1.267134 Y0.180579
G01 X-1.284685 Y0.163028
G01 X-1.315311 Y0.163028
G01 X-1.332862 Y0.180579
G01 X-1.367134 Y0.180579
G01 X-1.384685 Y0.163028
G01 X-1.415311 Y0.163028
G01 X-1.432862 Y0.180579
G01 X-1.467134 Y0.180579
G01 X-1.484685 Y0.163028
G01 X-1.515311 Y0.163028
G01 X-1.532862 Y0.180579
G01 X-1.567134 Y0.180579
G01 X-1.584685 Y0.163028
G01 X-1.615311 Y0.163028
G01 X-1.632862 Y0.180579
G01 X-1.667134 Y0.180579
G01 X-1.684685 Y0.163028
G01 X-1.715311 Y0.163028
G01 X-1.732862 Y0.180579
G01 X-1.767138 Y0.180579
G01 X-1.784685 Y0.163028
G01 X-1.815311 Y0.163028
G01 X-1.832858 Y0.180579
G01 X-1.867138 Y0.180579
G01 X-1.884685 Y0.163028
G01 X-1.915311 Y0.163028
G01 X-1.932858 Y0.180579
G01 X-1.967138 Y0.180579
G01 X-1.984685 Y0.163028
G01 X-2.015311 Y0.163028
G01 X-2.032858 Y0.180579
G01 X-2.067138 Y0.180579
G01 X-2.084685 Y0.163028
G01 X-2.115311 Y0.163028
G01 X-2.132858 Y0.180579
G01 X-2.167134 Y0.180579
G01 X-2.184685 Y0.163028
G01 X-2.215311 Y0.163028
G01 X-2.232862 Y0.180579
G01 X-2.267134 Y0.180579
G01 X-2.284685 Y0.163028
G01 X-2.315311 Y0.163028
G01 X-2.332862 Y0.180579
G01 X-2.367134 Y0.180579
G01 X-2.384685 Y0.163028
G01 X-2.415311 Y0.163028
G01 X-2.432862 Y0.180579
G01 X-2.467134 Y0.180579
G01 X-2.484685 Y0.163028
G01 X-2.515311 Y0.163028
G01 X-2.532862 Y0.180579
G01 X-2.567134 Y0.180579
G01 X-2.584685 Y0.163028
G01 X-2.615311 Y0.163028
G01 X-2.632862 Y0.180579
G01 X-2.667134 Y0.180579
G01 X-2.684685 Y0.163028
G01 X-2.715311 Y0.163028
G01 X-2.732862 Y0.180579
G01 X-2.767134 Y0.180579
G01 X-2.784685 Y0.163028
G01 X-2.815311 Y0.163028
G01 X-2.832862 Y0.180579
G01 X-2.867134 Y0.180579
G01 X-2.884685 Y0.163028
G01 X-2.915311 Y0.163028
G01 X-2.932862 Y0.180579
G01 X-2.967134 Y0.180579
G01 X-2.984685 Y0.163028
G01 X-3.015311 Y0.163028
G01 X-3.032862 Y0.180579
G01 X-3.067134 Y0.180579
G01 X-3.084685 Y0.163028
G01 X-3.115311 Y0.163028
G01 X-3.132858 Y0.180579
G01 X-3.167138 Y0.180579
G01 X-3.184685 Y0.163028
G01 X-3.215311 Y0.163028
G01 X-3.232858 Y0.180579
G01 X-3.291957 Y0.180579
G01 X-3.308039 Y0.180579
G01 X-3.408039 Y0.280579
G01 X-3.419417 Y0.291957
G01 X-3.419417 Y0.541957
G01 X-3.419417 Y0.558039
G01 X-3.344417 Y0.633039
G01 X-3.333039 Y0.644417
G01 X-3.258689 Y0.644417
G01 X-3.239138 Y0.663969
G01 X-3.206858 Y0.663969
G01 X-3.187307 Y0.644417
G01 X-3.149689 Y0.644417
G01 X-3.130138 Y0.663969
G01 X-3.097858 Y0.663969
G01 X-3.078307 Y0.644417
G01 X-3.040689 Y0.644417
G01 X-3.021138 Y0.663969
G01 X-2.988858 Y0.663969
G01 X-2.969307 Y0.644417
G01 X-2.932689 Y0.644417
G01 X-2.913138 Y0.663969
G01 X-2.880858 Y0.663969
G01 X-2.861307 Y0.644417
G01 X-2.823689 Y0.644417
G01 X-2.804138 Y0.663969
G01 X-2.771858 Y0.663969
G01 X-2.752307 Y0.644417
G01 X-2.714689 Y0.644417
G01 X-2.695138 Y0.663969
G01 X-2.662858 Y0.663969
G01 X-2.643307 Y0.644417
G01 X-2.606689 Y0.644417
G01 X-2.587138 Y0.663969
G01 X-2.554858 Y0.663969
G01 X-2.535307 Y0.644417
G01 X-2.497689 Y0.644417
G01 X-2.481417 Y0.660689
G01 X-2.481417 Y0.671039
G01 X-2.208039 Y0.944417
G01 X-2.191957 Y0.944417
G01 X-1.491957 Y0.944417
G01 X-1.308039 Y0.944417
G01 X-1.291957 Y0.944417
G01 X-1.091957 Y0.944417
G01 X-0.908114 Y0.944417
G01 X-0.908063 Y0.944469
G01 X-0.491933 Y0.944469
G01 X-0.480528 Y0.933063
G01 X-0.480528 Y0.916933
G01 X-0.480528 Y0.876378
G01 X-0.457406 Y0.853260
G01 X-0.457406 Y0.746736
G01 X-0.482358 Y0.721783
G01 X-0.517638 Y0.721783
G01 X-0.542591 Y0.746736
G01 X-0.542591 Y0.853260
G01 X-0.519469 Y0.876378
G01 X-0.519469 Y0.905528
G01 X-0.880579 Y0.905528
G01 X-0.880579 Y0.876433
G01 X-0.857406 Y0.853260
G01 X-0.857406 Y0.746736
G01 X-0.880579 Y0.723563
G01 X-0.880579 Y0.630031
G01 X-0.865028 Y0.614484
G01 X-0.865028 Y0.585512
G01 X-0.885512 Y0.565028
G01 X-0.914484 Y0.565028
G01 X-0.934969 Y0.585512
G01 X-0.934969 Y0.614484
G01 X-0.919417 Y0.630031
G01 X-0.919417 Y0.723563
G01 X-0.942591 Y0.746736
G01 X-0.942591 Y0.853260
G01 X-0.919417 Y0.876433
G01 X-0.919417 Y0.905579
G01 X-1.080579 Y0.905579
G01 X-1.080579 Y0.876433
G01 X-1.057406 Y0.853260
G01 X-1.057406 Y0.746736
G01 X-1.080579 Y0.723563
G01 X-1.080579 Y0.630031
G01 X-1.065028 Y0.614484
G01 X-1.065028 Y0.585512
G01 X-1.085512 Y0.565028
G01 X-1.114484 Y0.565028
G01 X-1.134969 Y0.585512
G01 X-1.134969 Y0.614484
G01 X-1.119417 Y0.630031
G01 X-1.119417 Y0.723563
G01 X-1.142591 Y0.746736
G01 X-1.142591 Y0.853260
G01 X-1.119417 Y0.876433
G01 X-1.119417 Y0.905579
G01 X-1.280579 Y0.905579
G01 X-1.280579 Y0.876433
G01 X-1.257406 Y0.853260
G01 X-1.257406 Y0.746736
G01 X-1.280579 Y0.723563
G01 X-1.280579 Y0.630035
G01 X-1.265028 Y0.614484
G01 X-1.265028 Y0.585512
G01 X-1.285512 Y0.565028
G01 X-1.314484 Y0.565028
G01 X-1.334969 Y0.585512
G01 X-1.334969 Y0.614484
G01 X-1.319417 Y0.630035
G01 X-1.319417 Y0.723563
G01 X-1.342591 Y0.746736
G01 X-1.342591 Y0.853260
G01 X-1.319417 Y0.876433
G01 X-1.319417 Y0.905579
G01 X-1.480579 Y0.905579
G01 X-1.480579 Y0.876433
G01 X-1.457406 Y0.853260
G01 X-1.457406 Y0.746736
G01 X-1.480579 Y0.723563
G01 X-1.480579 Y0.630035
G01 X-1.465028 Y0.614484
G01 X-1.465028 Y0.585512
G01 X-1.485512 Y0.565028
G01 X-1.514484 Y0.565028
G01 X-1.534969 Y0.585512
G01 X-1.534969 Y0.614484
G01 X-1.519417 Y0.630035
G01 X-1.519417 Y0.723563
G01 X-1.542591 Y0.746736
G01 X-1.542591 Y0.853260
G01 X-1.519417 Y0.876433
G01 X-1.519417 Y0.905579
G01 X-2.191957 Y0.905579
G01 X-2.439717 Y0.657823
G01 X-2.423028 Y0.641138
G01 X-2.423028 Y0.608858
G01 X-2.445858 Y0.586028
G01 X-2.478138 Y0.586028
G01 X-2.497689 Y0.605579
G01 X-2.535307 Y0.605579
G01 X-2.554858 Y0.586028
G01 X-2.587138 Y0.586028
G01 X-2.606689 Y0.605579
G01 X-2.643307 Y0.605579
G01 X-2.662858 Y0.586028
G01 X-2.695138 Y0.586028
G01 X-2.714689 Y0.605579
G01 X-2.752307 Y0.605579
G01 X-2.771858 Y0.586028
G01 X-2.804138 Y0.586028
G01 X-2.823689 Y0.605579
G01 X-2.861307 Y0.605579
G01 X-2.880858 Y0.586028
G01 X-2.913138 Y0.586028
G01 X-2.932689 Y0.605579
G01 X-2.969307 Y0.605579
G01 X-2.988858 Y0.586028
G01 X-3.021138 Y0.586028
G01 X-3.040689 Y0.605579
G01 X-3.078307 Y0.605579
G01 X-3.097858 Y0.586028
G01 X-3.130138 Y0.586028
G01 X-3.149689 Y0.605579
G01 X-3.187307 Y0.605579
G01 X-3.206858 Y0.586028
G01 X-3.239138 Y0.586028
G01 X-3.258689 Y0.605579
G01 X-3.316957 Y0.605579
G01 X-3.380579 Y0.541957
G01 X-3.380579 Y0.308039
G01 X-3.291957 Y0.219417
G01 X-3.232858 Y0.219417
G01 X-3.215311 Y0.236969
G01 X-3.184685 Y0.236969
G01 X-3.167138 Y0.219417
G01 X-3.132858 Y0.219417
G01 X-3.116248 Y0.236028
G01 X-3.155783 Y0.236028
G01 X-3.163969 Y0.244213
G01 X-3.163969 Y0.244217
G01 X-3.185669 Y0.265917
G01 X-3.192642 Y0.263028
G01 X-3.207354 Y0.263028
G01 X-3.220941 Y0.268657
G01 X-3.231339 Y0.279055
G01 X-3.236969 Y0.292642
G01 X-3.236969 Y0.307354
G01 X-3.231339 Y0.320941
G01 X-3.220941 Y0.331339
G01 X-3.207354 Y0.336969
G01 X-3.192642 Y0.336969
G01 X-3.179055 Y0.331339
G01 X-3.168657 Y0.320941
G01 X-3.163028 Y0.307354
G01 X-3.163028 Y0.292642
G01 X-3.165917 Y0.285669
G01 X-3.144217 Y0.263969
G01 X-3.116248 Y0.263969
G01 X-3.136969 Y0.284685
G01 X-3.136969 Y0.315311
G01 X-3.115311 Y0.336969
G01 X-3.113969 Y0.336969
G01 X-3.113969 Y0.405783
G01 X-3.105783 Y0.413969
G01 X-3.094469 Y0.425283
G01 X-3.094469 Y0.433063
G01 X-3.083063 Y0.444469
G01 X-2.733063 Y0.444469
G01 X-2.663969 Y0.513559
G01 X-2.663969 Y0.541138
G01 X-2.641138 Y0.563969
G01 X-2.608858 Y0.563969
G01 X-2.586028 Y0.541138
G01 X-2.586028 Y0.508858
G01 X-2.608858 Y0.486028
G01 X-2.636437 Y0.486028
G01 X-2.705528 Y0.416933
G01 X-2.716933 Y0.405528
G01 X-3.074713 Y0.405528
G01 X-3.086028 Y0.394213
G00 Z#6
(End section)
(Begin section -3.100000 0.300000)
G82 F#13 R#6 Z[0-#2] P0.03 X-3.100000 Y0.300000
(End section)
(Begin section -3.032484 0.286543)
G00 X-3.032484 Y0.286543
G01 F#12 Z[0-#2]
G01 F#12 X-3.032484 Y0.313453
G01 X-3.013453 Y0.332484
G01 X-2.986543 Y0.332484
G01 X-2.967512 Y0.313453
G01 X-2.967512 Y0.286543
G01 X-2.986543 Y0.267512
G01 X-3.013453 Y0.267512
G01 X-3.032484 Y0.286543
G00 Z#6
(End section)
(Begin section -3.000000 0.300000)
G82 F#13 R#6 Z[0-#2] P0.03 X-3.000000 Y0.300000
(End section)
(Begin section -2.936969 0.284685)
G00 X-2.936969 Y0.284685
G01 F#12 Z[0-#2]
G01 F#12 X-2.936969 Y0.315311
G01 X-2.915311 Y0.336969
G01 X-2.884685 Y0.336969
G01 X-2.863028 Y0.315311
G01 X-2.863028 Y0.284685
G01 X-2.884685 Y0.263028
G01 X-2.915311 Y0.263028
G01 X-2.936969 Y0.284685
G00 Z#6
(End section)
(Begin section -2.932484 0.286543)
G00 X-2.932484 Y0.286543
G01 F#12 Z[0-#2]
G01 F#12 X-2.932484 Y0.313453
G01 X-2.913453 Y0.332484
G01 X-2.886543 Y0.332484
G01 X-2.867512 Y0.313453
G01 X-2.867512 Y0.286543
G01 X-2.886543 Y0.267512
G01 X-2.913453 Y0.267512
G01 X-2.932484 Y0.286543
G00 Z#6
(End section)
(Begin section -2.900000 0.300000)
G82 F#13 R#6 Z[0-#2] P0.03 X-2.900000 Y0.300000
(End section)
(Begin section -2.836969 0.284685)
G00 X-2.836969 Y0.284685
G01 F#12 Z[0-#2]
G01 F#12 X-2.836969 Y0.315311
G01 X-2.815311 Y0.336969
G01 X-2.784685 Y0.336969
G01 X-2.763028 Y0.315311
G01 X-2.763028 Y0.284685
G01 X-2.784685 Y0.263028
G01 X-2.815311 Y0.263028
G01 X-2.836969 Y0.284685
G00 Z#6
(End section)
(Begin section -2.832484 0.286543)
G00 X-2.832484 Y0.286543
G01 F#12 Z[0-#2]
G01 F#12 X-2.832484 Y0.313453
G01 X-2.813453 Y0.332484
G01 X-2.786543 Y0.332484
G01 X-2.767512 Y0.313453
G01 X-2.767512 Y0.286543
G01 X-2.786543 Y0.267512
G01 X-2.813453 Y0.267512
G01 X-2.832484 Y0.286543
G00 Z#6
(End section)
(Begin section -2.800000 0.300000)
G82 F#13 R#6 Z[0-#2] P0.03 X-2.800000 Y0.300000
(End section)
(Begin section -2.736969 0.284685)
G00 X-2.736969 Y0.284685
G01 F#12 Z[0-#2]
G01 F#12 X-2.736969 Y0.315311
G01 X-2.715311 Y0.336969
G01 X-2.684685 Y0.336969
G01 X-2.663028 Y0.315311
G01 X-2.663028 Y0.284685
G01 X-2.684685 Y0.263028
G01 X-2.715311 Y0.263028
G01 X-2.736969 Y0.284685
G00 Z#6
(End section)
(Begin section -2.732484 0.286543)
G00 X-2.732484 Y0.286543
G01 F#12 Z[0-#2]
G01 F#12 X-2.732484 Y0.313453
G01 X-2.713453 Y0.332484
G01 X-2.686543 Y0.332484
G01 X-2.667512 Y0.313453
G01 X-2.667512 Y0.286543
G01 X-2.686543 Y0.267512
G01 X-2.713453 Y0.267512
G01 X-2.732484 Y0.286543
G00 Z#6
(End section)
(Begin section -2.700000 0.300000)
G82 F#13 R#6 Z[0-#2] P0.03 X-2.700000 Y0.300000
(End section)
(Begin section -2.600000 0.300000)
G82 F#13 R#6 Z[0-#2] P0.03 X-2.600000 Y0.300000
(End section)
(Begin section -2.532484 0.286543)
G00 X-2.532484 Y0.286543
G01 F#12 Z[0-#2]
G01 F#12 X-2.532484 Y0.313453
G01 X-2.513453 Y0.332484
G01 X-2.509484 Y0.332484
G01 X-2.509484 Y0.388291
G01 X-2.514984 Y0.393791
G01 X-2.514984 Y0.406205
G01 X-2.426476 Y0.494709
G01 X-2.442484 Y0.510713
G01 X-2.442484 Y0.539283
G01 X-2.422283 Y0.559484
G01 X-2.393713 Y0.559484
G01 X-2.373512 Y0.539283
G01 X-2.373512 Y0.510713
G01 X-2.393012 Y0.491213
G01 X-2.393012 Y0.485791
G01 X-2.490512 Y0.388291
G01 X-2.490512 Y0.332484
G01 X-2.486543 Y0.332484
G01 X-2.467512 Y0.313453
G01 X-2.467512 Y0.286543
G01 X-2.486543 Y0.267512
G01 X-2.513453 Y0.267512
G01 X-2.532484 Y0.286543
G00 Z#6
(End section)
(Begin section -2.500000 0.300000)
G82 F#13 R#6 Z[0-#2] P0.03 X-2.500000 Y0.300000
(End section)
(Begin section -2.463969 0.280783)
G00 X-2.463969 Y0.280783
G01 F#12 Z[0-#2]
G01 F#12 X-2.463969 Y0.283748
G01 X-2.483748 Y0.263969
G01 X-2.480783 Y0.263969
G01 X-2.463969 Y0.280783
G00 Z#6
(End section)
(Begin section -2.432484 0.286543)
G00 X-2.432484 Y0.286543
G01 F#12 Z[0-#2]
G01 F#12 X-2.432484 Y0.313453
G01 X-2.413453 Y0.332484
G01 X-2.386543 Y0.332484
G01 X-2.367512 Y0.313453
G01 X-2.367512 Y0.286543
G01 X-2.386543 Y0.267512
G01 X-2.413453 Y0.267512
G01 X-2.432484 Y0.286543
G00 Z#6
(End section)
(Begin section -2.400000 0.300000)
G82 F#13 R#6 Z[0-#2] P0.03 X-2.400000 Y0.300000
(End section)
(Begin section -2.336969 0.284685)
G00 X-2.336969 Y0.284685
G01 F#12 Z[0-#2]
G01 F#12 X-2.336969 Y0.315311
G01 X-2.315311 Y0.336969
G01 X-2.284685 Y0.336969
G01 X-2.263028 Y0.315311
G01 X-2.263028 Y0.284685
G01 X-2.284685 Y0.263028
G01 X-2.315311 Y0.263028
G01 X-2.336969 Y0.284685
G00 Z#6
(End section)
(Begin section -2.332484 0.286543)
G00 X-2.332484 Y0.286543
G01 F#12 Z[0-#2]
G01 F#12 X-2.332484 Y0.313453
G01 X-2.313453 Y0.332484
G01 X-2.286543 Y0.332484
G01 X-2.267512 Y0.313453
G01 X-2.267512 Y0.286543
G01 X-2.286543 Y0.267512
G01 X-2.313453 Y0.267512
G01 X-2.332484 Y0.286543
G00 Z#6
(End section)
(Begin section -2.300000 0.300000)
G82 F#13 R#6 Z[0-#2] P0.03 X-2.300000 Y0.300000
(End section)
(Begin section -2.236969 0.284685)
G00 X-2.236969 Y0.284685
G01 F#12 Z[0-#2]
G01 F#12 X-2.236969 Y0.315311
G01 X-2.215311 Y0.336969
G01 X-2.184685 Y0.336969
G01 X-2.163028 Y0.315311
G01 X-2.163028 Y0.284685
G01 X-2.184685 Y0.263028
G01 X-2.215311 Y0.263028
G01 X-2.236969 Y0.284685
G00 Z#6
(End section)
(Begin section -2.232484 0.286543)
G00 X-2.232484 Y0.286543
G01 F#12 Z[0-#2]
G01 F#12 X-2.232484 Y0.313453
G01 X-2.213453 Y0.332484
G01 X-2.186543 Y0.332484
G01 X-2.167512 Y0.313453
G01 X-2.167512 Y0.286543
G01 X-2.186543 Y0.267512
G01 X-2.213453 Y0.267512
G01 X-2.232484 Y0.286543
G00 Z#6
(End section)
(Begin section -2.200000 0.300000)
G82 F#13 R#6 Z[0-#2] P0.03 X-2.200000 Y0.300000
(End section)
(Begin section -2.132484 0.286543)
G00 X-2.132484 Y0.286543
G01 F#12 Z[0-#2]
G01 F#12 X-2.132484 Y0.313453
G01 X-2.113453 Y0.332484
G01 X-2.086543 Y0.332484
G01 X-2.067512 Y0.313453
G01 X-2.067512 Y0.286543
G01 X-2.086543 Y0.267512
G01 X-2.113453 Y0.267512
G01 X-2.132484 Y0.286543
G00 Z#6
(End section)
(Begin section -2.100000 0.300000)
G82 F#13 R#6 Z[0-#2] P0.03 X-2.100000 Y0.300000
(End section)
(Begin section -2.032484 0.286543)
G00 X-2.032484 Y0.286543
G01 F#12 Z[0-#2]
G01 F#12 X-2.032484 Y0.313453
G01 X-2.014984 Y0.330953
G01 X-2.014984 Y0.368791
G01 X-2.096984 Y0.450791
G01 X-2.096984 Y0.463205
G01 X-2.096984 Y0.491213
G01 X-2.116484 Y0.510713
G01 X-2.116484 Y0.539283
G01 X-2.096283 Y0.559484
G01 X-2.067713 Y0.559484
G01 X-2.047512 Y0.539283
G01 X-2.047512 Y0.510713
G01 X-2.067012 Y0.491213
G01 X-2.067012 Y0.463205
G01 X-1.993791 Y0.389984
G01 X-1.985012 Y0.381205
G01 X-1.985012 Y0.330953
G01 X-1.967512 Y0.313453
G01 X-1.967512 Y0.286543
G01 X-1.986543 Y0.267512
G01 X-2.013453 Y0.267512
G01 X-2.032484 Y0.286543
G00 Z#6
(End section)
(Begin section -2.019213 0.263969)
G00 X-2.019213 Y0.263969
G01 F#12 Z[0-#2]
G01 F#12 X-2.016248 Y0.263969
G01 X-2.036028 Y0.283748
G01 X-2.036028 Y0.280783
G01 X-2.019213 Y0.263969
G00 Z#6
(End section)
(Begin section -2.000000 0.300000)
G82 F#13 R#6 Z[0-#2] P0.03 X-2.000000 Y0.300000
(End section)
(Begin section -1.932484 0.286543)
G00 X-1.932484 Y0.286543
G01 F#12 Z[0-#2]
G01 F#12 X-1.932484 Y0.313453
G01 X-1.913453 Y0.332484
G01 X-1.886543 Y0.332484
G01 X-1.867512 Y0.313453
G01 X-1.867512 Y0.286543
G01 X-1.886543 Y0.267512
G01 X-1.913453 Y0.267512
G01 X-1.916264 Y0.270323
G01 X-1.940512 Y0.246071
G01 X-1.946071 Y0.240512
G01 X-2.021071 Y0.240512
G01 X-2.028925 Y0.240512
G01 X-2.053925 Y0.265512
G01 X-2.059484 Y0.271071
G01 X-2.059484 Y0.338291
G01 X-2.204984 Y0.483791
G01 X-2.204984 Y0.491213
G01 X-2.224484 Y0.510713
G01 X-2.224484 Y0.539283
G01 X-2.204283 Y0.559484
G01 X-2.175713 Y0.559484
G01 X-2.155512 Y0.539283
G01 X-2.155512 Y0.510713
G01 X-2.172520 Y0.493709
G01 X-2.035012 Y0.356205
G01 X-2.035012 Y0.343791
G01 X-2.040512 Y0.338291
G01 X-2.040512 Y0.278925
G01 X-2.021071 Y0.259484
G01 X-1.953925 Y0.259484
G01 X-1.929673 Y0.283732
G01 X-1.932484 Y0.286543
G00 Z#6
(End section)
(Begin section -1.900000 0.300000)
G82 F#13 R#6 Z[0-#2] P0.03 X-1.900000 Y0.300000
(End section)
(Begin section -1.836969 0.284685)
G00 X-1.836969 Y0.284685
G01 F#12 Z[0-#2]
G01 F#12 X-1.836969 Y0.315311
G01 X-1.815311 Y0.336969
G01 X-1.784685 Y0.336969
G01 X-1.763028 Y0.315311
G01 X-1.763028 Y0.284685
G01 X-1.784685 Y0.263028
G01 X-1.815311 Y0.263028
G01 X-1.836969 Y0.284685
G00 Z#6
(End section)
(Begin section -1.832484 0.286543)
G00 X-1.832484 Y0.286543
G01 F#12 Z[0-#2]
G01 F#12 X-1.832484 Y0.313453
G01 X-1.813453 Y0.332484
G01 X-1.786543 Y0.332484
G01 X-1.767512 Y0.313453
G01 X-1.767512 Y0.286543
G01 X-1.786543 Y0.267512
G01 X-1.813453 Y0.267512
G01 X-1.832484 Y0.286543
G00 Z#6
(End section)
(Begin section -1.800000 0.300000)
G82 F#13 R#6 Z[0-#2] P0.03 X-1.800000 Y0.300000
(End section)
(Begin section -1.736969 0.284685)
G00 X-1.736969 Y0.284685
G01 F#12 Z[0-#2]
G01 F#12 X-1.736969 Y0.315311
G01 X-1.715311 Y0.336969
G01 X-1.684685 Y0.336969
G01 X-1.663028 Y0.315311
G01 X-1.663028 Y0.284685
G01 X-1.684685 Y0.263028
G01 X-1.715311 Y0.263028
G01 X-1.736969 Y0.284685
G00 Z#6
(End section)
(Begin section -1.732484 0.286543)
G00 X-1.732484 Y0.286543
G01 F#12 Z[0-#2]
G01 F#12 X-1.732484 Y0.313453
G01 X-1.713453 Y0.332484
G01 X-1.686543 Y0.332484
G01 X-1.667512 Y0.313453
G01 X-1.667512 Y0.286543
G01 X-1.686543 Y0.267512
G01 X-1.713453 Y0.267512
G01 X-1.732484 Y0.286543
G00 Z#6
(End section)
(Begin section -1.700000 0.300000)
G82 F#13 R#6 Z[0-#2] P0.03 X-1.700000 Y0.300000
(End section)
(Begin section -1.699000 0.575000)
G82 F#13 R#6 Z[0-#2] P0.03 X-1.699000 Y0.575000
(End section)
(Begin section -1.596512 0.595386)
G00 X-1.596512 Y0.595386
G01 F#12 Z[0-#2]
G01 F#12 X-1.596512 Y0.554610
G01 X-1.612114 Y0.516945
G01 X-1.640945 Y0.488114
G01 X-1.678610 Y0.472512
G01 X-1.719386 Y0.472512
G01 X-1.757051 Y0.488114
G01 X-1.785882 Y0.516945
G01 X-1.801484 Y0.554610
G01 X-1.801484 Y0.595386
G01 X-1.785882 Y0.633051
G01 X-1.757051 Y0.661882
G01 X-1.719386 Y0.677484
G01 X-1.678610 Y0.677484
G01 X-1.640945 Y0.661882
G01 X-1.612114 Y0.633051
G01 X-1.596512 Y0.595386
G00 Z#6
(End section)
(Begin section -1.592028 0.596276)
G00 X-1.592028 Y0.596276
G01 F#12 Z[0-#2]
G01 F#12 X-1.592028 Y0.553720
G01 X-1.608311 Y0.514402
G01 X-1.638402 Y0.484311
G01 X-1.677720 Y0.468028
G01 X-1.720276 Y0.468028
G01 X-1.759594 Y0.484311
G01 X-1.789685 Y0.514402
G01 X-1.805969 Y0.553720
G01 X-1.805969 Y0.596276
G01 X-1.789685 Y0.635594
G01 X-1.759594 Y0.665685
G01 X-1.720276 Y0.681969
G01 X-1.677720 Y0.681969
G01 X-1.638402 Y0.665685
G01 X-1.608311 Y0.635594
G01 X-1.592028 Y0.596276
G00 Z#6
(End section)
(Begin section -1.500000 0.600000)
G82 F#13 R#6 Z[0-#2] P0.03 X-1.500000 Y0.600000
(End section)
(Begin section -1.500000 0.800000)
G82 F#13 R#6 Z[0-#2] P0.03 X-1.500000 Y0.800000
(End section)
(Begin section -1.417638 0.878213)
G00 X-1.417638 Y0.878213
G01 F#12 Z[0-#2]
G01 F#12 X-1.382358 Y0.878213
G01 X-1.357406 Y0.853260
G01 X-1.357406 Y0.746736
G01 X-1.380528 Y0.723614
G01 X-1.380528 Y0.629980
G01 X-1.365028 Y0.614484
G01 X-1.365028 Y0.592563
G01 X-1.280528 Y0.508063
G01 X-1.280528 Y0.491933
G01 X-1.280528 Y0.332811
G01 X-1.263028 Y0.315311
G01 X-1.263028 Y0.284685
G01 X-1.284685 Y0.263028
G01 X-1.315311 Y0.263028
G01 X-1.336969 Y0.284685
G01 X-1.336969 Y0.315311
G01 X-1.319469 Y0.332811
G01 X-1.319469 Y0.491933
G01 X-1.392563 Y0.565028
G01 X-1.414484 Y0.565028
G01 X-1.434969 Y0.585512
G01 X-1.434969 Y0.614484
G01 X-1.419469 Y0.629980
G01 X-1.419469 Y0.723614
G01 X-1.442591 Y0.746736
G01 X-1.442591 Y0.853260
G01 X-1.417638 Y0.878213
G00 Z#6
(End section)
(Begin section -1.415783 0.873728)
G00 X-1.415783 Y0.873728
G01 F#12 Z[0-#2]
G01 F#12 X-1.384213 Y0.873728
G01 X-1.361890 Y0.851406
G01 X-1.361890 Y0.748591
G01 X-1.384213 Y0.726268
G01 X-1.385012 Y0.726268
G01 X-1.385012 Y0.628126
G01 X-1.369512 Y0.612626
G01 X-1.369512 Y0.590701
G01 X-1.285012 Y0.506205
G01 X-1.285012 Y0.493791
G01 X-1.285012 Y0.330949
G01 X-1.267512 Y0.313453
G01 X-1.267512 Y0.286543
G01 X-1.286543 Y0.267512
G01 X-1.313453 Y0.267512
G01 X-1.332484 Y0.286543
G01 X-1.332484 Y0.313453
G01 X-1.314984 Y0.330949
G01 X-1.314984 Y0.493791
G01 X-1.390701 Y0.569512
G01 X-1.412626 Y0.569512
G01 X-1.430484 Y0.587370
G01 X-1.430484 Y0.612626
G01 X-1.414984 Y0.628126
G01 X-1.414984 Y0.726268
G01 X-1.415783 Y0.726268
G01 X-1.438106 Y0.748591
G01 X-1.438106 Y0.851406
G01 X-1.415783 Y0.873728
G00 Z#6
(End section)
(Begin section -1.400000 0.800000)
G82 F#13 R#6 Z[0-#2] P0.03 X-1.400000 Y0.800000
(End section)
(Begin section -1.300000 0.800000)
G82 F#13 R#6 Z[0-#2] P0.03 X-1.300000 Y0.800000
(End section)
(Begin section -1.217638 0.878213)
G00 X-1.217638 Y0.878213
G01 F#12 Z[0-#2]
G01 F#12 X-1.182358 Y0.878213
G01 X-1.157406 Y0.853260
G01 X-1.157406 Y0.746736
G01 X-1.180528 Y0.723614
G01 X-1.180528 Y0.629980
G01 X-1.165028 Y0.614484
G01 X-1.165028 Y0.585512
G01 X-1.180528 Y0.570016
G01 X-1.180528 Y0.332811
G01 X-1.163028 Y0.315311
G01 X-1.163028 Y0.284685
G01 X-1.184685 Y0.263028
G01 X-1.215311 Y0.263028
G01 X-1.236969 Y0.284685
G01 X-1.236969 Y0.315311
G01 X-1.219469 Y0.332811
G01 X-1.219469 Y0.570016
G01 X-1.234969 Y0.585512
G01 X-1.234969 Y0.590213
G01 X-1.238969 Y0.594213
G01 X-1.238969 Y0.605783
G01 X-1.234969 Y0.609783
G01 X-1.234969 Y0.614484
G01 X-1.219469 Y0.629980
G01 X-1.219469 Y0.723614
G01 X-1.242591 Y0.746736
G01 X-1.242591 Y0.853260
G01 X-1.217638 Y0.878213
G00 Z#6
(End section)
(Begin section -1.215783 0.873728)
G00 X-1.215783 Y0.873728
G01 F#12 Z[0-#2]
G01 F#12 X-1.184213 Y0.873728
G01 X-1.161890 Y0.851406
G01 X-1.161890 Y0.748591
G01 X-1.184213 Y0.726268
G01 X-1.185012 Y0.726268
G01 X-1.185012 Y0.628126
G01 X-1.169512 Y0.612626
G01 X-1.169512 Y0.587370
G01 X-1.185012 Y0.571870
G01 X-1.185012 Y0.330953
G01 X-1.167512 Y0.313453
G01 X-1.167512 Y0.286543
G01 X-1.186543 Y0.267512
G01 X-1.213453 Y0.267512
G01 X-1.232484 Y0.286543
G01 X-1.232484 Y0.313453
G01 X-1.214984 Y0.330953
G01 X-1.214984 Y0.571870
G01 X-1.230484 Y0.587370
G01 X-1.230484 Y0.592075
G01 X-1.234484 Y0.596071
G01 X-1.234484 Y0.603925
G01 X-1.230484 Y0.607921
G01 X-1.230484 Y0.612626
G01 X-1.214984 Y0.628126
G01 X-1.214984 Y0.726268
G01 X-1.215783 Y0.726268
G01 X-1.238106 Y0.748591
G01 X-1.238106 Y0.851406
G01 X-1.215783 Y0.873728
G00 Z#6
(End section)
(Begin section -1.200000 0.800000)
G82 F#13 R#6 Z[0-#2] P0.03 X-1.200000 Y0.800000
(End section)
(Begin section -1.100000 0.800000)
G82 F#13 R#6 Z[0-#2] P0.03 X-1.100000 Y0.800000
(End section)
(Begin section -1.017638 0.878213)
G00 X-1.017638 Y0.878213
G01 F#12 Z[0-#2]
G01 F#12 X-0.982358 Y0.878213
G01 X-0.957406 Y0.853260
G01 X-0.957406 Y0.746736
G01 X-0.980528 Y0.723614
G01 X-0.980528 Y0.629980
G01 X-0.965028 Y0.614484
G01 X-0.965028 Y0.585512
G01 X-0.980528 Y0.570016
G01 X-0.980528 Y0.391933
G01 X-0.991933 Y0.380528
G01 X-1.063028 Y0.309433
G01 X-1.063028 Y0.284685
G01 X-1.084685 Y0.263028
G01 X-1.115311 Y0.263028
G01 X-1.136969 Y0.284685
G01 X-1.136969 Y0.315311
G01 X-1.115311 Y0.336969
G01 X-1.090563 Y0.336969
G01 X-1.019469 Y0.408063
G01 X-1.019469 Y0.570016
G01 X-1.034969 Y0.585512
G01 X-1.034969 Y0.614484
G01 X-1.019469 Y0.629980
G01 X-1.019469 Y0.723614
G01 X-1.042591 Y0.746736
G01 X-1.042591 Y0.853260
G01 X-1.017638 Y0.878213
G00 Z#6
(End section)
(Begin section -1.015783 0.873728)
G00 X-1.015783 Y0.873728
G01 F#12 Z[0-#2]
G01 F#12 X-0.984213 Y0.873728
G01 X-0.961890 Y0.851406
G01 X-0.961890 Y0.748591
G01 X-0.984213 Y0.726268
G01 X-0.985012 Y0.726268
G01 X-0.985012 Y0.628126
G01 X-0.969512 Y0.612626
G01 X-0.969512 Y0.587370
G01 X-0.985012 Y0.571870
G01 X-0.985012 Y0.393791
G01 X-0.993791 Y0.385012
G01 X-0.993795 Y0.385012
G01 X-1.067512 Y0.311295
G01 X-1.067512 Y0.286543
G01 X-1.086543 Y0.267512
G01 X-1.113453 Y0.267512
G01 X-1.132484 Y0.286543
G01 X-1.132484 Y0.313453
G01 X-1.113453 Y0.332484
G01 X-1.088701 Y0.332484
G01 X-1.014984 Y0.406201
G01 X-1.014984 Y0.571870
G01 X-1.030484 Y0.587370
G01 X-1.030484 Y0.612626
G01 X-1.014984 Y0.628126
G01 X-1.014984 Y0.726268
G01 X-1.015783 Y0.726268
G01 X-1.038106 Y0.748591
G01 X-1.038106 Y0.851406
G01 X-1.015783 Y0.873728
G00 Z#6
(End section)
(Begin section -1.000000 0.800000)
G82 F#13 R#6 Z[0-#2] P0.03 X-1.000000 Y0.800000
(End section)
(Begin section -0.900000 0.800000)
G82 F#13 R#6 Z[0-#2] P0.03 X-0.900000 Y0.800000
(End section)
(Begin section -0.817638 0.878213)
G00 X-0.817638 Y0.878213
G01 F#12 Z[0-#2]
G01 F#12 X-0.782358 Y0.878213
G01 X-0.757406 Y0.853260
G01 X-0.757406 Y0.746736
G01 X-0.780528 Y0.723614
G01 X-0.780528 Y0.629980
G01 X-0.765028 Y0.614484
G01 X-0.765028 Y0.585512
G01 X-0.780528 Y0.570016
G01 X-0.780528 Y0.491933
G01 X-0.791933 Y0.480528
G01 X-0.963028 Y0.309437
G01 X-0.963028 Y0.284685
G01 X-0.984685 Y0.263028
G01 X-1.015311 Y0.263028
G01 X-1.036969 Y0.284685
G01 X-1.036969 Y0.315311
G01 X-1.015311 Y0.336969
G01 X-0.990559 Y0.336969
G01 X-0.819469 Y0.508063
G01 X-0.819469 Y0.570016
G01 X-0.834969 Y0.585512
G01 X-0.834969 Y0.614484
G01 X-0.819469 Y0.629980
G01 X-0.819469 Y0.723614
G01 X-0.842591 Y0.746736
G01 X-0.842591 Y0.853260
G01 X-0.817638 Y0.878213
G00 Z#6
(End section)
(Begin section -0.815783 0.873728)
G00 X-0.815783 Y0.873728
G01 F#12 Z[0-#2]
G01 F#12 X-0.784213 Y0.873728
G01 X-0.761890 Y0.851406
G01 X-0.761890 Y0.748591
G01 X-0.784213 Y0.726268
G01 X-0.785012 Y0.726268
G01 X-0.785012 Y0.628126
G01 X-0.769512 Y0.612626
G01 X-0.769512 Y0.587370
G01 X-0.785012 Y0.571874
G01 X-0.785012 Y0.493791
G01 X-0.793791 Y0.485012
G01 X-0.967512 Y0.311291
G01 X-0.967512 Y0.286543
G01 X-0.986543 Y0.267512
G01 X-1.013453 Y0.267512
G01 X-1.032484 Y0.286543
G01 X-1.032484 Y0.313453
G01 X-1.013453 Y0.332484
G01 X-0.988705 Y0.332484
G01 X-0.814984 Y0.506205
G01 X-0.814984 Y0.571874
G01 X-0.830484 Y0.587370
G01 X-0.830484 Y0.612626
G01 X-0.814984 Y0.628126
G01 X-0.814984 Y0.726268
G01 X-0.815783 Y0.726268
G01 X-0.838106 Y0.748591
G01 X-0.838106 Y0.851406
G01 X-0.815783 Y0.873728
G00 Z#6
(End section)
(Begin section -0.800000 0.800000)
G82 F#13 R#6 Z[0-#2] P0.03 X-0.800000 Y0.800000
(End section)
(Begin section -0.600000 0.800000)
G82 F#13 R#6 Z[0-#2] P0.03 X-0.600000 Y0.800000
(End section)
(Begin section -0.500000 0.800000)
G82 F#13 R#6 Z[0-#2] P0.03 X-0.500000 Y0.800000
(End section)
(Begin section -0.200000 0.850000)
G82 F#13 R#6 Z[0-#2] P0.03 X-0.200000 Y0.850000
(End section)
(Begin section 0.000000 0.000000)
G82 F#13 R#6 Z[0-#2] P0.03 X0.000000 Y0.000000
(End section)
(Begin section -0.200000 0.200000)
G82 F#13 R#6 Z[0-#2] P0.03 X-0.200000 Y0.200000
(End section)
(Begin section -0.450000 0.260000)
G82 F#13 R#6 Z[0-#2] P0.03 X-0.450000 Y0.260000
(End section)
(Begin section -0.800000 0.600000)
G82 F#13 R#6 Z[0-#2] P0.03 X-0.800000 Y0.600000
(End section)
(Begin section -0.900000 0.600000)
G82 F#13 R#6 Z[0-#2] P0.03 X-0.900000 Y0.600000
(End section)
(Begin section -1.000000 0.600000)
G82 F#13 R#6 Z[0-#2] P0.03 X-1.000000 Y0.600000
(End section)
(Begin section -1.100000 0.600000)
G82 F#13 R#6 Z[0-#2] P0.03 X-1.100000 Y0.600000
(End section)
(Begin section -1.200000 0.600000)
G82 F#13 R#6 Z[0-#2] P0.03 X-1.200000 Y0.600000
(End section)
(Begin section -1.300000 0.600000)
G82 F#13 R#6 Z[0-#2] P0.03 X-1.300000 Y0.600000
(End section)
(Begin section -1.400000 0.600000)
G82 F#13 R#6 Z[0-#2] P0.03 X-1.400000 Y0.600000
(End section)
(Begin section -1.636969 0.284685)
G00 X-1.636969 Y0.284685
G01 F#12 Z[0-#2]
G01 F#12 X-1.636969 Y0.315311
G01 X-1.615311 Y0.336969
G01 X-1.584685 Y0.336969
G01 X-1.563028 Y0.315311
G01 X-1.563028 Y0.284685
G01 X-1.584685 Y0.263028
G01 X-1.615311 Y0.263028
G01 X-1.636969 Y0.284685
G00 Z#6
(End section)
(Begin section -1.632484 0.286543)
G00 X-1.632484 Y0.286543
G01 F#12 Z[0-#2]
G01 F#12 X-1.632484 Y0.313453
G01 X-1.613453 Y0.332484
G01 X-1.586543 Y0.332484
G01 X-1.567512 Y0.313453
G01 X-1.567512 Y0.286543
G01 X-1.586543 Y0.267512
G01 X-1.613453 Y0.267512
G01 X-1.632484 Y0.286543
G00 Z#6
(End section)
(Begin section -1.600000 0.300000)
G82 F#13 R#6 Z[0-#2] P0.03 X-1.600000 Y0.300000
(End section)
(Begin section -1.536969 0.284685)
G00 X-1.536969 Y0.284685
G01 F#12 Z[0-#2]
G01 F#12 X-1.536969 Y0.315311
G01 X-1.515311 Y0.336969
G01 X-1.484685 Y0.336969
G01 X-1.463028 Y0.315311
G01 X-1.463028 Y0.284685
G01 X-1.484685 Y0.263028
G01 X-1.515311 Y0.263028
G01 X-1.536969 Y0.284685
G00 Z#6
(End section)
(Begin section -1.532484 0.286543)
G00 X-1.532484 Y0.286543
G01 F#12 Z[0-#2]
G01 F#12 X-1.532484 Y0.313453
G01 X-1.513453 Y0.332484
G01 X-1.486543 Y0.332484
G01 X-1.467512 Y0.313453
G01 X-1.467512 Y0.286543
G01 X-1.486543 Y0.267512
G01 X-1.513453 Y0.267512
G01 X-1.532484 Y0.286543
G00 Z#6
(End section)
(Begin section -1.500000 0.300000)
G82 F#13 R#6 Z[0-#2] P0.03 X-1.500000 Y0.300000
(End section)
(Begin section -1.436969 0.284685)
G00 X-1.436969 Y0.284685
G01 F#12 Z[0-#2]
G01 F#12 X-1.436969 Y0.315311
G01 X-1.415311 Y0.336969
G01 X-1.384685 Y0.336969
G01 X-1.363028 Y0.315311
G01 X-1.363028 Y0.284685
G01 X-1.384685 Y0.263028
G01 X-1.415311 Y0.263028
G01 X-1.436969 Y0.284685
G00 Z#6
(End section)
(Begin section -1.432484 0.286543)
G00 X-1.432484 Y0.286543
G01 F#12 Z[0-#2]
G01 F#12 X-1.432484 Y0.313453
G01 X-1.413453 Y0.332484
G01 X-1.386543 Y0.332484
G01 X-1.367512 Y0.313453
G01 X-1.367512 Y0.286543
G01 X-1.386543 Y0.267512
G01 X-1.413453 Y0.267512
G01 X-1.432484 Y0.286543
G00 Z#6
(End section)
(Begin section -1.400000 0.300000)
G82 F#13 R#6 Z[0-#2] P0.03 X-1.400000 Y0.300000
(End section)
(Begin section -1.300000 0.300000)
G82 F#13 R#6 Z[0-#2] P0.03 X-1.300000 Y0.300000
(End section)
(Begin section -1.200000 0.300000)
G82 F#13 R#6 Z[0-#2] P0.03 X-1.200000 Y0.300000
(End section)
(Begin section -1.100000 0.300000)
G82 F#13 R#6 Z[0-#2] P0.03 X-1.100000 Y0.300000
(End section)
(Begin section -1.000000 0.300000)
G82 F#13 R#6 Z[0-#2] P0.03 X-1.000000 Y0.300000
(End section)
(Begin section -0.936969 0.284685)
G00 X-0.936969 Y0.284685
G01 F#12 Z[0-#2]
G01 F#12 X-0.936969 Y0.315311
G01 X-0.919469 Y0.332811
G01 X-0.919469 Y0.333063
G01 X-0.619469 Y0.633063
G01 X-0.619469 Y0.723618
G01 X-0.642591 Y0.746736
G01 X-0.642591 Y0.853260
G01 X-0.617638 Y0.878213
G01 X-0.582358 Y0.878213
G01 X-0.557406 Y0.853260
G01 X-0.557406 Y0.746736
G01 X-0.580528 Y0.723618
G01 X-0.580528 Y0.616933
G01 X-0.591933 Y0.605528
G01 X-0.872591 Y0.324870
G01 X-0.863028 Y0.315311
G01 X-0.863028 Y0.284685
G01 X-0.884685 Y0.263028
G01 X-0.915311 Y0.263028
G01 X-0.936969 Y0.284685
G00 Z#6
(End section)
(Begin section -0.932484 0.286543)
G00 X-0.932484 Y0.286543
G01 F#12 Z[0-#2]
G01 F#12 X-0.932484 Y0.313453
G01 X-0.914984 Y0.330953
G01 X-0.914984 Y0.331205
G01 X-0.614984 Y0.631205
G01 X-0.614984 Y0.726268
G01 X-0.615783 Y0.726268
G01 X-0.638106 Y0.748591
G01 X-0.638106 Y0.851406
G01 X-0.615783 Y0.873728
G01 X-0.584213 Y0.873728
G01 X-0.561890 Y0.851406
G01 X-0.561890 Y0.748591
G01 X-0.584213 Y0.726268
G01 X-0.585012 Y0.726268
G01 X-0.585012 Y0.618791
G01 X-0.593791 Y0.610012
G01 X-0.878933 Y0.324870
G01 X-0.867512 Y0.313453
G01 X-0.867512 Y0.286543
G01 X-0.886543 Y0.267512
G01 X-0.913453 Y0.267512
G01 X-0.932484 Y0.286543
G00 Z#6
(End section)
(Begin section -0.900000 0.300000)
G82 F#13 R#6 Z[0-#2] P0.03 X-0.900000 Y0.300000
(End section)
(Begin section -0.836969 0.284685)
G00 X-0.836969 Y0.284685
G01 F#12 Z[0-#2]
G01 F#12 X-0.836969 Y0.315311
G01 X-0.815311 Y0.336969
G01 X-0.784685 Y0.336969
G01 X-0.763028 Y0.315311
G01 X-0.763028 Y0.284685
G01 X-0.784685 Y0.263028
G01 X-0.815311 Y0.263028
G01 X-0.836969 Y0.284685
G00 Z#6
(End section)
(Begin section -0.832484 0.286543)
G00 X-0.832484 Y0.286543
G01 F#12 Z[0-#2]
G01 F#12 X-0.832484 Y0.313453
G01 X-0.813453 Y0.332484
G01 X-0.786543 Y0.332484
G01 X-0.767512 Y0.313453
G01 X-0.767512 Y0.286543
G01 X-0.786543 Y0.267512
G01 X-0.813453 Y0.267512
G01 X-0.832484 Y0.286543
G00 Z#6
(End section)
(Begin section -0.800000 0.300000)
G82 F#13 R#6 Z[0-#2] P0.03 X-0.800000 Y0.300000
(End section)
(Begin section -0.800000 0.200000)
G82 F#13 R#6 Z[0-#2] P0.03 X-0.800000 Y0.200000
(End section)
(Begin section -0.900000 0.200000)
G82 F#13 R#6 Z[0-#2] P0.03 X-0.900000 Y0.200000
(End section)
(Begin section -1.000000 0.200000)
G82 F#13 R#6 Z[0-#2] P0.03 X-1.000000 Y0.200000
(End section)
(Begin section -1.100000 0.200000)
G82 F#13 R#6 Z[0-#2] P0.03 X-1.100000 Y0.200000
(End section)
(Begin section -1.200000 0.200000)
G82 F#13 R#6 Z[0-#2] P0.03 X-1.200000 Y0.200000
(End section)
(Begin section -1.300000 0.200000)
G82 F#13 R#6 Z[0-#2] P0.03 X-1.300000 Y0.200000
(End section)
(Begin section -1.400000 0.200000)
G82 F#13 R#6 Z[0-#2] P0.03 X-1.400000 Y0.200000
(End section)
(Begin section -1.500000 0.200000)
G82 F#13 R#6 Z[0-#2] P0.03 X-1.500000 Y0.200000
(End section)
(Begin section -1.600000 0.200000)
G82 F#13 R#6 Z[0-#2] P0.03 X-1.600000 Y0.200000
(End section)
(Begin section -1.700000 0.200000)
G82 F#13 R#6 Z[0-#2] P0.03 X-1.700000 Y0.200000
(End section)
(Begin section -1.800000 0.200000)
G82 F#13 R#6 Z[0-#2] P0.03 X-1.800000 Y0.200000
(End section)
(Begin section -1.900000 0.200000)
G82 F#13 R#6 Z[0-#2] P0.03 X-1.900000 Y0.200000
(End section)
(Begin section -2.000000 0.200000)
G82 F#13 R#6 Z[0-#2] P0.03 X-2.000000 Y0.200000
(End section)
(Begin section -2.100000 0.200000)
G82 F#13 R#6 Z[0-#2] P0.03 X-2.100000 Y0.200000
(End section)
(Begin section -2.200000 0.200000)
G82 F#13 R#6 Z[0-#2] P0.03 X-2.200000 Y0.200000
(End section)
(Begin section -2.300000 0.200000)
G82 F#13 R#6 Z[0-#2] P0.03 X-2.300000 Y0.200000
(End section)
(Begin section -2.400000 0.200000)
G82 F#13 R#6 Z[0-#2] P0.03 X-2.400000 Y0.200000
(End section)
(Begin section -2.500000 0.200000)
G82 F#13 R#6 Z[0-#2] P0.03 X-2.500000 Y0.200000
(End section)
(Begin section -2.600000 0.200000)
G82 F#13 R#6 Z[0-#2] P0.03 X-2.600000 Y0.200000
(End section)
(Begin section -2.700000 0.200000)
G82 F#13 R#6 Z[0-#2] P0.03 X-2.700000 Y0.200000
(End section)
(Begin section -2.800000 0.200000)
G82 F#13 R#6 Z[0-#2] P0.03 X-2.800000 Y0.200000
(End section)
(Begin section -2.900000 0.200000)
G82 F#13 R#6 Z[0-#2] P0.03 X-2.900000 Y0.200000
(End section)
(Begin section -3.000000 0.200000)
G82 F#13 R#6 Z[0-#2] P0.03 X-3.000000 Y0.200000
(End section)
(Begin section -3.083748 0.263969)
G00 X-3.083748 Y0.263969
G01 F#12 Z[0-#2]
G01 F#12 X-3.080783 Y0.263969
G01 X-3.063969 Y0.280783
G01 X-3.063969 Y0.283748
G01 X-3.083748 Y0.263969
G00 Z#6
(End section)
(Begin section -3.100000 0.200000)
G82 F#13 R#6 Z[0-#2] P0.03 X-3.100000 Y0.200000
(End section)
(Begin section -3.200000 0.200000)
G82 F#13 R#6 Z[0-#2] P0.03 X-3.200000 Y0.200000
(End section)
(Begin section -3.200000 0.300000)
G82 F#13 R#6 Z[0-#2] P0.03 X-3.200000 Y0.300000
(End section)
(Begin section -3.098969 0.508858)
G00 X-3.098969 Y0.508858
G01 F#12 Z[0-#2]
G01 F#12 X-3.098969 Y0.541138
G01 X-3.076138 Y0.563969
G01 X-3.043858 Y0.563969
G01 X-3.021028 Y0.541138
G01 X-3.021028 Y0.508858
G01 X-3.043858 Y0.486028
G01 X-3.076138 Y0.486028
G01 X-3.098969 Y0.508858
G00 Z#6
(End section)
(Begin section -3.094484 0.510713)
G00 X-3.094484 Y0.510713
G01 F#12 Z[0-#2]
G01 F#12 X-3.094484 Y0.539283
G01 X-3.074283 Y0.559484
G01 X-3.045713 Y0.559484
G01 X-3.025512 Y0.539283
G01 X-3.025512 Y0.510713
G01 X-3.045713 Y0.490512
G01 X-3.074283 Y0.490512
G01 X-3.094484 Y0.510713
G00 Z#6
(End section)
(Begin section -3.060000 0.525000)
G82 F#13 R#6 Z[0-#2] P0.03 X-3.060000 Y0.525000
(End section)
(Begin section -2.989969 0.508858)
G00 X-2.989969 Y0.508858
G01 F#12 Z[0-#2]
G01 F#12 X-2.989969 Y0.541138
G01 X-2.967138 Y0.563969
G01 X-2.934858 Y0.563969
G01 X-2.912028 Y0.541138
G01 X-2.912028 Y0.508858
G01 X-2.934858 Y0.486028
G01 X-2.967138 Y0.486028
G01 X-2.989969 Y0.508858
G00 Z#6
(End section)
(Begin section -2.985484 0.510713)
G00 X-2.985484 Y0.510713
G01 F#12 Z[0-#2]
G01 F#12 X-2.985484 Y0.539283
G01 X-2.965283 Y0.559484
G01 X-2.936713 Y0.559484
G01 X-2.916512 Y0.539283
G01 X-2.916512 Y0.510713
G01 X-2.936713 Y0.490512
G01 X-2.965283 Y0.490512
G01 X-2.985484 Y0.510713
G00 Z#6
(End section)
(Begin section -2.951000 0.525000)
G82 F#13 R#6 Z[0-#2] P0.03 X-2.951000 Y0.525000
(End section)
(Begin section -2.880969 0.508858)
G00 X-2.880969 Y0.508858
G01 F#12 Z[0-#2]
G01 F#12 X-2.880969 Y0.541138
G01 X-2.858138 Y0.563969
G01 X-2.825858 Y0.563969
G01 X-2.803028 Y0.541138
G01 X-2.803028 Y0.508858
G01 X-2.825858 Y0.486028
G01 X-2.858138 Y0.486028
G01 X-2.880969 Y0.508858
G00 Z#6
(End section)
(Begin section -2.876484 0.510713)
G00 X-2.876484 Y0.510713
G01 F#12 Z[0-#2]
G01 F#12 X-2.876484 Y0.539283
G01 X-2.856283 Y0.559484
G01 X-2.827713 Y0.559484
G01 X-2.807512 Y0.539283
G01 X-2.807512 Y0.510713
G01 X-2.827713 Y0.490512
G01 X-2.856283 Y0.490512
G01 X-2.876484 Y0.510713
G00 Z#6
(End section)
(Begin section -2.842000 0.525000)
G82 F#13 R#6 Z[0-#2] P0.03 X-2.842000 Y0.525000
(End section)
(Begin section -2.772969 0.508858)
G00 X-2.772969 Y0.508858
G01 F#12 Z[0-#2]
G01 F#12 X-2.772969 Y0.541138
G01 X-2.750138 Y0.563969
G01 X-2.717858 Y0.563969
G01 X-2.695028 Y0.541138
G01 X-2.695028 Y0.508858
G01 X-2.717858 Y0.486028
G01 X-2.750138 Y0.486028
G01 X-2.772969 Y0.508858
G00 Z#6
(End section)
(Begin section -2.768484 0.510713)
G00 X-2.768484 Y0.510713
G01 F#12 Z[0-#2]
G01 F#12 X-2.768484 Y0.539283
G01 X-2.748283 Y0.559484
G01 X-2.719713 Y0.559484
G01 X-2.699512 Y0.539283
G01 X-2.699512 Y0.510713
G01 X-2.719713 Y0.490512
G01 X-2.748283 Y0.490512
G01 X-2.768484 Y0.510713
G00 Z#6
(End section)
(Begin section -2.734000 0.525000)
G82 F#13 R#6 Z[0-#2] P0.03 X-2.734000 Y0.525000
(End section)
(Begin section -2.625000 0.525000)
G82 F#13 R#6 Z[0-#2] P0.03 X-2.625000 Y0.525000
(End section)
(Begin section -2.550484 0.539283)
G00 X-2.550484 Y0.539283
G01 F#12 Z[0-#2]
G01 F#12 X-2.530283 Y0.559484
G01 X-2.501713 Y0.559484
G01 X-2.481512 Y0.539283
G01 X-2.481512 Y0.510713
G01 X-2.501713 Y0.490512
G01 X-2.529291 Y0.490512
G01 X-2.651012 Y0.368791
G01 X-2.659791 Y0.360012
G01 X-3.026571 Y0.360012
G01 X-3.040512 Y0.346071
G01 X-3.040512 Y0.271071
G01 X-3.046071 Y0.265512
G01 X-3.071071 Y0.240512
G01 X-3.078925 Y0.240512
G01 X-3.153925 Y0.240512
G01 X-3.159484 Y0.246071
G01 X-3.184618 Y0.271209
G01 X-3.193535 Y0.267512
G01 X-3.206461 Y0.267512
G01 X-3.218402 Y0.272457
G01 X-3.227539 Y0.281594
G01 X-3.232484 Y0.293535
G01 X-3.232484 Y0.306461
G01 X-3.227539 Y0.318402
G01 X-3.218402 Y0.327539
G01 X-3.206461 Y0.332484
G01 X-3.193535 Y0.332484
G01 X-3.181594 Y0.327539
G01 X-3.172457 Y0.318402
G01 X-3.167512 Y0.306461
G01 X-3.167512 Y0.293535
G01 X-3.171209 Y0.284618
G01 X-3.146071 Y0.259484
G01 X-3.078925 Y0.259484
G01 X-3.059484 Y0.278925
G01 X-3.059484 Y0.346071
G01 X-3.059484 Y0.353925
G01 X-3.039984 Y0.373425
G01 X-3.039984 Y0.381205
G01 X-3.031205 Y0.389984
G01 X-2.672205 Y0.389984
G01 X-2.550484 Y0.511705
G01 X-2.550484 Y0.539283
G00 Z#6
(End section)
(Begin section -2.516000 0.525000)
G82 F#13 R#6 Z[0-#2] P0.03 X-2.516000 Y0.525000
(End section)
(Begin section -2.408000 0.525000)
G82 F#13 R#6 Z[0-#2] P0.03 X-2.408000 Y0.525000
(End section)
(Begin section -2.333484 0.539283)
G00 X-2.333484 Y0.539283
G01 F#12 Z[0-#2]
G01 F#12 X-2.313283 Y0.559484
G01 X-2.284713 Y0.559484
G01 X-2.264512 Y0.539283
G01 X-2.264512 Y0.510713
G01 X-2.284713 Y0.490512
G01 X-2.313283 Y0.490512
G01 X-2.313287 Y0.490520
G01 X-2.440512 Y0.363291
G01 X-2.440512 Y0.278925
G01 X-2.440512 Y0.271071
G01 X-2.465512 Y0.246071
G01 X-2.471071 Y0.240512
G01 X-2.546071 Y0.240512
G01 X-2.553925 Y0.240512
G01 X-2.583736 Y0.270323
G01 X-2.586543 Y0.267512
G01 X-2.613453 Y0.267512
G01 X-2.632484 Y0.286543
G01 X-2.632484 Y0.313453
G01 X-2.613453 Y0.332484
G01 X-2.586543 Y0.332484
G01 X-2.567512 Y0.313453
G01 X-2.567512 Y0.286543
G01 X-2.570323 Y0.283736
G01 X-2.546071 Y0.259484
G01 X-2.478925 Y0.259484
G01 X-2.459484 Y0.278925
G01 X-2.459484 Y0.363291
G01 X-2.464984 Y0.368791
G01 X-2.464984 Y0.381205
G01 X-2.333484 Y0.512701
G01 X-2.333484 Y0.539283
G00 Z#6
(End section)
(Begin section -2.299000 0.525000)
G82 F#13 R#6 Z[0-#2] P0.03 X-2.299000 Y0.525000
(End section)
(Begin section -2.190000 0.525000)
G82 F#13 R#6 Z[0-#2] P0.03 X-2.190000 Y0.525000
(End section)
(Begin section -2.082000 0.525000)
G82 F#13 R#6 Z[0-#2] P0.03 X-2.082000 Y0.525000
(End section)
(Begin section -2.011969 0.508858)
G00 X-2.011969 Y0.508858
G01 F#12 Z[0-#2]
G01 F#12 X-2.011969 Y0.541138
G01 X-1.989138 Y0.563969
G01 X-1.956858 Y0.563969
G01 X-1.934028 Y0.541138
G01 X-1.934028 Y0.508858
G01 X-1.956858 Y0.486028
G01 X-1.989138 Y0.486028
G01 X-2.011969 Y0.508858
G00 Z#6
(End section)
(Begin section -2.007484 0.510713)
G00 X-2.007484 Y0.510713
G01 F#12 Z[0-#2]
G01 F#12 X-2.007484 Y0.539283
G01 X-1.987283 Y0.559484
G01 X-1.958713 Y0.559484
G01 X-1.938512 Y0.539283
G01 X-1.938512 Y0.510713
G01 X-1.958713 Y0.490512
G01 X-1.987283 Y0.490512
G01 X-2.007484 Y0.510713
G00 Z#6
(End section)
(Begin section -1.973000 0.525000)
G82 F#13 R#6 Z[0-#2] P0.03 X-1.973000 Y0.525000
(End section)
(Begin section -2.027000 0.625000)
G82 F#13 R#6 Z[0-#2] P0.03 X-2.027000 Y0.625000
(End section)
(Begin section -2.061484 0.610713)
G00 X-2.061484 Y0.610713
G01 F#12 Z[0-#2]
G01 F#12 X-2.061484 Y0.639283
G01 X-2.041283 Y0.659484
G01 X-2.012713 Y0.659484
G01 X-1.992512 Y0.639283
G01 X-1.992512 Y0.610713
G01 X-2.012713 Y0.590512
G01 X-2.041283 Y0.590512
G01 X-2.061484 Y0.610713
G00 Z#6
(End section)
(Begin section -2.065969 0.608858)
G00 X-2.065969 Y0.608858
G01 F#12 Z[0-#2]
G01 F#12 X-2.065969 Y0.641138
G01 X-2.043138 Y0.663969
G01 X-2.010858 Y0.663969
G01 X-1.988028 Y0.641138
G01 X-1.988028 Y0.608858
G01 X-2.010858 Y0.586028
G01 X-2.043138 Y0.586028
G01 X-2.065969 Y0.608858
G00 Z#6
(End section)
(Begin section -2.136000 0.625000)
G82 F#13 R#6 Z[0-#2] P0.03 X-2.136000 Y0.625000
(End section)
(Begin section -2.170484 0.610713)
G00 X-2.170484 Y0.610713
G01 F#12 Z[0-#2]
G01 F#12 X-2.170484 Y0.639283
G01 X-2.150283 Y0.659484
G01 X-2.121713 Y0.659484
G01 X-2.101512 Y0.639283
G01 X-2.101512 Y0.610713
G01 X-2.121713 Y0.590512
G01 X-2.150283 Y0.590512
G01 X-2.170484 Y0.610713
G00 Z#6
(End section)
(Begin section -2.174969 0.608858)
G00 X-2.174969 Y0.608858
G01 F#12 Z[0-#2]
G01 F#12 X-2.174969 Y0.641138
G01 X-2.152138 Y0.663969
G01 X-2.119858 Y0.663969
G01 X-2.097028 Y0.641138
G01 X-2.097028 Y0.608858
G01 X-2.119858 Y0.586028
G01 X-2.152138 Y0.586028
G01 X-2.174969 Y0.608858
G00 Z#6
(End section)
(Begin section -2.245000 0.625000)
G82 F#13 R#6 Z[0-#2] P0.03 X-2.245000 Y0.625000
(End section)
(Begin section -2.279484 0.610713)
G00 X-2.279484 Y0.610713
G01 F#12 Z[0-#2]
G01 F#12 X-2.279484 Y0.639283
G01 X-2.259283 Y0.659484
G01 X-2.230713 Y0.659484
G01 X-2.210512 Y0.639283
G01 X-2.210512 Y0.610713
G01 X-2.230713 Y0.590512
G01 X-2.259283 Y0.590512
G01 X-2.279484 Y0.610713
G00 Z#6
(End section)
(Begin section -2.283969 0.608858)
G00 X-2.283969 Y0.608858
G01 F#12 Z[0-#2]
G01 F#12 X-2.283969 Y0.641138
G01 X-2.261138 Y0.663969
G01 X-2.228858 Y0.663969
G01 X-2.206028 Y0.641138
G01 X-2.206028 Y0.608858
G01 X-2.228858 Y0.586028
G01 X-2.261138 Y0.586028
G01 X-2.283969 Y0.608858
G00 Z#6
(End section)
(Begin section -2.353000 0.625000)
G82 F#13 R#6 Z[0-#2] P0.03 X-2.353000 Y0.625000
(End section)
(Begin section -2.387484 0.610713)
G00 X-2.387484 Y0.610713
G01 F#12 Z[0-#2]
G01 F#12 X-2.387484 Y0.639283
G01 X-2.367283 Y0.659484
G01 X-2.338713 Y0.659484
G01 X-2.318512 Y0.639283
G01 X-2.318512 Y0.610713
G01 X-2.338713 Y0.590512
G01 X-2.367283 Y0.590512
G01 X-2.387484 Y0.610713
G00 Z#6
(End section)
(Begin section -2.391969 0.608858)
G00 X-2.391969 Y0.608858
G01 F#12 Z[0-#2]
G01 F#12 X-2.391969 Y0.641138
G01 X-2.369138 Y0.663969
G01 X-2.336858 Y0.663969
G01 X-2.314028 Y0.641138
G01 X-2.314028 Y0.608858
G01 X-2.336858 Y0.586028
G01 X-2.369138 Y0.586028
G01 X-2.391969 Y0.608858
G00 Z#6
(End section)
(Begin section -2.462000 0.625000)
G82 F#13 R#6 Z[0-#2] P0.03 X-2.462000 Y0.625000
(End section)
(Begin section -2.571000 0.625000)
G82 F#13 R#6 Z[0-#2] P0.03 X-2.571000 Y0.625000
(End section)
(Begin section -2.679000 0.625000)
G82 F#13 R#6 Z[0-#2] P0.03 X-2.679000 Y0.625000
(End section)
(Begin section -2.693283 0.659484)
G00 X-2.693283 Y0.659484
G01 F#12 Z[0-#2]
G01 F#12 X-2.664713 Y0.659484
G01 X-2.645161 Y0.639933
G01 X-2.604831 Y0.639933
G01 X-2.585283 Y0.659484
G01 X-2.556713 Y0.659484
G01 X-2.537161 Y0.639933
G01 X-2.495835 Y0.639933
G01 X-2.476933 Y0.658831
G01 X-2.476933 Y0.669185
G01 X-2.206185 Y0.939933
G01 X-2.193811 Y0.939933
G01 X-1.493811 Y0.939933
G01 X-1.306185 Y0.939933
G01 X-1.293811 Y0.939933
G01 X-1.093811 Y0.939933
G01 X-0.906252 Y0.939933
G01 X-0.906205 Y0.939984
G01 X-0.493791 Y0.939984
G01 X-0.485012 Y0.931205
G01 X-0.485012 Y0.918791
G01 X-0.485012 Y0.873728
G01 X-0.484213 Y0.873728
G01 X-0.461890 Y0.851406
G01 X-0.461890 Y0.748591
G01 X-0.484213 Y0.726268
G01 X-0.515783 Y0.726268
G01 X-0.538106 Y0.748591
G01 X-0.538106 Y0.851406
G01 X-0.515783 Y0.873728
G01 X-0.514984 Y0.873728
G01 X-0.514984 Y0.910012
G01 X-0.885063 Y0.910012
G01 X-0.885063 Y0.873728
G01 X-0.884213 Y0.873728
G01 X-0.861890 Y0.851406
G01 X-0.861890 Y0.748591
G01 X-0.884213 Y0.726268
G01 X-0.885063 Y0.726268
G01 X-0.885063 Y0.628177
G01 X-0.869512 Y0.612626
G01 X-0.869512 Y0.587370
G01 X-0.887370 Y0.569512
G01 X-0.912626 Y0.569512
G01 X-0.930484 Y0.587370
G01 X-0.930484 Y0.612626
G01 X-0.914933 Y0.628177
G01 X-0.914933 Y0.726268
G01 X-0.915783 Y0.726268
G01 X-0.938106 Y0.748591
G01 X-0.938106 Y0.851406
G01 X-0.915783 Y0.873728
G01 X-0.914933 Y0.873728
G01 X-0.914933 Y0.910063
G01 X-1.085063 Y0.910063
G01 X-1.085063 Y0.873728
G01 X-1.084213 Y0.873728
G01 X-1.061890 Y0.851406
G01 X-1.061890 Y0.748591
G01 X-1.084213 Y0.726268
G01 X-1.085063 Y0.726268
G01 X-1.085063 Y0.628177
G01 X-1.069512 Y0.612626
G01 X-1.069512 Y0.587370
G01 X-1.087370 Y0.569512
G01 X-1.112626 Y0.569512
G01 X-1.130484 Y0.587370
G01 X-1.130484 Y0.612626
G01 X-1.114933 Y0.628177
G01 X-1.114933 Y0.726268
G01 X-1.115783 Y0.726268
G01 X-1.138106 Y0.748591
G01 X-1.138106 Y0.851406
G01 X-1.115783 Y0.873728
G01 X-1.114933 Y0.873728
G01 X-1.114933 Y0.910063
G01 X-1.285063 Y0.910063
G01 X-1.285063 Y0.873728
G01 X-1.284213 Y0.873728
G01 X-1.261890 Y0.851406
G01 X-1.261890 Y0.748591
G01 X-1.284213 Y0.726268
G01 X-1.285063 Y0.726268
G01 X-1.285063 Y0.628177
G01 X-1.269512 Y0.612626
G01 X-1.269512 Y0.587370
G01 X-1.287370 Y0.569512
G01 X-1.312626 Y0.569512
G01 X-1.330484 Y0.587370
G01 X-1.330484 Y0.612626
G01 X-1.314933 Y0.628177
G01 X-1.314933 Y0.726268
G01 X-1.315783 Y0.726268
G01 X-1.338106 Y0.748591
G01 X-1.338106 Y0.851406
G01 X-1.315783 Y0.873728
G01 X-1.314933 Y0.873728
G01 X-1.314933 Y0.910063
G01 X-1.485063 Y0.910063
G01 X-1.485063 Y0.873728
G01 X-1.484213 Y0.873728
G01 X-1.461890 Y0.851406
G01 X-1.461890 Y0.748591
G01 X-1.484213 Y0.726268
G01 X-1.485063 Y0.726268
G01 X-1.485063 Y0.628177
G01 X-1.469512 Y0.612626
G01 X-1.469512 Y0.587370
G01 X-1.487370 Y0.569512
G01 X-1.512626 Y0.569512
G01 X-1.530484 Y0.587370
G01 X-1.530484 Y0.612626
G01 X-1.514933 Y0.628177
G01 X-1.514933 Y0.726268
G01 X-1.515783 Y0.726268
G01 X-1.538106 Y0.748591
G01 X-1.538106 Y0.851406
G01 X-1.515783 Y0.873728
G01 X-1.514933 Y0.873728
G01 X-1.514933 Y0.910063
G01 X-2.193811 Y0.910063
G01 X-2.446055 Y0.657823
G01 X-2.427512 Y0.639283
G01 X-2.427512 Y0.610713
G01 X-2.447713 Y0.590512
G01 X-2.476283 Y0.590512
G01 X-2.495835 Y0.610063
G01 X-2.537161 Y0.610063
G01 X-2.556713 Y0.590512
G01 X-2.585283 Y0.590512
G01 X-2.604831 Y0.610063
G01 X-2.645161 Y0.610063
G01 X-2.664713 Y0.590512
G01 X-2.693283 Y0.590512
G01 X-2.712835 Y0.610063
G01 X-2.754161 Y0.610063
G01 X-2.773713 Y0.590512
G01 X-2.802283 Y0.590512
G01 X-2.821835 Y0.610063
G01 X-2.863161 Y0.610063
G01 X-2.882713 Y0.590512
G01 X-2.911283 Y0.590512
G01 X-2.930835 Y0.610063
G01 X-2.971161 Y0.610063
G01 X-2.990713 Y0.590512
G01 X-3.019283 Y0.590512
G01 X-3.038835 Y0.610063
G01 X-3.080161 Y0.610063
G01 X-3.099713 Y0.590512
G01 X-3.128283 Y0.590512
G01 X-3.147835 Y0.610063
G01 X-3.189161 Y0.610063
G01 X-3.208713 Y0.590512
G01 X-3.237283 Y0.590512
G01 X-3.256835 Y0.610063
G01 X-3.318811 Y0.610063
G01 X-3.385063 Y0.543811
G01 X-3.385063 Y0.306185
G01 X-3.293811 Y0.214933
G01 X-3.231000 Y0.214933
G01 X-3.213453 Y0.232484
G01 X-3.186543 Y0.232484
G01 X-3.168996 Y0.214933
G01 X-3.131000 Y0.214933
G01 X-3.113453 Y0.232484
G01 X-3.086543 Y0.232484
G01 X-3.068996 Y0.214933
G01 X-3.031000 Y0.214933
G01 X-3.013453 Y0.232484
G01 X-2.986543 Y0.232484
G01 X-2.968996 Y0.214933
G01 X-2.931004 Y0.214933
G01 X-2.913453 Y0.232484
G01 X-2.886543 Y0.232484
G01 X-2.868992 Y0.214933
G01 X-2.831004 Y0.214933
G01 X-2.813453 Y0.232484
G01 X-2.786543 Y0.232484
G01 X-2.768992 Y0.214933
G01 X-2.731004 Y0.214933
G01 X-2.713453 Y0.232484
G01 X-2.686543 Y0.232484
G01 X-2.668992 Y0.214933
G01 X-2.631004 Y0.214933
G01 X-2.613453 Y0.232484
G01 X-2.586543 Y0.232484
G01 X-2.568992 Y0.214933
G01 X-2.531004 Y0.214933
G01 X-2.513453 Y0.232484
G01 X-2.486543 Y0.232484
G01 X-2.468992 Y0.214933
G01 X-2.431004 Y0.214933
G01 X-2.413453 Y0.232484
G01 X-2.386543 Y0.232484
G01 X-2.368992 Y0.214933
G01 X-2.331004 Y0.214933
G01 X-2.313453 Y0.232484
G01 X-2.286543 Y0.232484
G01 X-2.268992 Y0.214933
G01 X-2.231004 Y0.214933
G01 X-2.213453 Y0.232484
G01 X-2.186543 Y0.232484
G01 X-2.168996 Y0.214933
G01 X-2.131000 Y0.214933
G01 X-2.113453 Y0.232484
G01 X-2.086543 Y0.232484
G01 X-2.068996 Y0.214933
G01 X-2.031004 Y0.214933
G01 X-2.013453 Y0.232484
G01 X-1.986543 Y0.232484
G01 X-1.968992 Y0.214933
G01 X-1.931004 Y0.214933
G01 X-1.913453 Y0.232484
G01 X-1.886543 Y0.232484
G01 X-1.868992 Y0.214933
G01 X-1.831004 Y0.214933
G01 X-1.813453 Y0.232484
G01 X-1.786543 Y0.232484
G01 X-1.768992 Y0.214933
G01 X-1.731004 Y0.214933
G01 X-1.713453 Y0.232484
G01 X-1.686543 Y0.232484
G01 X-1.668992 Y0.214933
G01 X-1.631004 Y0.214933
G01 X-1.613453 Y0.232484
G01 X-1.586543 Y0.232484
G01 X-1.568992 Y0.214933
G01 X-1.531004 Y0.214933
G01 X-1.513453 Y0.232484
G01 X-1.486543 Y0.232484
G01 X-1.468992 Y0.214933
G01 X-1.431004 Y0.214933
G01 X-1.413453 Y0.232484
G01 X-1.386543 Y0.232484
G01 X-1.368992 Y0.214933
G01 X-1.331000 Y0.214933
G01 X-1.313453 Y0.232484
G01 X-1.286543 Y0.232484
G01 X-1.268996 Y0.214933
G01 X-1.231000 Y0.214933
G01 X-1.213453 Y0.232484
G01 X-1.186543 Y0.232484
G01 X-1.168996 Y0.214933
G01 X-1.131000 Y0.214933
G01 X-1.113453 Y0.232484
G01 X-1.086543 Y0.232484
G01 X-1.068996 Y0.214933
G01 X-1.031000 Y0.214933
G01 X-1.013453 Y0.232484
G01 X-0.986543 Y0.232484
G01 X-0.968996 Y0.214933
G01 X-0.931000 Y0.214933
G01 X-0.913453 Y0.232484
G01 X-0.886543 Y0.232484
G01 X-0.868996 Y0.214933
G01 X-0.831000 Y0.214933
G01 X-0.813453 Y0.232484
G01 X-0.788705 Y0.232484
G01 X-0.514984 Y0.506205
G01 X-0.514984 Y0.656205
G01 X-0.506205 Y0.664984
G01 X-0.493791 Y0.664984
G01 X-0.485012 Y0.656205
G01 X-0.485012 Y0.493791
G01 X-0.493791 Y0.485012
G01 X-0.767512 Y0.211291
G01 X-0.767512 Y0.186543
G01 X-0.786543 Y0.167512
G01 X-0.813453 Y0.167512
G01 X-0.831000 Y0.185063
G01 X-0.868996 Y0.185063
G01 X-0.886543 Y0.167512
G01 X-0.913453 Y0.167512
G01 X-0.931000 Y0.185063
G01 X-0.968996 Y0.185063
G01 X-0.986543 Y0.167512
G01 X-1.013453 Y0.167512
G01 X-1.031000 Y0.185063
G01 X-1.068996 Y0.185063
G01 X-1.086543 Y0.167512
G01 X-1.113453 Y0.167512
G01 X-1.131000 Y0.185063
G01 X-1.168996 Y0.185063
G01 X-1.186543 Y0.167512
G01 X-1.213453 Y0.167512
G01 X-1.231000 Y0.185063
G01 X-1.268996 Y0.185063
G01 X-1.286543 Y0.167512
G01 X-1.313453 Y0.167512
G01 X-1.331000 Y0.185063
G01 X-1.368992 Y0.185063
G01 X-1.386543 Y0.167512
G01 X-1.413453 Y0.167512
G01 X-1.431004 Y0.185063
G01 X-1.468992 Y0.185063
G01 X-1.486543 Y0.167512
G01 X-1.513453 Y0.167512
G01 X-1.531004 Y0.185063
G01 X-1.568992 Y0.185063
G01 X-1.586543 Y0.167512
G01 X-1.613453 Y0.167512
G01 X-1.631004 Y0.185063
G01 X-1.668992 Y0.185063
G01 X-1.686543 Y0.167512
G01 X-1.713453 Y0.167512
G01 X-1.731004 Y0.185063
G01 X-1.768992 Y0.185063
G01 X-1.786543 Y0.167512
G01 X-1.813453 Y0.167512
G01 X-1.831004 Y0.185063
G01 X-1.868992 Y0.185063
G01 X-1.886543 Y0.167512
G01 X-1.913453 Y0.167512
G01 X-1.931004 Y0.185063
G01 X-1.968992 Y0.185063
G01 X-1.986543 Y0.167512
G01 X-2.013453 Y0.167512
G01 X-2.031004 Y0.185063
G01 X-2.068996 Y0.185063
G01 X-2.086543 Y0.167512
G01 X-2.113453 Y0.167512
G01 X-2.131000 Y0.185063
G01 X-2.168996 Y0.185063
G01 X-2.186543 Y0.167512
G01 X-2.213453 Y0.167512
G01 X-2.231004 Y0.185063
G01 X-2.268992 Y0.185063
G01 X-2.286543 Y0.167512
G01 X-2.313453 Y0.167512
G01 X-2.331004 Y0.185063
G01 X-2.368992 Y0.185063
G01 X-2.386543 Y0.167512
G01 X-2.413453 Y0.167512
G01 X-2.431004 Y0.185063
G01 X-2.468992 Y0.185063
G01 X-2.486543 Y0.167512
G01 X-2.513453 Y0.167512
G01 X-2.531004 Y0.185063
G01 X-2.568992 Y0.185063
G01 X-2.586543 Y0.167512
G01 X-2.613453 Y0.167512
G01 X-2.631004 Y0.185063
G01 X-2.668992 Y0.185063
G01 X-2.686543 Y0.167512
G01 X-2.713453 Y0.167512
G01 X-2.731004 Y0.185063
G01 X-2.768992 Y0.185063
G01 X-2.786543 Y0.167512
G01 X-2.813453 Y0.167512
G01 X-2.831004 Y0.185063
G01 X-2.868992 Y0.185063
G01 X-2.886543 Y0.167512
G01 X-2.913453 Y0.167512
G01 X-2.931004 Y0.185063
G01 X-2.968996 Y0.185063
G01 X-2.986543 Y0.167512
G01 X-3.013453 Y0.167512
G01 X-3.031000 Y0.185063
G01 X-3.068996 Y0.185063
G01 X-3.086543 Y0.167512
G01 X-3.113453 Y0.167512
G01 X-3.131000 Y0.185063
G01 X-3.168996 Y0.185063
G01 X-3.186543 Y0.167512
G01 X-3.213453 Y0.167512
G01 X-3.231000 Y0.185063
G01 X-3.293811 Y0.185063
G01 X-3.306185 Y0.185063
G01 X-3.406185 Y0.285063
G01 X-3.414933 Y0.293811
G01 X-3.414933 Y0.543811
G01 X-3.414933 Y0.556185
G01 X-3.339933 Y0.631185
G01 X-3.331185 Y0.639933
G01 X-3.256835 Y0.639933
G01 X-3.237283 Y0.659484
G01 X-3.208713 Y0.659484
G01 X-3.189161 Y0.639933
G01 X-3.147835 Y0.639933
G01 X-3.128283 Y0.659484
G01 X-3.099713 Y0.659484
G01 X-3.080161 Y0.639933
G01 X-3.038835 Y0.639933
G01 X-3.019283 Y0.659484
G01 X-2.990713 Y0.659484
G01 X-2.971161 Y0.639933
G01 X-2.930835 Y0.639933
G01 X-2.911283 Y0.659484
G01 X-2.882713 Y0.659484
G01 X-2.863161 Y0.639933
G01 X-2.821835 Y0.639933
G01 X-2.802283 Y0.659484
G01 X-2.773713 Y0.659484
G01 X-2.754161 Y0.639933
G01 X-2.712835 Y0.639933
G01 X-2.693283 Y0.659484
G00 Z#6
(End section)
(Begin section -2.788000 0.625000)
G82 F#13 R#6 Z[0-#2] P0.03 X-2.788000 Y0.625000
(End section)
(Begin section -2.897000 0.625000)
G82 F#13 R#6 Z[0-#2] P0.03 X-2.897000 Y0.625000
(End section)
(Begin section -3.005000 0.625000)
G82 F#13 R#6 Z[0-#2] P0.03 X-3.005000 Y0.625000
(End section)
(Begin section -3.114000 0.625000)
G82 F#13 R#6 Z[0-#2] P0.03 X-3.114000 Y0.625000
(End section)
(Begin section -3.223000 0.625000)
G82 F#13 R#6 Z[0-#2] P0.03 X-3.223000 Y0.625000
(End section)
(Begin section -3.168000 0.525000)
G82 F#13 R#6 Z[0-#2] P0.03 X-3.168000 Y0.525000
(End section)
(Begin section -3.202484 0.510713)
G00 X-3.202484 Y0.510713
G01 F#12 Z[0-#2]
G01 F#12 X-3.202484 Y0.539283
G01 X-3.182283 Y0.559484
G01 X-3.153713 Y0.559484
G01 X-3.133512 Y0.539283
G01 X-3.133512 Y0.510713
G01 X-3.153713 Y0.490512
G01 X-3.182283 Y0.490512
G01 X-3.202484 Y0.510713
G00 Z#6
(End section)
(Begin section -3.206969 0.508858)
G00 X-3.206969 Y0.508858
G01 F#12 Z[0-#2]
G01 F#12 X-3.206969 Y0.541138
G01 X-3.184138 Y0.563969
G01 X-3.151858 Y0.563969
G01 X-3.129028 Y0.541138
G01 X-3.129028 Y0.508858
G01 X-3.151858 Y0.486028
G01 X-3.184138 Y0.486028
G01 X-3.206969 Y0.508858
G00 Z#6
(End section)
(Begin section -3.277000 0.525000)
G82 F#13 R#6 Z[0-#2] P0.03 X-3.277000 Y0.525000
(End section)
(Begin section -3.311484 0.510713)
G00 X-3.311484 Y0.510713
G01 F#12 Z[0-#2]
G01 F#12 X-3.311484 Y0.539283
G01 X-3.291283 Y0.559484
G01 X-3.262713 Y0.559484
G01 X-3.242512 Y0.539283
G01 X-3.242512 Y0.510713
G01 X-3.262713 Y0.490512
G01 X-3.291283 Y0.490512
G01 X-3.311484 Y0.510713
G00 Z#6
(End section)
(Begin section -3.315969 0.508858)
G00 X-3.315969 Y0.508858
G01 F#12 Z[0-#2]
G01 F#12 X-3.315969 Y0.541138
G01 X-3.293138 Y0.563969
G01 X-3.260858 Y0.563969
G01 X-3.238028 Y0.541138
G01 X-3.238028 Y0.508858
G01 X-3.260858 Y0.486028
G01 X-3.293138 Y0.486028
G01 X-3.315969 Y0.508858
G00 Z#6
(End section)
(Begin section -3.444028 0.596276)
G00 X-3.444028 Y0.596276
G01 F#12 Z[0-#2]
G01 F#12 X-3.444028 Y0.553720
G01 X-3.460311 Y0.514402
G01 X-3.490402 Y0.484311
G01 X-3.529720 Y0.468028
G01 X-3.572276 Y0.468028
G01 X-3.611594 Y0.484311
G01 X-3.641685 Y0.514402
G01 X-3.657969 Y0.553720
G01 X-3.657969 Y0.596276
G01 X-3.641685 Y0.635594
G01 X-3.611594 Y0.665685
G01 X-3.572276 Y0.681969
G01 X-3.529720 Y0.681969
G01 X-3.490402 Y0.665685
G01 X-3.460311 Y0.635594
G01 X-3.444028 Y0.596276
G00 Z#6
(End section)
(Begin section -3.448512 0.595386)
G00 X-3.448512 Y0.595386
G01 F#12 Z[0-#2]
G01 F#12 X-3.448512 Y0.554610
G01 X-3.464114 Y0.516945
G01 X-3.492945 Y0.488114
G01 X-3.530610 Y0.472512
G01 X-3.571386 Y0.472512
G01 X-3.609051 Y0.488114
G01 X-3.637882 Y0.516945
G01 X-3.653484 Y0.554610
G01 X-3.653484 Y0.595386
G01 X-3.637882 Y0.633051
G01 X-3.609051 Y0.661882
G01 X-3.571386 Y0.677484
G01 X-3.530610 Y0.677484
G01 X-3.492945 Y0.661882
G01 X-3.464114 Y0.633051
G01 X-3.448512 Y0.595386
G00 Z#6
(End section)
(Begin section -3.551000 0.575000)
G82 F#13 R#6 Z[0-#2] P0.03 X-3.551000 Y0.575000
(End section)
(Begin section -3.550000 0.260000)
G82 F#13 R#6 Z[0-#2] P0.03 X-3.550000 Y0.260000
(End section)
(Begin section -3.800000 0.200000)
G82 F#13 R#6 Z[0-#2] P0.03 X-3.800000 Y0.200000
(End section)
(Begin section -3.800000 0.850000)
G82 F#13 R#6 Z[0-#2] P0.03 X-3.800000 Y0.850000
(End section)
(End block of reorderable sections)
M5
G00 Z#7
(msg,Insert DRILL 0.029)
#30=[#30+1] T#30 M6
S1000 M3
(Begin block of reorderable sections)
(Begin section -0.800000 0.600000)
G82 F#13 R#6 Z[0-#4] P0.03 X-0.800000 Y0.600000
(End section)
(Begin section -0.900000 0.600000)
G82 F#13 R#6 Z[0-#4] P0.03 X-0.900000 Y0.600000
(End section)
(Begin section -1.000000 0.600000)
G82 F#13 R#6 Z[0-#4] P0.03 X-1.000000 Y0.600000
(End section)
(Begin section -1.100000 0.600000)
G82 F#13 R#6 Z[0-#4] P0.03 X-1.100000 Y0.600000
(End section)
(Begin section -1.200000 0.600000)
G82 F#13 R#6 Z[0-#4] P0.03 X-1.200000 Y0.600000
(End section)
(Begin section -1.300000 0.600000)
G82 F#13 R#6 Z[0-#4] P0.03 X-1.300000 Y0.600000
(End section)
(Begin section -1.400000 0.600000)
G82 F#13 R#6 Z[0-#4] P0.03 X-1.400000 Y0.600000
(End section)
(Begin section -1.500000 0.600000)
G82 F#13 R#6 Z[0-#4] P0.03 X-1.500000 Y0.600000
(End section)
(End block of reorderable sections)
M5
G00 Z#7
(msg,Insert DRILL 0.035)
#30=[#30+1] T#30 M6
S1000 M3
(Begin block of reorderable sections)
(Begin section -3.200000 0.300000)
G82 F#13 R#6 Z[0-#4] P0.03 X-3.200000 Y0.300000
(End section)
(Begin section -3.200000 0.200000)
G82 F#13 R#6 Z[0-#4] P0.03 X-3.200000 Y0.200000
(End section)
(Begin section -3.100000 0.300000)
G82 F#13 R#6 Z[0-#4] P0.03 X-3.100000 Y0.300000
(End section)
(Begin section -3.277000 0.525000)
G82 F#13 R#6 Z[0-#4] P0.03 X-3.277000 Y0.525000
(End section)
(Begin section -3.223000 0.625000)
G82 F#13 R#6 Z[0-#4] P0.03 X-3.223000 Y0.625000
(End section)
(Begin section -3.114000 0.625000)
G82 F#13 R#6 Z[0-#4] P0.03 X-3.114000 Y0.625000
(End section)
(Begin section -3.168000 0.525000)
G82 F#13 R#6 Z[0-#4] P0.03 X-3.168000 Y0.525000
(End section)
(Begin section -3.060000 0.525000)
G82 F#13 R#6 Z[0-#4] P0.03 X-3.060000 Y0.525000
(End section)
(Begin section -2.951000 0.525000)
G82 F#13 R#6 Z[0-#4] P0.03 X-2.951000 Y0.525000
(End section)
(Begin section -3.005000 0.625000)
G82 F#13 R#6 Z[0-#4] P0.03 X-3.005000 Y0.625000
(End section)
(Begin section -2.897000 0.625000)
G82 F#13 R#6 Z[0-#4] P0.03 X-2.897000 Y0.625000
(End section)
(Begin section -2.788000 0.625000)
G82 F#13 R#6 Z[0-#4] P0.03 X-2.788000 Y0.625000
(End section)
(Begin section -2.679000 0.625000)
G82 F#13 R#6 Z[0-#4] P0.03 X-2.679000 Y0.625000
(End section)
(Begin section -2.571000 0.625000)
G82 F#13 R#6 Z[0-#4] P0.03 X-2.571000 Y0.625000
(End section)
(Begin section -2.462000 0.625000)
G82 F#13 R#6 Z[0-#4] P0.03 X-2.462000 Y0.625000
(End section)
(Begin section -2.353000 0.625000)
G82 F#13 R#6 Z[0-#4] P0.03 X-2.353000 Y0.625000
(End section)
(Begin section -2.516000 0.525000)
G82 F#13 R#6 Z[0-#4] P0.03 X-2.516000 Y0.525000
(End section)
(Begin section -2.408000 0.525000)
G82 F#13 R#6 Z[0-#4] P0.03 X-2.408000 Y0.525000
(End section)
(Begin section -2.299000 0.525000)
G82 F#13 R#6 Z[0-#4] P0.03 X-2.299000 Y0.525000
(End section)
(Begin section -2.190000 0.525000)
G82 F#13 R#6 Z[0-#4] P0.03 X-2.190000 Y0.525000
(End section)
(Begin section -2.245000 0.625000)
G82 F#13 R#6 Z[0-#4] P0.03 X-2.245000 Y0.625000
(End section)
(Begin section -2.136000 0.625000)
G82 F#13 R#6 Z[0-#4] P0.03 X-2.136000 Y0.625000
(End section)
(Begin section -2.027000 0.625000)
G82 F#13 R#6 Z[0-#4] P0.03 X-2.027000 Y0.625000
(End section)
(Begin section -1.973000 0.525000)
G82 F#13 R#6 Z[0-#4] P0.03 X-1.973000 Y0.525000
(End section)
(Begin section -2.082000 0.525000)
G82 F#13 R#6 Z[0-#4] P0.03 X-2.082000 Y0.525000
(End section)
(Begin section -2.200000 0.300000)
G82 F#13 R#6 Z[0-#4] P0.03 X-2.200000 Y0.300000
(End section)
(Begin section -2.100000 0.300000)
G82 F#13 R#6 Z[0-#4] P0.03 X-2.100000 Y0.300000
(End section)
(Begin section -2.000000 0.300000)
G82 F#13 R#6 Z[0-#4] P0.03 X-2.000000 Y0.300000
(End section)
(Begin section -1.900000 0.300000)
G82 F#13 R#6 Z[0-#4] P0.03 X-1.900000 Y0.300000
(End section)
(Begin section -1.800000 0.300000)
G82 F#13 R#6 Z[0-#4] P0.03 X-1.800000 Y0.300000
(End section)
(Begin section -1.700000 0.300000)
G82 F#13 R#6 Z[0-#4] P0.03 X-1.700000 Y0.300000
(End section)
(Begin section -1.600000 0.300000)
G82 F#13 R#6 Z[0-#4] P0.03 X-1.600000 Y0.300000
(End section)
(Begin section -1.500000 0.300000)
G82 F#13 R#6 Z[0-#4] P0.03 X-1.500000 Y0.300000
(End section)
(Begin section -1.400000 0.300000)
G82 F#13 R#6 Z[0-#4] P0.03 X-1.400000 Y0.300000
(End section)
(Begin section -1.300000 0.300000)
G82 F#13 R#6 Z[0-#4] P0.03 X-1.300000 Y0.300000
(End section)
(Begin section -1.200000 0.300000)
G82 F#13 R#6 Z[0-#4] P0.03 X-1.200000 Y0.300000
(End section)
(Begin section -1.100000 0.300000)
G82 F#13 R#6 Z[0-#4] P0.03 X-1.100000 Y0.300000
(End section)
(Begin section -1.000000 0.300000)
G82 F#13 R#6 Z[0-#4] P0.03 X-1.000000 Y0.300000
(End section)
(Begin section -0.900000 0.300000)
G82 F#13 R#6 Z[0-#4] P0.03 X-0.900000 Y0.300000
(End section)
(Begin section -0.800000 0.300000)
G82 F#13 R#6 Z[0-#4] P0.03 X-0.800000 Y0.300000
(End section)
(Begin section -0.800000 0.200000)
G82 F#13 R#6 Z[0-#4] P0.03 X-0.800000 Y0.200000
(End section)
(Begin section -0.900000 0.200000)
G82 F#13 R#6 Z[0-#4] P0.03 X-0.900000 Y0.200000
(End section)
(Begin section -1.000000 0.200000)
G82 F#13 R#6 Z[0-#4] P0.03 X-1.000000 Y0.200000
(End section)
(Begin section -1.100000 0.200000)
G82 F#13 R#6 Z[0-#4] P0.03 X-1.100000 Y0.200000
(End section)
(Begin section -1.200000 0.200000)
G82 F#13 R#6 Z[0-#4] P0.03 X-1.200000 Y0.200000
(End section)
(Begin section -1.300000 0.200000)
G82 F#13 R#6 Z[0-#4] P0.03 X-1.300000 Y0.200000
(End section)
(Begin section -1.400000 0.200000)
G82 F#13 R#6 Z[0-#4] P0.03 X-1.400000 Y0.200000
(End section)
(Begin section -1.500000 0.200000)
G82 F#13 R#6 Z[0-#4] P0.03 X-1.500000 Y0.200000
(End section)
(Begin section -1.600000 0.200000)
G82 F#13 R#6 Z[0-#4] P0.03 X-1.600000 Y0.200000
(End section)
(Begin section -1.700000 0.200000)
G82 F#13 R#6 Z[0-#4] P0.03 X-1.700000 Y0.200000
(End section)
(Begin section -1.800000 0.200000)
G82 F#13 R#6 Z[0-#4] P0.03 X-1.800000 Y0.200000
(End section)
(Begin section -1.900000 0.200000)
G82 F#13 R#6 Z[0-#4] P0.03 X-1.900000 Y0.200000
(End section)
(Begin section -2.000000 0.200000)
G82 F#13 R#6 Z[0-#4] P0.03 X-2.000000 Y0.200000
(End section)
(Begin section -2.100000 0.200000)
G82 F#13 R#6 Z[0-#4] P0.03 X-2.100000 Y0.200000
(End section)
(Begin section -2.200000 0.200000)
G82 F#13 R#6 Z[0-#4] P0.03 X-2.200000 Y0.200000
(End section)
(Begin section -2.300000 0.200000)
G82 F#13 R#6 Z[0-#4] P0.03 X-2.300000 Y0.200000
(End section)
(Begin section -2.300000 0.300000)
G82 F#13 R#6 Z[0-#4] P0.03 X-2.300000 Y0.300000
(End section)
(Begin section -2.400000 0.300000)
G82 F#13 R#6 Z[0-#4] P0.03 X-2.400000 Y0.300000
(End section)
(Begin section -2.400000 0.200000)
G82 F#13 R#6 Z[0-#4] P0.03 X-2.400000 Y0.200000
(End section)
(Begin section -2.500000 0.200000)
G82 F#13 R#6 Z[0-#4] P0.03 X-2.500000 Y0.200000
(End section)
(Begin section -2.500000 0.300000)
G82 F#13 R#6 Z[0-#4] P0.03 X-2.500000 Y0.300000
(End section)
(Begin section -2.600000 0.300000)
G82 F#13 R#6 Z[0-#4] P0.03 X-2.600000 Y0.300000
(End section)
(Begin section -2.600000 0.200000)
G82 F#13 R#6 Z[0-#4] P0.03 X-2.600000 Y0.200000
(End section)
(Begin section -2.700000 0.200000)
G82 F#13 R#6 Z[0-#4] P0.03 X-2.700000 Y0.200000
(End section)
(Begin section -2.800000 0.200000)
G82 F#13 R#6 Z[0-#4] P0.03 X-2.800000 Y0.200000
(End section)
(Begin section -2.700000 0.300000)
G82 F#13 R#6 Z[0-#4] P0.03 X-2.700000 Y0.300000
(End section)
(Begin section -2.625000 0.525000)
G82 F#13 R#6 Z[0-#4] P0.03 X-2.625000 Y0.525000
(End section)
(Begin section -2.734000 0.525000)
G82 F#13 R#6 Z[0-#4] P0.03 X-2.734000 Y0.525000
(End section)
(Begin section -2.842000 0.525000)
G82 F#13 R#6 Z[0-#4] P0.03 X-2.842000 Y0.525000
(End section)
(Begin section -2.800000 0.300000)
G82 F#13 R#6 Z[0-#4] P0.03 X-2.800000 Y0.300000
(End section)
(Begin section -2.900000 0.300000)
G82 F#13 R#6 Z[0-#4] P0.03 X-2.900000 Y0.300000
(End section)
(Begin section -3.000000 0.300000)
G82 F#13 R#6 Z[0-#4] P0.03 X-3.000000 Y0.300000
(End section)
(Begin section -3.100000 0.200000)
G82 F#13 R#6 Z[0-#4] P0.03 X-3.100000 Y0.200000
(End section)
(Begin section -3.000000 0.200000)
G82 F#13 R#6 Z[0-#4] P0.03 X-3.000000 Y0.200000
(End section)
(Begin section -2.900000 0.200000)
G82 F#13 R#6 Z[0-#4] P0.03 X-2.900000 Y0.200000
(End section)
(End block of reorderable sections)
M5
G00 Z#7
(msg,Insert DRILL 0.046)
#30=[#30+1] T#30 M6
S1000 M3
(Begin block of reorderable sections)
(Begin section -0.800000 0.800000)
G82 F#13 R#6 Z[0-#4] P0.03 X-0.800000 Y0.800000
(End section)
(Begin section -0.900000 0.800000)
G82 F#13 R#6 Z[0-#4] P0.03 X-0.900000 Y0.800000
(End section)
(Begin section -1.000000 0.800000)
G82 F#13 R#6 Z[0-#4] P0.03 X-1.000000 Y0.800000
(End section)
(Begin section -1.100000 0.800000)
G82 F#13 R#6 Z[0-#4] P0.03 X-1.100000 Y0.800000
(End section)
(Begin section -1.200000 0.800000)
G82 F#13 R#6 Z[0-#4] P0.03 X-1.200000 Y0.800000
(End section)
(Begin section -1.300000 0.800000)
G82 F#13 R#6 Z[0-#4] P0.03 X-1.300000 Y0.800000
(End section)
(Begin section -1.400000 0.800000)
G82 F#13 R#6 Z[0-#4] P0.03 X-1.400000 Y0.800000
(End section)
(Begin section -1.500000 0.800000)
G82 F#13 R#6 Z[0-#4] P0.03 X-1.500000 Y0.800000
(End section)
(Begin section -0.600000 0.800000)
G82 F#13 R#6 Z[0-#4] P0.03 X-0.600000 Y0.800000
(End section)
(Begin section -0.500000 0.800000)
G82 F#13 R#6 Z[0-#4] P0.03 X-0.500000 Y0.800000
(End section)
(End block of reorderable sections)
M5
G00 Z#7
(msg,Insert END-MILL 0.031500)
#30=[#30+1] T#30 M6
S1000 M3
(Begin block of reorderable sections)
(Begin section -0.400750 0.260000)
(dia 0.130000 ofs 0.049250)
G0 X-0.400750 Y0.260000
G1 Z0 F#15
G2 X-0.400750 Y0.260000 Z[0-#4] I-0.049250 J0
G2 X-0.400750 Y0.260000 I-0.049250 J0
G0 Z#6
(End section)
(Begin section -0.150750 0.200000)
(dia 0.130000 ofs 0.049250)
G0 X-0.150750 Y0.200000
G1 Z0 F#15
G2 X-0.150750 Y0.200000 Z[0-#4] I-0.049250 J0
G2 X-0.150750 Y0.200000 I-0.049250 J0
G0 Z#6
(End section)
(Begin section -0.150750 0.850000)
(dia 0.130000 ofs 0.049250)
G0 X-0.150750 Y0.850000
G1 Z0 F#15
G2 X-0.150750 Y0.850000 Z[0-#4] I-0.049250 J0
G2 X-0.150750 Y0.850000 I-0.049250 J0
G0 Z#6
(End section)
(Begin section -1.649750 0.575000)
(dia 0.130000 ofs 0.049250)
G0 X-1.649750 Y0.575000
G1 Z0 F#15
G2 X-1.649750 Y0.575000 Z[0-#4] I-0.049250 J0
G2 X-1.649750 Y0.575000 I-0.049250 J0
G0 Z#6
(End section)
(Begin section -3.501750 0.575000)
(dia 0.130000 ofs 0.049250)
G0 X-3.501750 Y0.575000
G1 Z0 F#15
G2 X-3.501750 Y0.575000 Z[0-#4] I-0.049250 J0
G2 X-3.501750 Y0.575000 I-0.049250 J0
G0 Z#6
(End section)
(Begin section -3.500750 0.260000)
(dia 0.130000 ofs 0.049250)
G0 X-3.500750 Y0.260000
G1 Z0 F#15
G2 X-3.500750 Y0.260000 Z[0-#4] I-0.049250 J0
G2 X-3.500750 Y0.260000 I-0.049250 J0
G0 Z#6
(End section)
(Begin section -3.750750 0.200000)
(dia 0.130000 ofs 0.049250)
G0 X-3.750750 Y0.200000
G1 Z0 F#15
G2 X-3.750750 Y0.200000 Z[0-#4] I-0.049250 J0
G2 X-3.750750 Y0.200000 I-0.049250 J0
G0 Z#6
(End section)
(Begin section -3.750750 0.850000)
(dia 0.130000 ofs 0.049250)
G0 X-3.750750 Y0.850000
G1 Z0 F#15
G2 X-3.750750 Y0.850000 Z[0-#4] I-0.049250 J0
G2 X-3.750750 Y0.850000 I-0.049250 J0
G0 Z#6
(End section)
(End block of reorderable sections)
M5
G00 Z#7
(msg,Insert DIMENSION-MILL)
#30=[#30+1] T#30 M6
S1000 M3
G00 X-0.050000 Y0.050000
G01 F#14 Z[0-#5]
G01 F#14 X-3.950000 Y0.050000
G01 F#14 X-3.950000 Y1.000000
G01 F#14 X-0.050000 Y1.000000
G01 F#14 X-0.050000 Y0.050000
G00 Z#6
G00 Z#7
T0M6
M02
